; G-Code generated by Simplify3D(R) Version 4.1.2
; Apr 2, 2020 at 6:35:34 PM
; Settings Summary
;   processName,Process1
;   applyToModels,3DBenchy
;   profileName,StiansEnder5PlusTitan (modified)
;   profileVersion,2019-04-06 08:00:00
;   baseProfile,Default (modified)
;   printMaterial,addNorth E-PLA
;   printQuality,Medium
;   printExtruders,
;   extruderName,Primary Extruder
;   extruderToolheadNumber,0
;   extruderDiameter,0.4
;   extruderAutoWidth,0
;   extruderWidth,0.48
;   extrusionMultiplier,1
;   extruderUseRetract,1
;   extruderRetractionDistance,3
;   extruderExtraRestartDistance,0
;   extruderRetractionZLift,0
;   extruderRetractionSpeed,2700
;   extruderUseCoasting,0
;   extruderCoastingDistance,0
;   extruderUseWipe,0
;   extruderWipeDistance,2
;   primaryExtruder,0
;   layerHeight,0.2
;   topSolidLayers,2
;   bottomSolidLayers,2
;   perimeterOutlines,2
;   printPerimetersInsideOut,1
;   startPointOption,3
;   startPointOriginX,0
;   startPointOriginY,0
;   sequentialIslands,0
;   spiralVaseMode,0
;   firstLayerHeightPercentage,100
;   firstLayerWidthPercentage,100
;   firstLayerUnderspeed,0.1
;   useRaft,0
;   raftExtruder,0
;   raftTopLayers,3
;   raftBaseLayers,2
;   raftOffset,3
;   raftSeparationDistance,0.14
;   raftTopInfill,100
;   aboveRaftSpeedMultiplier,0.3
;   useSkirt,1
;   skirtExtruder,0
;   skirtLayers,3
;   skirtOutlines,2
;   skirtOffset,0
;   usePrimePillar,0
;   primePillarExtruder,999
;   primePillarWidth,12
;   primePillarLocation,7
;   primePillarSpeedMultiplier,1.25
;   useOozeShield,0
;   oozeShieldExtruder,999
;   oozeShieldOffset,2
;   oozeShieldOutlines,1
;   oozeShieldSidewallShape,1
;   oozeShieldSidewallAngle,30
;   oozeShieldSpeedMultiplier,1
;   infillExtruder,0
;   internalInfillPattern,Rectilinear
;   externalInfillPattern,Rectilinear
;   infillPercentage,26
;   outlineOverlapPercentage,10
;   infillExtrusionWidthPercentage,100
;   minInfillLength,2
;   infillLayerInterval,1
;   internalInfillAngles,45,-45
;   overlapInternalInfillAngles,0
;   externalInfillAngles,45,-45
;   generateSupport,0
;   supportExtruder,0
;   supportInfillPercentage,30
;   supportExtraInflation,0
;   supportBaseLayers,0
;   denseSupportExtruder,0
;   denseSupportLayers,0
;   denseSupportInfillPercentage,70
;   supportLayerInterval,1
;   supportHorizontalPartOffset,0.3
;   supportUpperSeparationLayers,1
;   supportLowerSeparationLayers,1
;   supportType,0
;   supportGridSpacing,4
;   maxOverhangAngle,45
;   supportAngles,0
;   temperatureName,Primary Extruder,Heated Bed
;   temperatureNumber,0,0
;   temperatureSetpointCount,1,1
;   temperatureSetpointLayers,1,1
;   temperatureSetpointTemperatures,200,60
;   temperatureStabilizeAtStartup,1,1
;   temperatureHeatedBed,0,1
;   fanLayers,1,2
;   fanSpeeds,0,100
;   blipFanToFullPower,1
;   adjustSpeedForCooling,1
;   minSpeedLayerTime,10
;   minCoolingSpeedSlowdown,10
;   increaseFanForCooling,1
;   minFanLayerTime,45
;   maxCoolingFanSpeed,100
;   increaseFanForBridging,1
;   bridgingFanSpeed,100
;   use5D,1
;   relativeEdistances,0
;   allowEaxisZeroing,1
;   independentExtruderAxes,0
;   includeM10123,0
;   stickySupport,1
;   applyToolheadOffsets,0
;   gcodeXoffset,0
;   gcodeYoffset,0
;   gcodeZoffset,0
;   overrideMachineDefinition,1
;   machineTypeOverride,0
;   strokeXoverride,361
;   strokeYoverride,367
;   strokeZoverride,400
;   originOffsetXoverride,0
;   originOffsetYoverride,0
;   originOffsetZoverride,0
;   homeXdirOverride,1
;   homeYdirOverride,1
;   homeZdirOverride,-1
;   flipXoverride,1
;   flipYoverride,-1
;   flipZoverride,1
;   toolheadOffsets,0,0|0,0|0,0|0,0|0,0|0,0
;   overrideFirmwareConfiguration,0
;   firmwareTypeOverride,RepRap (Marlin/Repetier/Sprinter)
;   GPXconfigOverride,r2
;   baudRateOverride,115200
;   overridePrinterModels,1
;   printerModelsOverride
;   startingGcode,G32 ; home and level bed by screws,
;   layerChangeGcode,
;   retractionGcode,
;   toolChangeGcode,
;   endingGcode,G91,G1 X999 Y999 Z50 H1 F1500,G1 X-15 Y-15 F9999,G1 E7 F300,G1 E3 F1000,G1 E-20 F1000,G90,M106 S0 ; turn off cooling fan,M104 S0 ; turn off extruder,M140 S0 ; turn off bed,M84 ; disable motors
;   exportFileFormat,gcode
;   celebration,0
;   celebrationSong,Random Song
;   postProcessing,
;   defaultSpeed,3600
;   outlineUnderspeed,0.5
;   solidInfillUnderspeed,0.8
;   supportUnderspeed,0.8
;   rapidXYspeed,30000
;   rapidZspeed,2400
;   minBridgingArea,50
;   bridgingExtraInflation,0
;   bridgingExtrusionMultiplier,1
;   bridgingSpeedMultiplier,1
;   useFixedBridgingAngle,0
;   fixedBridgingAngle,0
;   applyBridgingToPerimeters,1
;   filamentDiameters,1.75|1.75|1.75|1.75|1.75|1.75
;   filamentPricesPerKg,46|46|46|46|46|46
;   filamentDensities,1.25|1.25|1.25|1.25|1.25|1.25
;   useMinPrintHeight,0
;   minPrintHeight,0
;   useMaxPrintHeight,0
;   maxPrintHeight,0
;   useDiaphragm,0
;   diaphragmLayerInterval,20
;   robustSlicing,1
;   mergeAllIntoSolid,0
;   onlyRetractWhenCrossingOutline,1
;   retractBetweenLayers,0
;   useRetractionMinTravel,1
;   retractionMinTravel,1.5
;   retractWhileWiping,0
;   onlyWipeOutlines,1
;   avoidCrossingOutline,1
;   maxMovementDetourFactor,10
;   toolChangeRetractionDistance,12
;   toolChangeExtraRestartDistance,-0.5
;   toolChangeRetractionSpeed,600
;   externalThinWallType,1
;   internalThinWallType,1
;   thinWallAllowedOverlapPercentage,10
;   singleExtrusionMinLength,1
;   singleExtrusionMinPrintingWidthPercentage,50
;   singleExtrusionMaxPrintingWidthPercentage,200
;   singleExtrusionEndpointExtension,0.2
;   horizontalSizeCompensation,0
G90
M82
M106 S0
M140 S60
M190 S60
M104 S200 T0
M109 S200 T0
G32 ; home and level bed by screws
; process Process1
; layer 1, Z = 0.200
T0
G92 E0.0000
G1 E-3.0000 F2700
; feature skirt
; tool H0.200 W0.480
G1 Z0.200 F2400
G1 X37.371 Y273.303 F30000
G1 E0.0000 F2700
G92 E0.0000
G1 X37.418 Y273.297 E0.0019 F360
G1 X61.291 Y271.774 E0.9567
G1 X61.311 Y271.773 E0.9575
G1 X62.599 Y271.763 E1.0088
G1 X62.630 Y271.764 E1.0101
G1 X64.041 Y271.875 E1.0666
G1 X64.068 Y271.879 E1.0677
G1 X65.066 Y272.035 E1.1080
G1 X65.089 Y272.039 E1.1089
G1 X66.088 Y272.262 E1.1498
G1 X66.110 Y272.268 E1.1507
G1 X67.073 Y272.547 E1.1907
G1 X67.094 Y272.554 E1.1916
G1 X68.020 Y272.886 E1.2309
G1 X68.042 Y272.895 E1.2318
G1 X69.066 Y273.342 E1.2764
G1 X69.086 Y273.352 E1.2773
G1 X69.841 Y273.740 E1.3112
G1 X69.860 Y273.750 E1.3120
G1 X70.746 Y274.272 E1.3531
G1 X70.765 Y274.284 E1.3540
G1 X71.539 Y274.808 E1.3913
G1 X71.558 Y274.821 E1.3922
G1 X72.433 Y275.500 E1.4364
G1 X72.456 Y275.519 E1.4376
G1 X73.609 Y276.581 E1.5001
G1 X73.634 Y276.606 E1.5016
G1 X74.683 Y277.786 E1.5646
G1 X74.703 Y277.810 E1.5658
G1 X75.380 Y278.717 E1.6110
G1 X75.395 Y278.740 E1.6121
G1 X76.078 Y279.818 E1.6630
G1 X76.099 Y279.855 E1.6647
G1 X76.222 Y280.111 E1.6760
G1 X76.248 Y280.185 E1.6792
G1 X76.357 Y280.653 E1.6984
G1 X76.365 Y280.769 E1.7030
G1 X76.316 Y281.303 E1.7244
G1 X76.296 Y281.391 E1.7280
G1 X76.193 Y281.681 E1.7403
G1 X76.165 Y281.741 E1.7430
G1 X75.786 Y282.392 E1.7730
G1 X75.773 Y282.412 E1.7740
G1 X75.158 Y283.319 E1.8177
G1 X75.144 Y283.339 E1.8187
G1 X74.497 Y284.166 E1.8606
G1 X74.482 Y284.184 E1.8615
G1 X73.872 Y284.871 E1.8982
G1 X73.857 Y284.886 E1.8990
G1 X73.173 Y285.571 E1.9377
G1 X73.157 Y285.586 E1.9385
G1 X72.463 Y286.201 E1.9755
G1 X72.447 Y286.215 E1.9764
G1 X71.716 Y286.788 E2.0135
G1 X71.701 Y286.800 E2.0143
G1 X71.045 Y287.260 E2.0462
G1 X71.027 Y287.272 E2.0471
G1 X70.116 Y287.832 E2.0898
G1 X70.098 Y287.843 E2.0906
G1 X69.364 Y288.237 E2.1239
G1 X69.344 Y288.247 E2.1247
G1 X68.350 Y288.704 E2.1684
G1 X68.330 Y288.713 E2.1693
G1 X67.535 Y289.021 E2.2033
G1 X67.515 Y289.028 E2.2042
G1 X66.553 Y289.338 E2.2445
G1 X66.532 Y289.344 E2.2454
G1 X65.596 Y289.582 E2.2839
G1 X65.577 Y289.586 E2.2847
G1 X64.805 Y289.738 E2.3161
G1 X64.786 Y289.741 E2.3169
G1 X63.904 Y289.866 E2.3524
G1 X63.884 Y289.869 E2.3532
G1 X62.987 Y289.944 E2.3892
G1 X62.967 Y289.946 E2.3899
G1 X62.156 Y289.970 E2.4223
G1 X62.136 Y289.970 E2.4231
G1 X61.211 Y289.947 E2.4601
G1 X61.197 Y289.947 E2.4606
G1 X37.418 Y288.429 E3.4116
G1 X37.371 Y288.423 E3.4135
G1 X37.072 Y288.363 E3.4257
G1 X37.014 Y288.347 E3.4281
G1 X36.614 Y288.194 E3.4452
G1 X36.556 Y288.166 E3.4478
G1 X36.301 Y288.012 E3.4596
G1 X36.259 Y287.982 E3.4617
G1 X36.029 Y287.794 E3.4736
G1 X35.983 Y287.748 E3.4762
G1 X35.710 Y287.425 E3.4930
G1 X35.673 Y287.372 E3.4956
G1 X35.521 Y287.109 E3.5077
G1 X35.495 Y287.053 E3.5102
G1 X35.343 Y286.638 E3.5278
G1 X35.324 Y286.558 E3.5311
G1 X35.254 Y285.986 E3.5541
G1 X35.251 Y285.942 E3.5559
G1 X35.251 Y275.841 E3.9590
G1 X35.252 Y275.812 E3.9602
G1 X35.292 Y275.325 E3.9797
G1 X35.305 Y275.254 E3.9826
G1 X35.430 Y274.825 E4.0004
G1 X35.457 Y274.756 E4.0034
G1 X35.667 Y274.362 E4.0212
G1 X35.720 Y274.287 E4.0249
G1 X36.114 Y273.858 E4.0481
G1 X36.183 Y273.799 E4.0517
G1 X36.541 Y273.568 E4.0687
G1 X36.608 Y273.533 E4.0718
G1 X37.014 Y273.379 E4.0891
G1 X37.072 Y273.362 E4.0915
G1 X37.371 Y273.303 E4.1037
G1 X37.449 Y273.777 F30000
G92 E0.0000
G1 X37.464 Y273.775 E0.0006 F360
G1 X61.315 Y272.253 E0.9545
G1 X61.322 Y272.253 E0.9548
G1 X62.592 Y272.243 E1.0055
G1 X62.602 Y272.244 E1.0059
G1 X63.994 Y272.353 E1.0616
G1 X64.003 Y272.354 E1.0620
G1 X64.984 Y272.508 E1.1016
G1 X64.992 Y272.510 E1.1019
G1 X65.977 Y272.729 E1.1422
G1 X65.984 Y272.731 E1.1425
G1 X66.932 Y273.006 E1.1819
G1 X66.939 Y273.008 E1.1822
G1 X67.850 Y273.335 E1.2208
G1 X67.857 Y273.338 E1.2211
G1 X68.867 Y273.779 E1.2651
G1 X68.874 Y273.782 E1.2654
G1 X69.616 Y274.163 E1.2987
G1 X69.622 Y274.167 E1.2990
G1 X70.496 Y274.682 E1.3394
G1 X70.502 Y274.686 E1.3397
G1 X71.264 Y275.201 E1.3765
G1 X71.270 Y275.206 E1.3768
G1 X72.131 Y275.873 E1.4202
G1 X72.139 Y275.880 E1.4206
G1 X73.275 Y276.926 E1.4823
G1 X73.284 Y276.934 E1.4828
G1 X74.318 Y278.097 E1.5449
G1 X74.324 Y278.105 E1.5453
G1 X74.989 Y278.997 E1.5897
G1 X74.995 Y279.005 E1.5901
G1 X75.665 Y280.063 E1.6401
G1 X75.672 Y280.075 E1.6406
G1 X75.778 Y280.295 E1.6504
G1 X75.787 Y280.320 E1.6514
G1 X75.881 Y280.725 E1.6680
G1 X75.884 Y280.763 E1.6696
G1 X75.841 Y281.229 E1.6882
G1 X75.834 Y281.258 E1.6894
G1 X75.748 Y281.499 E1.6996
G1 X75.739 Y281.519 E1.7005
G1 X75.375 Y282.143 E1.7293
G1 X75.371 Y282.150 E1.7296
G1 X74.766 Y283.043 E1.7727
G1 X74.761 Y283.050 E1.7731
G1 X74.123 Y283.865 E1.8144
G1 X74.118 Y283.870 E1.8146
G1 X73.517 Y284.547 E1.8508
G1 X73.513 Y284.552 E1.8510
G1 X72.838 Y285.226 E1.8891
G1 X72.833 Y285.231 E1.8894
G1 X72.150 Y285.837 E1.9258
G1 X72.144 Y285.842 E1.9261
G1 X71.425 Y286.407 E1.9626
G1 X71.420 Y286.411 E1.9629
G1 X70.775 Y286.863 E1.9943
G1 X70.769 Y286.867 E1.9946
G1 X69.870 Y287.420 E2.0367
G1 X69.864 Y287.423 E2.0370
G1 X69.142 Y287.811 E2.0697
G1 X69.136 Y287.814 E2.0700
G1 X68.156 Y288.265 E2.1131
G1 X68.149 Y288.268 E2.1134
G1 X67.369 Y288.571 E2.1468
G1 X67.362 Y288.574 E2.1471
G1 X66.414 Y288.879 E2.1868
G1 X66.406 Y288.881 E2.1871
G1 X65.485 Y289.115 E2.2251
G1 X65.478 Y289.116 E2.2253
G1 X64.718 Y289.266 E2.2563
G1 X64.712 Y289.267 E2.2565
G1 X63.844 Y289.390 E2.2915
G1 X63.837 Y289.391 E2.2918
G1 X62.953 Y289.466 E2.3272
G1 X62.946 Y289.466 E2.3274
G1 X62.148 Y289.490 E2.3593
G1 X62.141 Y289.490 E2.3596
G1 X61.223 Y289.468 E2.3963
G1 X37.464 Y287.951 E3.3464
G1 X37.449 Y287.949 E3.3471
G1 X37.186 Y287.897 E3.3578
G1 X37.166 Y287.891 E3.3586
G1 X36.805 Y287.753 E3.3740
G1 X36.786 Y287.744 E3.3749
G1 X36.564 Y287.610 E3.3852
G1 X36.550 Y287.600 E3.3859
G1 X36.351 Y287.437 E3.3962
G1 X36.335 Y287.421 E3.3970
G1 X36.091 Y287.132 E3.4122
G1 X36.078 Y287.114 E3.4130
G1 X35.948 Y286.887 E3.4235
G1 X35.939 Y286.869 E3.4243
G1 X35.803 Y286.499 E3.4400
G1 X35.797 Y286.472 E3.4411
G1 X35.732 Y285.942 E3.4624
G1 X35.731 Y285.928 E3.4630
G1 X35.731 Y275.851 E3.8652
G1 X35.731 Y275.841 E3.8656
G1 X35.768 Y275.388 E3.8837
G1 X35.773 Y275.365 E3.8847
G1 X35.884 Y274.982 E3.9006
G1 X35.893 Y274.959 E3.9016
G1 X36.076 Y274.614 E3.9172
G1 X36.094 Y274.589 E3.9184
G1 X36.446 Y274.205 E3.9392
G1 X36.470 Y274.186 E3.9404
G1 X36.781 Y273.984 E3.9552
G1 X36.803 Y273.973 E3.9562
G1 X37.166 Y273.834 E3.9717
G1 X37.186 Y273.829 E3.9725
G1 X37.449 Y273.777 E3.9832
; feature inner perimeter
G1 X37.604 Y274.479 F30000
G1 X37.597 Y274.481
G1 X37.696 Y274.951
G92 E0.0000
G1 X37.876 Y274.929 E0.0073 F270
G1 X61.232 Y273.510 E0.9412
G1 X62.047 Y273.484 E0.9737
G1 X62.584 Y273.492 E0.9951
G1 X63.116 Y273.521 E1.0164
G1 X64.084 Y273.625 E1.0553
G1 X64.957 Y273.778 E1.0906
G1 X65.899 Y274.008 E1.1294
G1 X66.784 Y274.285 E1.1664
G1 X67.572 Y274.588 E1.2000
G1 X68.030 Y274.790 E1.2200
G1 X68.523 Y275.031 E1.2419
G1 X69.221 Y275.412 E1.2737
G1 X70.090 Y275.962 E1.3147
G1 X70.801 Y276.481 E1.3499
G1 X71.225 Y276.825 E1.3716
G1 X71.619 Y277.171 E1.3926
G1 X72.213 Y277.744 E1.4255
G1 X72.578 Y278.132 E1.4468
G1 X72.935 Y278.542 E1.4684
G1 X72.735 Y278.819 E1.4821
G1 X72.377 Y278.671 E1.4976
G1 X72.116 Y278.628 E1.5081
G1 X69.774 Y278.631 E1.6016
G1 X69.433 Y278.681 E1.6153
G1 X69.108 Y278.805 E1.6292
G1 X68.788 Y279.065 E1.6457
G1 X68.533 Y278.830 E1.6595
G1 X68.285 Y278.691 E1.6709
G1 X67.944 Y278.615 E1.6848
G1 X67.634 Y278.656 E1.6973
G1 X67.303 Y278.817 E1.7120
G1 X66.993 Y279.138 E1.7298
G1 X66.798 Y279.462 E1.7449
G1 X66.591 Y279.931 E1.7653
G1 X66.290 Y279.259 E1.7947
G1 X66.140 Y279.054 E1.8049
G1 X65.953 Y278.886 E1.8149
G1 X65.712 Y278.744 E1.8260
G1 X65.333 Y278.635 E1.8418
G1 X65.061 Y278.623 E1.8526
G1 X64.816 Y278.662 E1.8626
G1 X64.578 Y278.753 E1.8727
G1 X64.336 Y278.928 E1.8846
G1 X64.191 Y279.142 E1.8950
G1 X63.927 Y278.845 E1.9108
G1 X63.498 Y278.634 E1.9299
G1 X63.063 Y278.626 E1.9473
G1 X62.651 Y278.804 E1.9652
G1 X62.372 Y279.036 E1.9797
G1 X62.228 Y279.209 E1.9887
G1 X61.867 Y278.858 E2.0088
G1 X61.574 Y278.693 E2.0222
G1 X61.311 Y278.627 E2.0330
G1 X61.057 Y278.624 E2.0431
G1 X60.804 Y278.675 E2.0534
G1 X60.575 Y278.773 E2.0634
G1 X60.366 Y278.912 E2.0734
G1 X60.174 Y279.116 E2.0846
G1 X60.010 Y279.445 E2.0992
G1 X59.978 Y279.791 E2.1131
G1 X60.013 Y280.050 E2.1235
G1 X60.126 Y280.383 E2.1376
G1 X60.715 Y281.442 E2.1860
G1 X60.832 Y281.619 E2.1944
G1 X60.683 Y281.825 E2.2046
G1 X60.348 Y282.400 E2.2311
G1 X59.962 Y281.952 E2.2547
G1 X59.708 Y281.762 E2.2674
G1 X59.436 Y281.625 E2.2796
G1 X59.126 Y281.533 E2.2925
G1 X58.703 Y281.506 E2.3094
G1 X58.323 Y281.565 E2.3247
G1 X58.360 Y281.231 E2.3381
G1 X58.375 Y280.842 E2.3536
G1 X58.354 Y280.299 E2.3753
G1 X58.307 Y279.919 E2.3906
G1 X58.166 Y279.324 E2.4150
G1 X58.053 Y279.023 E2.4278
G1 X57.926 Y278.753 E2.4398
G1 X57.778 Y278.500 E2.4515
G1 X57.611 Y278.265 E2.4630
G1 X57.421 Y278.048 E2.4745
G1 X57.167 Y277.818 E2.4882
G1 X56.943 Y277.658 E2.4991
G1 X56.690 Y277.518 E2.5107
G1 X56.208 Y277.343 E2.5311
G1 X55.596 Y277.232 E2.5560
G1 X55.022 Y277.193 E2.5789
G1 X53.630 Y277.179 E2.6345
G1 X53.243 Y277.245 E2.6502
G1 X52.928 Y277.383 E2.6639
G1 X52.702 Y277.559 E2.6753
G1 X52.498 Y277.848 E2.6894
G1 X52.277 Y278.651 E2.7227
G1 X51.941 Y277.986 E2.7524
G1 X51.774 Y277.765 E2.7635
G1 X51.589 Y277.580 E2.7739
G1 X51.374 Y277.414 E2.7848
G1 X51.041 Y277.235 E2.7998
G1 X50.763 Y277.136 E2.8116
G1 X50.272 Y277.039 E2.8316
G1 X49.742 Y277.011 E2.8528
G1 X49.361 Y277.037 E2.8680
G1 X49.031 Y277.092 E2.8814
G1 X48.686 Y277.190 E2.8957
G1 X48.312 Y277.361 E2.9121
G1 X47.761 Y277.752 E2.9391
G1 X47.652 Y277.555 E2.9481
G1 X47.342 Y277.310 E2.9638
G1 X47.011 Y277.206 E2.9777
G1 X46.775 Y277.184 E2.9872
G1 X43.537 Y277.199 E3.1164
G1 X42.923 Y277.152 E3.1410
G1 X42.485 Y277.210 E3.1586
G1 X42.097 Y277.447 E3.1767
G1 X41.772 Y277.878 E3.1983
G1 X41.362 Y277.526 E3.2199
G1 X41.121 Y277.371 E3.2313
G1 X40.890 Y277.253 E3.2416
G1 X40.631 Y277.155 E3.2527
G1 X40.349 Y277.081 E3.2643
G1 X40.040 Y277.035 E3.2768
G1 X39.722 Y277.015 E3.2895
G1 X39.315 Y277.026 E3.3057
G1 X38.763 Y277.118 E3.3281
G1 X38.467 Y277.212 E3.3405
G1 X38.199 Y277.326 E3.3521
G1 X37.939 Y277.467 E3.3639
G1 X37.628 Y277.686 E3.3791
G1 X37.374 Y277.915 E3.3927
G1 X36.884 Y278.461 E3.4220
G1 X36.885 Y275.953 E3.5221
G1 X36.927 Y275.672 E3.5335
