; G-Code generated by Simplify3D(R) Version 4.1.2
; Apr 1, 2020 at 9:54:35 PM
; Settings Summary
;   processName,Process1
;   applyToModels,Body1
;   profileName,StiansEnder5PlusTitan (modified)
;   profileVersion,2019-04-06 08:00:00
;   baseProfile,Default (modified)
;   printMaterial,addNorth E-PLA
;   printQuality,Medium
;   printExtruders,
;   extruderName,Primary Extruder
;   extruderToolheadNumber,0
;   extruderDiameter,0.4
;   extruderAutoWidth,1
;   extruderWidth,0.48
;   extrusionMultiplier,0.93
;   extruderUseRetract,1
;   extruderRetractionDistance,3
;   extruderExtraRestartDistance,0
;   extruderRetractionZLift,0
;   extruderRetractionSpeed,2700
;   extruderUseCoasting,0
;   extruderCoastingDistance,0
;   extruderUseWipe,0
;   extruderWipeDistance,2
;   primaryExtruder,0
;   layerHeight,0.2
;   topSolidLayers,0
;   bottomSolidLayers,0
;   perimeterOutlines,1
;   printPerimetersInsideOut,1
;   startPointOption,3
;   startPointOriginX,0
;   startPointOriginY,0
;   sequentialIslands,0
;   spiralVaseMode,0
;   firstLayerHeightPercentage,150
;   firstLayerWidthPercentage,120
;   firstLayerUnderspeed,0.15
;   useRaft,0
;   raftExtruder,0
;   raftTopLayers,3
;   raftBaseLayers,2
;   raftOffset,3
;   raftSeparationDistance,0.14
;   raftTopInfill,100
;   aboveRaftSpeedMultiplier,0.3
;   useSkirt,1
;   skirtExtruder,0
;   skirtLayers,3
;   skirtOutlines,4
;   skirtOffset,0
;   usePrimePillar,0
;   primePillarExtruder,999
;   primePillarWidth,12
;   primePillarLocation,7
;   primePillarSpeedMultiplier,1.25
;   useOozeShield,0
;   oozeShieldExtruder,999
;   oozeShieldOffset,2
;   oozeShieldOutlines,1
;   oozeShieldSidewallShape,1
;   oozeShieldSidewallAngle,30
;   oozeShieldSpeedMultiplier,1
;   infillExtruder,0
;   internalInfillPattern,Triangular
;   externalInfillPattern,Rectilinear
;   infillPercentage,0
;   outlineOverlapPercentage,10
;   infillExtrusionWidthPercentage,100
;   minInfillLength,2
;   infillLayerInterval,1
;   internalInfillAngles,0,60,-60
;   overlapInternalInfillAngles,1
;   externalInfillAngles,45,-45
;   generateSupport,0
;   supportExtruder,0
;   supportInfillPercentage,30
;   supportExtraInflation,0
;   supportBaseLayers,0
;   denseSupportExtruder,0
;   denseSupportLayers,0
;   denseSupportInfillPercentage,70
;   supportLayerInterval,1
;   supportHorizontalPartOffset,0.3
;   supportUpperSeparationLayers,1
;   supportLowerSeparationLayers,1
;   supportType,0
;   supportGridSpacing,4
;   maxOverhangAngle,45
;   supportAngles,0
;   temperatureName,Primary Extruder,Heated Bed
;   temperatureNumber,0,0
;   temperatureSetpointCount,1,1
;   temperatureSetpointLayers,1,1
;   temperatureSetpointTemperatures,210,60
;   temperatureStabilizeAtStartup,1,1
;   temperatureHeatedBed,0,1
;   fanLayers,1,2
;   fanSpeeds,0,100
;   blipFanToFullPower,1
;   adjustSpeedForCooling,0
;   minSpeedLayerTime,10
;   minCoolingSpeedSlowdown,10
;   increaseFanForCooling,1
;   minFanLayerTime,45
;   maxCoolingFanSpeed,100
;   increaseFanForBridging,1
;   bridgingFanSpeed,100
;   use5D,1
;   relativeEdistances,0
;   allowEaxisZeroing,1
;   independentExtruderAxes,0
;   includeM10123,0
;   stickySupport,1
;   applyToolheadOffsets,0
;   gcodeXoffset,0
;   gcodeYoffset,0
;   gcodeZoffset,0
;   overrideMachineDefinition,1
;   machineTypeOverride,0
;   strokeXoverride,361
;   strokeYoverride,367
;   strokeZoverride,400
;   originOffsetXoverride,0
;   originOffsetYoverride,0
;   originOffsetZoverride,0
;   homeXdirOverride,1
;   homeYdirOverride,1
;   homeZdirOverride,-1
;   flipXoverride,1
;   flipYoverride,-1
;   flipZoverride,1
;   toolheadOffsets,0,0|0,0|0,0|0,0|0,0|0,0
;   overrideFirmwareConfiguration,1
;   firmwareTypeOverride,RepRap (Marlin/Repetier/Sprinter)
;   GPXconfigOverride,r2
;   baudRateOverride,115200
;   overridePrinterModels,1
;   printerModelsOverride
;   startingGcode,G32 ; home and level bed by screws,
;   layerChangeGcode,
;   retractionGcode,
;   toolChangeGcode,
;   endingGcode,G91,G1 X999 Y999 Z50 H1 F1500,G1 X-15 Y-15 F9999,G1 E7 F300,G1 E3 F1000,G1 E-20 F1000,G90,M106 S0 ; turn off cooling fan,M104 S0 ; turn off extruder,M140 S0 ; turn off bed,M84 ; disable motors
;   exportFileFormat,gcode
;   celebration,0
;   celebrationSong,Random Song
;   postProcessing,
;   defaultSpeed,4500
;   outlineUnderspeed,1
;   solidInfillUnderspeed,1
;   supportUnderspeed,0.8
;   rapidXYspeed,30000
;   rapidZspeed,2400
;   minBridgingArea,50
;   bridgingExtraInflation,0
;   bridgingExtrusionMultiplier,1
;   bridgingSpeedMultiplier,1
;   useFixedBridgingAngle,0
;   fixedBridgingAngle,0
;   applyBridgingToPerimeters,0
;   filamentDiameters,1.75|1.75|1.75|1.75|1.75|1.75
;   filamentPricesPerKg,46|46|46|46|46|46
;   filamentDensities,1.25|1.25|1.25|1.25|1.25|1.25
;   useMinPrintHeight,0
;   minPrintHeight,0
;   useMaxPrintHeight,0
;   maxPrintHeight,0
;   useDiaphragm,0
;   diaphragmLayerInterval,20
;   robustSlicing,1
;   mergeAllIntoSolid,0
;   onlyRetractWhenCrossingOutline,1
;   retractBetweenLayers,0
;   useRetractionMinTravel,1
;   retractionMinTravel,1.5
;   retractWhileWiping,0
;   onlyWipeOutlines,1
;   avoidCrossingOutline,1
;   maxMovementDetourFactor,10
;   toolChangeRetractionDistance,12
;   toolChangeExtraRestartDistance,-0.5
;   toolChangeRetractionSpeed,600
;   externalThinWallType,1
;   internalThinWallType,1
;   thinWallAllowedOverlapPercentage,10
;   singleExtrusionMinLength,1
;   singleExtrusionMinPrintingWidthPercentage,50
;   singleExtrusionMaxPrintingWidthPercentage,200
;   singleExtrusionEndpointExtension,0.2
;   horizontalSizeCompensation,0
G90
M82
M106 S255
G4 P500
M106 S148
M140 S60
M190 S60
M104 S210 T0
M109 S210 T0
G32 ; home and level bed by screws
; process Process1
; layer 1, Z = 0.300
T0
G92 E0.0000
G1 E-3.0000 F2700
; feature skirt
; tool H0.300 W0.576
G1 Z0.300 F2400
G1 X58.545 Y51.944 F30000
G1 E0.0000 F2700
G92 E0.0000
G1 X59.057 Y51.522 E0.0443 F675
G1 X59.305 Y51.371 E0.0637
G1 X59.876 Y51.128 E0.1052
G1 X60.052 Y51.072 E0.1175
G1 X60.658 Y50.937 E0.1590
G1 X60.773 Y50.919 E0.1668
G1 X61.443 Y50.849 E0.2118
G1 X61.545 Y50.843 E0.2187
G1 X63.042 Y50.840 E0.3187
G1 X63.111 Y50.843 E0.3233
G1 X64.913 Y50.961 E0.4439
G1 X64.938 Y50.963 E0.4456
G1 X71.645 Y51.574 E0.8956
G1 X74.069 Y51.707 E1.0578
G1 X76.481 Y51.735 E1.2189
G1 X78.804 Y51.624 E1.3743
G1 X80.972 Y51.349 E1.5204
G1 X82.934 Y50.898 E1.6548
G1 X84.654 Y50.272 E1.7771
G1 X86.126 Y49.479 E1.8888
G1 X87.366 Y48.528 E1.9932
G1 X88.402 Y47.421 E2.0946
G1 X89.259 Y46.154 E2.1968
G1 X89.958 Y44.734 E2.3025
G1 X90.514 Y43.182 E2.4127
G1 X90.945 Y41.530 E2.5267
G1 X91.275 Y39.828 E2.6426
G1 X92.011 Y34.813 E2.9812
G1 X92.019 Y34.766 E2.9844
G1 X92.306 Y33.296 E3.0845
G1 X92.327 Y33.209 E3.0905
G1 X92.709 Y31.892 E3.1821
G1 X92.763 Y31.746 E3.1925
G1 X93.300 Y30.597 E3.2772
G1 X93.434 Y30.384 E3.2940
G1 X94.203 Y29.445 E3.3751
G1 X94.475 Y29.213 E3.3990
G1 X95.517 Y28.601 E3.4798
G1 X95.884 Y28.472 E3.5057
G1 X97.111 Y28.290 E3.5886
G1 X97.424 Y28.292 E3.6095
G1 X98.733 Y28.508 E3.6981
G1 X98.939 Y28.564 E3.7125
G1 X100.328 Y29.112 E3.8122
G1 X100.456 Y29.173 E3.8216
G1 X101.960 Y30.027 E3.9372
G1 X102.042 Y30.078 E3.9437
G1 X103.689 Y31.235 E4.0781
G1 X103.744 Y31.276 E4.0827
G1 X105.886 Y33.009 E4.2668
G1 X106.279 Y33.833 E4.3278
G1 X106.279 Y85.124 E7.7547
G1 X105.098 Y86.305 E7.8663
G1 X53.875 Y86.305 E11.2887
G1 X53.154 Y86.017 E11.3405
G1 X51.907 Y84.830 E11.4556
G1 X51.843 Y84.763 E11.4617
G1 X51.066 Y83.875 E11.5406
G1 X50.984 Y83.767 E11.5496
G1 X50.414 Y82.905 E11.6187
G1 X50.319 Y82.723 E11.6324
G1 X49.968 Y81.847 E11.6954
G1 X49.899 Y81.550 E11.7159
G1 X49.827 Y80.639 E11.7769
G1 X49.873 Y80.248 E11.8032
G1 X50.149 Y79.390 E11.8634
G1 X50.332 Y79.055 E11.8889
G1 X50.890 Y78.377 E11.9476
G1 X51.099 Y78.186 E11.9665
G1 X51.815 Y77.695 E12.0245
G1 X51.978 Y77.604 E12.0370
G1 X52.801 Y77.240 E12.0971
G1 X52.915 Y77.197 E12.1053
G1 X53.840 Y76.915 E12.1698
G1 X53.918 Y76.895 E12.1752
G1 X54.937 Y76.672 E12.2449
G1 X54.991 Y76.661 E12.2486
G1 X56.106 Y76.479 E12.3241
G1 X56.155 Y76.473 E12.3274
G1 X58.572 Y76.199 E12.4899
G1 X58.601 Y76.196 E12.4919
G1 X63.819 Y75.757 E12.8417
G1 X66.286 Y75.479 E13.0076
G1 X68.487 Y75.099 E13.1568
G1 X69.395 Y74.874 E13.2193
G1 X70.194 Y74.619 E13.2754
G1 X70.848 Y74.347 E13.3227
G1 X71.346 Y74.072 E13.3607
G1 X71.688 Y73.813 E13.3894
G1 X71.897 Y73.588 E13.4099
G1 X72.015 Y73.396 E13.4249
G1 X72.082 Y73.199 E13.4388
G1 X72.113 Y72.941 E13.4562
G1 X72.089 Y72.582 E13.4802
G1 X71.983 Y72.110 E13.5126
G1 X71.776 Y71.533 E13.5535
G1 X71.461 Y70.870 E13.6026
G1 X71.054 Y70.159 E13.6573
G1 X69.912 Y68.515 E13.7910
G1 X68.498 Y66.787 E13.9402
G1 X65.127 Y63.186 E14.2698
G1 X61.818 Y59.856 E14.5835
G1 X61.803 Y59.840 E14.5849
G1 X60.404 Y58.372 E14.7204
G1 X60.370 Y58.334 E14.7238
G1 X59.259 Y57.041 E14.8377
G1 X59.213 Y56.983 E14.8426
G1 X58.767 Y56.380 E14.8927
G1 X58.722 Y56.313 E14.8982
G1 X58.367 Y55.741 E14.9431
G1 X58.308 Y55.631 E14.9515
G1 X58.044 Y55.058 E14.9936
G1 X57.979 Y54.871 E15.0068
G1 X57.832 Y54.257 E15.0490
G1 X57.806 Y53.949 E15.0697
G1 X57.854 Y53.277 E15.1147
G1 X57.967 Y52.877 E15.1425
G1 X58.290 Y52.258 E15.1891
G1 X58.545 Y51.944 E15.2161
G1 X58.956 Y52.352 F30000
G92 E0.0000
G1 X59.391 Y51.993 E0.0377 F675
G1 X59.568 Y51.885 E0.0516
G1 X60.077 Y51.669 E0.0885
G1 X60.203 Y51.629 E0.0973
G1 X60.767 Y51.503 E0.1359
G1 X60.849 Y51.490 E0.1415
G1 X61.488 Y51.423 E0.1844
G1 X61.561 Y51.419 E0.1893
G1 X63.034 Y51.416 E0.2877
G1 X63.082 Y51.418 E0.2909
G1 X64.871 Y51.536 E0.4107
G1 X64.889 Y51.537 E0.4119
G1 X71.603 Y52.149 E0.8623
G1 X74.050 Y52.283 E1.0261
G1 X76.491 Y52.311 E1.1892
G1 X78.854 Y52.198 E1.3473
G1 X81.073 Y51.917 E1.4967
G1 X83.097 Y51.452 E1.6355
G1 X84.890 Y50.799 E1.7629
G1 X86.440 Y49.965 E1.8805
G1 X87.754 Y48.957 E1.9912
G1 X88.853 Y47.781 E2.0987
G1 X89.759 Y46.444 E2.2066
G1 X90.489 Y44.959 E2.3172
G1 X91.065 Y43.352 E2.4313
G1 X91.507 Y41.657 E2.5483
G1 X91.843 Y39.924 E2.6662
G1 X92.580 Y34.903 E3.0053
G1 X92.586 Y34.870 E3.0076
G1 X92.869 Y33.419 E3.1063
G1 X92.884 Y33.357 E3.1106
G1 X93.256 Y32.074 E3.1998
G1 X93.295 Y31.969 E3.2073
G1 X93.806 Y30.874 E3.2880
G1 X93.902 Y30.721 E3.3001
G1 X94.617 Y29.850 E3.3754
G1 X94.810 Y29.684 E3.3924
G1 X95.761 Y29.125 E3.4661
G1 X96.023 Y29.033 E3.4846
G1 X97.151 Y28.866 E3.5608
G1 X97.375 Y28.868 E3.5758
G1 X98.609 Y29.071 E3.6594
G1 X98.757 Y29.112 E3.6696
G1 X100.097 Y29.640 E3.7659
G1 X100.189 Y29.684 E3.7726
G1 X101.664 Y30.521 E3.8859
G1 X101.722 Y30.558 E3.8905
G1 X103.350 Y31.701 E4.0235
G1 X103.389 Y31.730 E4.0267
G1 X105.422 Y33.375 E4.2014
G1 X105.703 Y33.963 E4.2450
G1 X105.703 Y84.885 E7.6473
G1 X104.859 Y85.729 E7.7270
G1 X53.986 Y85.729 E11.1260
G1 X53.471 Y85.523 E11.1630
G1 X52.314 Y84.422 E11.2698
G1 X52.268 Y84.374 E11.2742
G1 X51.512 Y83.510 E11.3509
G1 X51.454 Y83.433 E11.3573
G1 X50.911 Y82.612 E11.4231
G1 X50.843 Y82.482 E11.4329
G1 X50.519 Y81.674 E11.4911
G1 X50.470 Y81.461 E11.5057
G1 X50.406 Y80.650 E11.5600
G1 X50.439 Y80.371 E11.5788
G1 X50.681 Y79.618 E11.6317
G1 X50.812 Y79.379 E11.6499
G1 X51.309 Y78.775 E11.7022
G1 X51.458 Y78.638 E11.7157
G1 X52.119 Y78.185 E11.7692
G1 X52.235 Y78.120 E11.7781
G1 X53.019 Y77.773 E11.8353
G1 X53.100 Y77.743 E11.8411
G1 X53.997 Y77.470 E11.9038
G1 X54.053 Y77.455 E11.9076
G1 X55.053 Y77.236 E11.9761
G1 X55.091 Y77.228 E11.9787
G1 X56.192 Y77.049 E12.0532
G1 X56.227 Y77.044 E12.0555
G1 X58.633 Y76.772 E12.2173
G1 X58.654 Y76.770 E12.2187
G1 X63.876 Y76.330 E12.5688
G1 X66.368 Y76.049 E12.7364
G1 X68.605 Y75.663 E12.8881
G1 X69.552 Y75.429 E12.9533
G1 X70.393 Y75.161 E13.0122
G1 X71.099 Y74.866 E13.0633
G1 X71.660 Y74.556 E13.1062
G1 X72.076 Y74.242 E13.1410
G1 X72.359 Y73.938 E13.1687
G1 X72.539 Y73.642 E13.1919
G1 X72.647 Y73.328 E13.2141
G1 X72.692 Y72.957 E13.2391
G1 X72.661 Y72.499 E13.2697
G1 X72.537 Y71.948 E13.3074
G1 X72.308 Y71.312 E13.3526
G1 X71.972 Y70.603 E13.4050
G1 X71.541 Y69.851 E13.4629
G1 X70.372 Y68.168 E13.5999
G1 X68.931 Y66.407 E13.7518
G1 X65.542 Y62.786 E14.0833
G1 X62.229 Y59.452 E14.3973
G1 X62.218 Y59.441 E14.3983
G1 X60.826 Y57.980 E14.5331
G1 X60.802 Y57.953 E14.5356
G1 X59.703 Y56.674 E14.6482
G1 X59.670 Y56.632 E14.6518
G1 X59.237 Y56.047 E14.7004
G1 X59.205 Y55.999 E14.7043
G1 X58.866 Y55.452 E14.7472
G1 X58.823 Y55.374 E14.7532
G1 X58.579 Y54.843 E14.7923
G1 X58.533 Y54.709 E14.8017
G1 X58.402 Y54.165 E14.8391
G1 X58.384 Y53.945 E14.8538
G1 X58.424 Y53.376 E14.8919
G1 X58.505 Y53.091 E14.9118
G1 X58.774 Y52.576 E14.9505
G1 X58.956 Y52.352 E14.9699
G1 X59.367 Y52.759 F30000
G92 E0.0000
G1 X59.725 Y52.464 E0.0311 F675
G1 X59.832 Y52.399 E0.0394
G1 X60.278 Y52.209 E0.0718
G1 X60.354 Y52.185 E0.0771
G1 X60.876 Y52.069 E0.1128
G1 X60.925 Y52.061 E0.1162
G1 X61.533 Y51.998 E0.1570
G1 X61.577 Y51.995 E0.1599
G1 X63.025 Y51.992 E0.2567
G1 X63.054 Y51.993 E0.2586
G1 X64.830 Y52.111 E0.3775
G1 X64.841 Y52.111 E0.3783
G1 X71.561 Y52.723 E0.8291
G1 X74.031 Y52.859 E0.9944
G1 X76.502 Y52.887 E1.1595
G1 X78.904 Y52.772 E1.3202
G1 X81.174 Y52.485 E1.4731
G1 X83.261 Y52.005 E1.6161
G1 X85.126 Y51.326 E1.7488
G1 X86.754 Y50.450 E1.8722
G1 X88.142 Y49.385 E1.9892
G1 X89.305 Y48.142 E2.1029
G1 X90.258 Y46.734 E2.2164
G1 X91.021 Y45.184 E2.3319
G1 X91.615 Y43.522 E2.4498
G1 X92.068 Y41.785 E2.5698
G1 X92.411 Y40.021 E2.6898
G1 X93.149 Y34.993 E3.0294
G1 X93.153 Y34.973 E3.0307
G1 X93.432 Y33.542 E3.1281
G1 X93.441 Y33.504 E3.1307
G1 X93.803 Y32.255 E3.2176
G1 X93.826 Y32.193 E3.2220
G1 X94.313 Y31.150 E3.2989
G1 X94.371 Y31.059 E3.3062
G1 X95.030 Y30.254 E3.3756
G1 X95.146 Y30.155 E3.3859
G1 X96.005 Y29.650 E3.4524
G1 X96.162 Y29.595 E3.4636
G1 X97.191 Y29.442 E3.5331
G1 X97.326 Y29.443 E3.5420
G1 X98.485 Y29.634 E3.6206
G1 X98.574 Y29.659 E3.6267
G1 X99.867 Y30.169 E3.7196
G1 X99.922 Y30.195 E3.7237
G1 X101.367 Y31.015 E3.8347
G1 X101.402 Y31.037 E3.8374
G1 X103.011 Y32.166 E3.9688
G1 X103.035 Y32.184 E3.9707
G1 X104.958 Y33.740 E4.1361
G1 X105.127 Y34.093 E4.1622
G1 X105.127 Y84.647 E7.5398
G1 X104.621 Y85.153 E7.5876
G1 X54.097 Y85.153 E10.9633
G1 X53.788 Y85.030 E10.9855
G1 X52.720 Y84.014 E11.0840
G1 X52.693 Y83.985 E11.0866
G1 X51.959 Y83.146 E11.1611
G1 X51.924 Y83.100 E11.1650
G1 X51.407 Y82.319 E11.2276
G1 X51.367 Y82.241 E11.2334
G1 X51.070 Y81.500 E11.2867
G1 X51.040 Y81.373 E11.2955
G1 X50.985 Y80.661 E11.3432
G1 X51.004 Y80.494 E11.3544
G1 X51.213 Y79.847 E11.3999
G1 X51.291 Y79.703 E11.4108
G1 X51.728 Y79.172 E11.4567
G1 X51.818 Y79.090 E11.4649
G1 X52.423 Y78.675 E11.5139
G1 X52.493 Y78.636 E11.5192
G1 X53.236 Y78.307 E11.5735
G1 X53.285 Y78.289 E11.5770
G1 X54.154 Y78.024 E11.6377
G1 X54.187 Y78.015 E11.6400
G1 X55.169 Y77.800 E11.7072
G1 X55.192 Y77.796 E11.7087
G1 X56.278 Y77.619 E11.7822
G1 X56.298 Y77.616 E11.7836
G1 X58.694 Y77.344 E11.9447
G1 X58.706 Y77.343 E11.9455
G1 X63.932 Y76.903 E12.2959
G1 X66.449 Y76.620 E12.4651
G1 X68.723 Y76.227 E12.6193
G1 X69.709 Y75.983 E12.6872
G1 X70.592 Y75.702 E12.7491
G1 X71.350 Y75.386 E12.8040
G1 X71.975 Y75.040 E12.8517
G1 X72.463 Y74.672 E12.8925
G1 X72.820 Y74.288 E12.9276
G1 X73.064 Y73.888 E12.9588
G1 X73.211 Y73.457 E12.9893
G1 X73.270 Y72.972 E13.0219
G1 X73.233 Y72.416 E13.0591
G1 X73.091 Y71.787 E13.1022
G1 X72.841 Y71.090 E13.1517
G1 X72.483 Y70.336 E13.2075
G1 X72.029 Y69.543 E13.2686
G1 X70.833 Y67.820 E13.4087
G1 X69.365 Y66.028 E13.5635
G1 X65.956 Y62.386 E13.8968
G1 X62.640 Y59.048 E14.2111
G1 X62.633 Y59.041 E14.2117
G1 X61.249 Y57.588 E14.3459
G1 X61.234 Y57.572 E14.3473
G1 X60.147 Y56.307 E14.4588
G1 X60.127 Y56.282 E14.4609
G1 X59.708 Y55.714 E14.5080
G1 X59.688 Y55.685 E14.5104
G1 X59.364 Y55.164 E14.5514
G1 X59.339 Y55.117 E14.5550
G1 X59.114 Y54.628 E14.5909
G1 X59.086 Y54.548 E14.5966
G1 X58.973 Y54.074 E14.6291
G1 X58.962 Y53.942 E14.6380
G1 X58.995 Y53.476 E14.6692
G1 X59.043 Y53.305 E14.6811
G1 X59.257 Y52.894 E14.7120
G1 X59.367 Y52.759 E14.7236
G1 X59.778 Y53.167 F30000
G92 E0.0000
G1 X60.060 Y52.934 E0.0244 F675
G1 X60.095 Y52.913 E0.0272
G1 X60.479 Y52.750 E0.0551
G1 X60.504 Y52.742 E0.0568
G1 X60.985 Y52.635 E0.0897
