; G-Code generated by Simplify3D(R) Version 4.1.2
; Mar 31, 2020 at 12:28:43 AM
; Settings Summary
;   processName,Process1
;   applyToModels,Body1
;   profileName,Default (modified)
;   profileVersion,2019-04-06 08:00:00
;   baseProfile,
;   printMaterial,addNorth E-PLA
;   printQuality,Medium
;   printExtruders,
;   extruderName,Primary Extruder
;   extruderToolheadNumber,0
;   extruderDiameter,0.4
;   extruderAutoWidth,0
;   extruderWidth,0.48
;   extrusionMultiplier,0.93
;   extruderUseRetract,1
;   extruderRetractionDistance,5
;   extruderExtraRestartDistance,0
;   extruderRetractionZLift,0
;   extruderRetractionSpeed,2700
;   extruderUseCoasting,0
;   extruderCoastingDistance,0
;   extruderUseWipe,0
;   extruderWipeDistance,2
;   primaryExtruder,0
;   layerHeight,0.2
;   topSolidLayers,0
;   bottomSolidLayers,0
;   perimeterOutlines,1
;   printPerimetersInsideOut,1
;   startPointOption,3
;   startPointOriginX,180
;   startPointOriginY,130
;   sequentialIslands,0
;   spiralVaseMode,0
;   firstLayerHeightPercentage,150
;   firstLayerWidthPercentage,120
;   firstLayerUnderspeed,0.2
;   useRaft,0
;   raftExtruder,0
;   raftTopLayers,3
;   raftBaseLayers,2
;   raftOffset,3
;   raftSeparationDistance,0.14
;   raftTopInfill,100
;   aboveRaftSpeedMultiplier,0.3
;   useSkirt,1
;   skirtExtruder,0
;   skirtLayers,6
;   skirtOutlines,2
;   skirtOffset,0
;   usePrimePillar,0
;   primePillarExtruder,999
;   primePillarWidth,12
;   primePillarLocation,7
;   primePillarSpeedMultiplier,1.25
;   useOozeShield,0
;   oozeShieldExtruder,999
;   oozeShieldOffset,2
;   oozeShieldOutlines,1
;   oozeShieldSidewallShape,1
;   oozeShieldSidewallAngle,30
;   oozeShieldSpeedMultiplier,1
;   infillExtruder,0
;   internalInfillPattern,Triangular
;   externalInfillPattern,Rectilinear
;   infillPercentage,0
;   outlineOverlapPercentage,10
;   infillExtrusionWidthPercentage,100
;   minInfillLength,2
;   infillLayerInterval,1
;   internalInfillAngles,0,60,-60
;   overlapInternalInfillAngles,1
;   externalInfillAngles,45,-45
;   generateSupport,0
;   supportExtruder,0
;   supportInfillPercentage,30
;   supportExtraInflation,0
;   supportBaseLayers,0
;   denseSupportExtruder,0
;   denseSupportLayers,0
;   denseSupportInfillPercentage,70
;   supportLayerInterval,1
;   supportHorizontalPartOffset,0.3
;   supportUpperSeparationLayers,1
;   supportLowerSeparationLayers,1
;   supportType,0
;   supportGridSpacing,4
;   maxOverhangAngle,45
;   supportAngles,0
;   temperatureName,Primary Extruder,Heated Bed
;   temperatureNumber,0,0
;   temperatureSetpointCount,1,1
;   temperatureSetpointLayers,1,1
;   temperatureSetpointTemperatures,220,55
;   temperatureStabilizeAtStartup,1,1
;   temperatureHeatedBed,0,1
;   fanLayers,1,2
;   fanSpeeds,0,100
;   blipFanToFullPower,1
;   adjustSpeedForCooling,1
;   minSpeedLayerTime,10
;   minCoolingSpeedSlowdown,20
;   increaseFanForCooling,1
;   minFanLayerTime,45
;   maxCoolingFanSpeed,100
;   increaseFanForBridging,1
;   bridgingFanSpeed,100
;   use5D,1
;   relativeEdistances,0
;   allowEaxisZeroing,1
;   independentExtruderAxes,0
;   includeM10123,0
;   stickySupport,1
;   applyToolheadOffsets,0
;   gcodeXoffset,0
;   gcodeYoffset,0
;   gcodeZoffset,0
;   overrideMachineDefinition,1
;   machineTypeOverride,0
;   strokeXoverride,361
;   strokeYoverride,367
;   strokeZoverride,400
;   originOffsetXoverride,0
;   originOffsetYoverride,0
;   originOffsetZoverride,0
;   homeXdirOverride,1
;   homeYdirOverride,1
;   homeZdirOverride,-1
;   flipXoverride,1
;   flipYoverride,-1
;   flipZoverride,1
;   toolheadOffsets,0,0|0,0|0,0|0,0|0,0|0,0
;   overrideFirmwareConfiguration,1
;   firmwareTypeOverride,RepRap (Marlin/Repetier/Sprinter)
;   GPXconfigOverride,r2
;   baudRateOverride,115200
;   overridePrinterModels,1
;   printerModelsOverride
;   startingGcode,G32 ; home and level bed by screws,M572 D0 S0.0
;   layerChangeGcode,
;   retractionGcode,
;   toolChangeGcode,
;   endingGcode,G91,G1 X999 Y999 Z50 H1 F1500,G1 X-15 Y-15 F9999,G1 E7 F300,G1 E3 F1000,G1 E-20 F1000,G90,M106 S0 ; turn off cooling fan,M104 S0 ; turn off extruder,M140 S0 ; turn off bed,M84 ; disable motors
;   exportFileFormat,gcode
;   celebration,0
;   celebrationSong,Random Song
;   postProcessing,|{REPLACE "; layer" "M117 Layer"}|{REPLACE " Z = " " Z="}|; leave above alone. set layer# in next line and un-comment it|{REPLACE "\nM117 Layer 25, Z=" "\nM572 D0 S0.1 ; M117 Layer 25, Z="}|{REPLACE "\nM117 Layer 50, Z=" "\nM572 D0 S0.2 ; M117 Layer 50, Z="}|{REPLACE "\nM117 Layer 75, Z=" "\nM572 D0 S0.3 ; M117 Layer 75, Z="}|{REPLACE "\nM117 Layer 100, Z=" "\nM572 D0 S0.4 ; M117 Layer 100, Z="}|{REPLACE "\nM117 Layer 125, Z=" "\nM572 D0 S0.5 ; M117 Layer 125, Z="}|{REPLACE "\nM117 Layer 150, Z=" "\nM572 D0 S0.6 ; M117 Layer 150, Z="}|{REPLACE "\nM117 Layer 175, Z=" "\nM572 D0 S0.7 ; M117 Layer 175, Z="}|{REPLACE "\nM117 Layer 200, Z=" "\nM572 D0 S0.8 ; M117 Layer 200, Z="}|{REPLACE "\nM117 Layer 225, Z=" "\nM572 D0 S0.9 ; M117 Layer 225, Z="}|{REPLACE "\nM117 Layer 250, Z=" "\nM572 D0 S1.0 ; M117 Layer 250, Z="}|{REPLACE "\nM117 Layer 275, Z=" "\nM572 D0 S1.1 ; M117 Layer 275, Z="}|{REPLACE "\nM117 Layer 300, Z=" "\nM572 D0 S1.2 ; M117 Layer 300, Z="}|{REPLACE "\nM117 Layer 325, Z=" "\nM572 D0 S1.3 ; M117 Layer 325, Z="}|{REPLACE "\nM117 Layer 350, Z=" "\nM572 D0 S1.4 ; M117 Layer 350, Z="}|{REPLACE "\nM117 Layer 375, Z=" "\nM572 D0 S1.5 ; M117 Layer 375, Z="}|{REPLACE "\nM117 Layer 400, Z=" "\nM572 D0 S1.6 ; M117 Layer 400, Z="}|{REPLACE "\nM117 Layer 425, Z=" "\nM572 D0 S1.7 ; M117 Layer 425, Z="}|{REPLACE "\nM117 Layer 450, Z=" "\nM572 D0 S1.8 ; M117 Layer 450, Z="}|{REPLACE "\nM117 Layer 475, Z=" "\nM572 D0 S1.9 ; M117 Layer 475, Z="}|{REPLACE "\nM117 Layer 500, Z=" "\nM572 D0 S2.0 ; M117 Layer 500, Z="}
;   defaultSpeed,4200
;   outlineUnderspeed,0.5
;   solidInfillUnderspeed,0.8
;   supportUnderspeed,0.8
;   rapidXYspeed,6000
;   rapidZspeed,1002
;   minBridgingArea,50
;   bridgingExtraInflation,0
;   bridgingExtrusionMultiplier,1
;   bridgingSpeedMultiplier,1
;   useFixedBridgingAngle,0
;   fixedBridgingAngle,0
;   applyBridgingToPerimeters,0
;   filamentDiameters,1.75|1.75|1.75|1.75|1.75|1.75
;   filamentPricesPerKg,46|46|46|46|46|46
;   filamentDensities,1.25|1.25|1.25|1.25|1.25|1.25
;   useMinPrintHeight,0
;   minPrintHeight,0
;   useMaxPrintHeight,0
;   maxPrintHeight,0
;   useDiaphragm,0
;   diaphragmLayerInterval,20
;   robustSlicing,1
;   mergeAllIntoSolid,0
;   onlyRetractWhenCrossingOutline,1
;   retractBetweenLayers,0
;   useRetractionMinTravel,1
;   retractionMinTravel,1.5
;   retractWhileWiping,0
;   onlyWipeOutlines,1
;   avoidCrossingOutline,1
;   maxMovementDetourFactor,10
;   toolChangeRetractionDistance,12
;   toolChangeExtraRestartDistance,-0.5
;   toolChangeRetractionSpeed,600
;   externalThinWallType,1
;   internalThinWallType,1
;   thinWallAllowedOverlapPercentage,10
;   singleExtrusionMinLength,1
;   singleExtrusionMinPrintingWidthPercentage,50
;   singleExtrusionMaxPrintingWidthPercentage,200
;   singleExtrusionEndpointExtension,0.2
;   horizontalSizeCompensation,0
G90
M82
M106 S0
M140 S55
M190 S55
M104 S220 T0
M109 S220 T0
G32 ; home and level bed by screws
M572 D0 S0.0
; process Process1
M117 Layer 1, Z=0.300
T0
G92 E0.0000
G1 E-5.0000 F2700
; feature skirt
; tool H0.300 W0.576
G1 Z0.300 F1002
G1 X180.995 Y135.180 F6000
G1 E0.0000 F2700
G92 E0.0000
G1 X181.000 Y135.180 E0.0004 F840
G1 X185.985 Y135.206 E0.3334
G1 X190.971 Y135.275 E0.6666
G1 X190.977 Y135.275 E0.6670
G1 X199.948 Y135.508 E1.2665
G1 X199.954 Y135.508 E1.2670
G1 X208.919 Y135.881 E1.8664
G1 X208.924 Y135.882 E1.8668
G1 X213.906 Y136.149 E2.2001
G1 X218.882 Y136.460 E2.5333
G1 X218.888 Y136.461 E2.5336
G1 X227.834 Y137.128 E3.1330
G1 X227.841 Y137.129 E3.1335
G1 X236.778 Y137.936 E3.7330
G1 X236.784 Y137.937 E3.7334
G1 X245.705 Y138.883 E4.3328
G1 X245.710 Y138.884 E4.3332
G1 X250.665 Y139.470 E4.6665
G1 X255.933 Y140.140 E5.0213
G1 X256.364 Y140.630 E5.0649
G1 X256.364 Y231.314 E11.1238
G1 X255.858 Y231.820 E11.1716
G1 X105.142 Y231.820 E21.2413
G1 X104.636 Y231.314 E21.2892
G1 X104.636 Y140.630 E27.3480
G1 X105.067 Y140.140 E27.3916
G1 X110.338 Y139.470 E27.7467
G1 X110.888 Y139.405 E27.7836
G1 X111.329 Y139.349 E27.8133
G1 X113.303 Y139.119 E27.9461
G1 X115.290 Y138.884 E28.0798
G1 X115.295 Y138.883 E28.0801
G1 X115.623 Y138.848 E28.1022
G1 X116.281 Y138.772 E28.1464
G1 X116.286 Y138.771 E28.1468
G1 X120.243 Y138.358 E28.4126
G1 X124.216 Y137.937 E28.6795
G1 X124.221 Y137.936 E28.6799
G1 X124.882 Y137.874 E28.7242
G1 X125.208 Y137.840 E28.7461
G1 X125.215 Y137.840 E28.7466
G1 X125.874 Y137.781 E28.7908
G1 X129.185 Y137.471 E29.0130
G1 X134.159 Y137.047 E29.3465
G1 X139.132 Y136.668 E29.6798
G1 X142.445 Y136.443 E29.9016
G1 X143.109 Y136.395 E29.9461
G1 X143.114 Y136.395 E29.9464
G1 X143.610 Y136.364 E29.9796
G1 X144.104 Y136.331 E30.0127
G1 X144.110 Y136.331 E30.0131
G1 X144.777 Y136.294 E30.0577
G1 X148.093 Y136.092 E30.2797
G1 X153.072 Y135.833 E30.6128
G1 X153.077 Y135.833 E30.6132
G1 X162.043 Y135.476 E31.2126
G1 X162.048 Y135.475 E31.2130
G1 X167.035 Y135.337 E31.5463
G1 X172.021 Y135.242 E31.8795
G1 X180.995 Y135.180 E32.4791
G1 X180.999 Y135.756 F6000
G92 E0.0000
G1 X185.982 Y135.782 E0.3330 F840
G1 X190.966 Y135.851 E0.6660
G1 X199.933 Y136.084 E1.2653
G1 X208.895 Y136.457 E1.8646
G1 X213.872 Y136.724 E2.1976
G1 X218.846 Y137.035 E2.5306
G1 X227.792 Y137.703 E3.1299
G1 X236.726 Y138.510 E3.7293
G1 X245.645 Y139.456 E4.3285
G1 X250.594 Y140.042 E4.6615
G1 X255.644 Y140.684 E5.0016
G1 X255.788 Y140.847 E5.0162
G1 X255.788 Y231.075 E11.0446
G1 X255.619 Y231.244 E11.0605
G1 X105.381 Y231.244 E21.0984
G1 X105.212 Y231.075 E21.1143
G1 X105.212 Y140.847 E27.1427
G1 X105.356 Y140.684 E27.1573
G1 X110.407 Y140.042 E27.4975
G1 X110.957 Y139.977 E27.5345
G1 X111.396 Y139.921 E27.5641
G1 X113.371 Y139.691 E27.6969
G1 X115.357 Y139.456 E27.8305
G1 X115.687 Y139.421 E27.8527
G1 X116.347 Y139.344 E27.8971
G1 X120.301 Y138.931 E28.1627
G1 X124.276 Y138.510 E28.4298
G1 X124.939 Y138.448 E28.4742
G1 X125.269 Y138.413 E28.4964
G1 X125.927 Y138.355 E28.5405
G1 X129.238 Y138.044 E28.7627
G1 X134.203 Y137.622 E29.0957
G1 X139.173 Y137.242 E29.4287
G1 X142.485 Y137.018 E29.6505
G1 X143.150 Y136.969 E29.6950
G1 X143.648 Y136.939 E29.7284
G1 X144.146 Y136.906 E29.7617
G1 X144.809 Y136.869 E29.8061
G1 X148.124 Y136.667 E30.0280
G1 X153.102 Y136.409 E30.3610
G1 X162.064 Y136.051 E30.9603
G1 X167.046 Y135.913 E31.2933
G1 X172.030 Y135.818 E31.6263
G1 X180.999 Y135.756 E32.2256
; feature outer perimeter
G1 X180.998 Y136.332 F6000
G92 E0.0000
G1 X185.976 Y136.358 E0.3326 F420
G1 X190.955 Y136.427 E0.6653
G1 X195.932 Y136.539 E0.9979
G1 X199.913 Y136.660 E1.2640
G1 X204.888 Y136.849 E1.5966
G1 X208.866 Y137.032 E1.8627
G1 X213.837 Y137.299 E2.1953
G1 X218.807 Y137.610 E2.5280
G1 X223.773 Y137.963 E2.8606
G1 X227.743 Y138.277 E3.1267
G1 X231.711 Y138.618 E3.3928
G1 X236.669 Y139.083 E3.7255
G1 X241.621 Y139.591 E4.0581
G1 X245.579 Y140.028 E4.3241
G1 X250.524 Y140.614 E4.6569
G1 X255.212 Y141.210 E4.9726
G1 X255.212 Y230.668 E10.9496
G1 X105.788 Y230.668 E20.9330
G1 X105.788 Y141.210 E26.9100
G1 X111.465 Y140.493 E27.2923
G1 X116.410 Y139.917 E27.6249
G1 X121.360 Y139.383 E27.9576
G1 X125.323 Y138.987 E28.2237
G1 X129.288 Y138.618 E28.4897
G1 X134.249 Y138.196 E28.8224
G1 X139.213 Y137.817 E29.1550
G1 X144.180 Y137.481 E29.4877
G1 X149.150 Y137.187 E29.8203
G1 X153.128 Y136.984 E30.0864
G1 X157.107 Y136.808 E30.3525
G1 X162.083 Y136.627 E30.6852
G1 X167.059 Y136.489 E31.0178
G1 X172.037 Y136.394 E31.3504
G1 X177.015 Y136.342 E31.6830
G1 X180.998 Y136.332 E31.9492
M117 Layer 2, Z=0.500
M106 S255
; feature skirt
; tool H0.200 W0.480
G1 Z0.500 F1002
G1 X180.997 Y136.284 F6000
G1 X181.000 Y135.324
G92 E0.0000
G1 X185.988 Y135.350 E0.1851 F4200
G1 X190.975 Y135.419 E0.3703
G1 X199.942 Y135.652 E0.7032
G1 X199.948 Y135.652 E0.7035
G1 X208.916 Y136.025 E1.0366
G1 X213.898 Y136.293 E1.2218
G1 X218.876 Y136.604 E1.4069
G1 X227.822 Y137.272 E1.7399
G1 X227.827 Y137.272 E1.7401
G1 X236.763 Y138.080 E2.0732
G1 X236.769 Y138.080 E2.0734
G1 X245.693 Y139.027 E2.4065
G1 X250.649 Y139.613 E2.5917
G1 X255.861 Y140.276 E2.7867
G1 X256.220 Y140.684 E2.8069
G1 X256.220 Y231.254 E6.1687
G1 X255.798 Y231.676 E6.1909
G1 X105.202 Y231.676 E11.7807
G1 X104.780 Y231.254 E11.8029
G1 X104.780 Y140.684 E15.1647
G1 X105.139 Y140.276 E15.1849
G1 X110.354 Y139.613 E15.3800
G1 X110.905 Y139.548 E15.4006
G1 X111.342 Y139.493 E15.4170
G1 X113.312 Y139.263 E15.4906
G1 X115.311 Y139.026 E15.5653
G1 X115.639 Y138.992 E15.5775
G1 X116.301 Y138.914 E15.6022
G1 X120.255 Y138.502 E15.7498
G1 X124.233 Y138.080 E15.8983
G1 X124.897 Y138.018 E15.9231
G1 X125.223 Y137.984 E15.9352
G1 X125.229 Y137.983 E15.9354
G1 X125.887 Y137.925 E15.9600
G1 X129.201 Y137.614 E16.0835
G1 X134.170 Y137.191 E16.2686
G1 X139.141 Y136.811 E16.4537
G1 X142.455 Y136.587 E16.5770
G1 X143.124 Y136.538 E16.6019
G1 X143.621 Y136.508 E16.6204
G1 X144.120 Y136.474 E16.6389
G1 X144.782 Y136.438 E16.6635
G1 X148.101 Y136.236 E16.7869
G1 X153.083 Y135.977 E16.9721
G1 X162.051 Y135.619 E17.3053
G1 X167.036 Y135.481 E17.4904
G1 X172.025 Y135.386 E17.6756
G1 X181.000 Y135.324 E18.0087
G1 X180.999 Y135.804 F6000
G92 E0.0000
G1 X185.981 Y135.830 E0.1849 F4200
G1 X190.965 Y135.899 E0.3700
G1 X199.932 Y136.132 E0.7029
G1 X208.893 Y136.505 E1.0358
G1 X213.869 Y136.772 E1.2208
G1 X218.843 Y137.083 E1.4058
G1 X227.788 Y137.751 E1.7387
G1 X236.721 Y138.558 E2.0716
G1 X245.640 Y139.504 E2.4045
G1 X250.588 Y140.090 E2.5895
G1 X255.620 Y140.729 E2.7778
G1 X255.740 Y140.865 E2.7845
G1 X255.740 Y231.055 E6.1322
G1 X255.599 Y231.196 E6.1396
G1 X105.401 Y231.196 E11.7147
G1 X105.260 Y231.055 E11.7221
G1 X105.260 Y140.865 E15.0698
G1 X105.380 Y140.729 E15.0765
G1 X110.413 Y140.089 E15.2648
G1 X110.964 Y140.024 E15.2854
G1 X111.402 Y139.969 E15.3018
G1 X113.376 Y139.739 E15.3756
G1 X115.362 Y139.504 E15.4498
G1 X115.692 Y139.469 E15.4622
G1 X116.352 Y139.392 E15.4868
G1 X120.305 Y138.979 E15.6344
G1 X124.281 Y138.558 E15.7827
G1 X124.944 Y138.495 E15.8075
G1 X125.273 Y138.461 E15.8198
G1 X125.930 Y138.403 E15.8442
G1 X129.242 Y138.092 E15.9677
G1 X134.207 Y137.669 E16.1527
G1 X139.176 Y137.290 E16.3377
G1 X142.490 Y137.066 E16.4609
G1 X143.153 Y137.017 E16.4856
G1 X143.651 Y136.987 E16.5041
G1 X144.148 Y136.953 E16.5226
G1 X144.811 Y136.917 E16.5473
G1 X148.127 Y136.715 E16.6706
G1 X153.104 Y136.456 E16.8556
G1 X162.066 Y136.099 E17.1885
G1 X167.047 Y135.961 E17.3735
G1 X172.030 Y135.866 E17.5584
G1 X180.999 Y135.804 E17.8914
; feature outer perimeter
G1 X180.998 Y136.284 F6000
G92 E0.0000
G1 X185.976 Y136.310 E0.1848 F2100
G1 X190.956 Y136.379 E0.3696
G1 X195.933 Y136.491 E0.5544
G1 X199.914 Y136.612 E0.7022
G1 X204.890 Y136.801 E0.8871
G1 X208.869 Y136.984 E1.0349
G1 X213.841 Y137.252 E1.2197
G1 X218.810 Y137.562 E1.4045
G1 X223.777 Y137.915 E1.5894
G1 X227.747 Y138.229 E1.7372
G1 X231.715 Y138.570 E1.8850
G1 X236.673 Y139.035 E2.0699
G1 X241.626 Y139.543 E2.2547
G1 X245.584 Y139.981 E2.4025
G1 X250.529 Y140.566 E2.5873
G1 X255.260 Y141.167 E2.7643
G1 X255.260 Y230.716 E6.0882
G1 X105.740 Y230.716 E11.6382
G1 X105.740 Y141.168 E14.9621
G1 X111.459 Y140.445 E15.1760
G1 X116.405 Y139.869 E15.3608
G1 X121.355 Y139.335 E15.5456
G1 X125.319 Y138.939 E15.6935
G1 X129.284 Y138.570 E15.8413
G1 X134.245 Y138.148 E16.0261
G1 X139.210 Y137.769 E16.2110
G1 X144.177 Y137.433 E16.3958
G1 X149.149 Y137.139 E16.5806
G1 X153.125 Y136.936 E16.7284
G1 X157.105 Y136.760 E16.8763
G1 X162.082 Y136.579 E17.0611
G1 X167.057 Y136.441 E17.2459
G1 X172.036 Y136.346 E17.4307
G1 X177.015 Y136.294 E17.6155
G1 X180.998 Y136.284 E17.7634
M117 Layer 3, Z=0.700
; feature skirt
G1 Z0.700 F1002
G1 X181.000 Y135.324 F6000
G92 E0.0000
G1 X185.988 Y135.350 E0.1851 F4200
G1 X190.975 Y135.419 E0.3703
G1 X199.942 Y135.652 E0.7032
G1 X199.948 Y135.652 E0.7035
G1 X208.916 Y136.025 E1.0366
G1 X213.898 Y136.293 E1.2218
G1 X218.876 Y136.604 E1.4069
G1 X227.822 Y137.272 E1.7399
