; G-Code generated by Simplify3D(R) Version 4.1.2
; Apr 1, 2020 at 11:22:11 PM
; Settings Summary
;   processName,Process1
;   applyToModels,cube_100
;   profileName,StiansEnder5PlusTitan (modified)
;   profileVersion,2019-04-06 08:00:00
;   baseProfile,Default (modified)
;   printMaterial,addNorth E-PLA
;   printQuality,Medium
;   printExtruders,
;   extruderName,Primary Extruder
;   extruderToolheadNumber,0
;   extruderDiameter,0.4
;   extruderAutoWidth,1
;   extruderWidth,0.48
;   extrusionMultiplier,1
;   extruderUseRetract,1
;   extruderRetractionDistance,3
;   extruderExtraRestartDistance,0
;   extruderRetractionZLift,0
;   extruderRetractionSpeed,2700
;   extruderUseCoasting,0
;   extruderCoastingDistance,0
;   extruderUseWipe,0
;   extruderWipeDistance,2
;   primaryExtruder,0
;   layerHeight,0.2
;   topSolidLayers,3
;   bottomSolidLayers,3
;   perimeterOutlines,4
;   printPerimetersInsideOut,1
;   startPointOption,3
;   startPointOriginX,0
;   startPointOriginY,0
;   sequentialIslands,0
;   spiralVaseMode,0
;   firstLayerHeightPercentage,300
;   firstLayerWidthPercentage,120
;   firstLayerUnderspeed,0.1
;   useRaft,0
;   raftExtruder,0
;   raftTopLayers,3
;   raftBaseLayers,2
;   raftOffset,3
;   raftSeparationDistance,0.14
;   raftTopInfill,100
;   aboveRaftSpeedMultiplier,0.3
;   useSkirt,1
;   skirtExtruder,0
;   skirtLayers,3
;   skirtOutlines,2
;   skirtOffset,0
;   usePrimePillar,0
;   primePillarExtruder,999
;   primePillarWidth,12
;   primePillarLocation,7
;   primePillarSpeedMultiplier,1.25
;   useOozeShield,0
;   oozeShieldExtruder,999
;   oozeShieldOffset,2
;   oozeShieldOutlines,1
;   oozeShieldSidewallShape,1
;   oozeShieldSidewallAngle,30
;   oozeShieldSpeedMultiplier,1
;   infillExtruder,0
;   internalInfillPattern,Triangular
;   externalInfillPattern,Rectilinear
;   infillPercentage,0
;   outlineOverlapPercentage,10
;   infillExtrusionWidthPercentage,100
;   minInfillLength,2
;   infillLayerInterval,1
;   internalInfillAngles,0,60,-60
;   overlapInternalInfillAngles,1
;   externalInfillAngles,45,-45
;   generateSupport,0
;   supportExtruder,0
;   supportInfillPercentage,30
;   supportExtraInflation,0
;   supportBaseLayers,0
;   denseSupportExtruder,0
;   denseSupportLayers,0
;   denseSupportInfillPercentage,70
;   supportLayerInterval,1
;   supportHorizontalPartOffset,0.3
;   supportUpperSeparationLayers,1
;   supportLowerSeparationLayers,1
;   supportType,0
;   supportGridSpacing,4
;   maxOverhangAngle,45
;   supportAngles,0
;   temperatureName,Primary Extruder,Heated Bed
;   temperatureNumber,0,0
;   temperatureSetpointCount,1,1
;   temperatureSetpointLayers,1,1
;   temperatureSetpointTemperatures,200,60
;   temperatureStabilizeAtStartup,1,1
;   temperatureHeatedBed,0,1
;   fanLayers,1,2
;   fanSpeeds,0,100
;   blipFanToFullPower,1
;   adjustSpeedForCooling,0
;   minSpeedLayerTime,10
;   minCoolingSpeedSlowdown,10
;   increaseFanForCooling,1
;   minFanLayerTime,45
;   maxCoolingFanSpeed,100
;   increaseFanForBridging,1
;   bridgingFanSpeed,100
;   use5D,1
;   relativeEdistances,0
;   allowEaxisZeroing,1
;   independentExtruderAxes,0
;   includeM10123,0
;   stickySupport,1
;   applyToolheadOffsets,0
;   gcodeXoffset,0
;   gcodeYoffset,0
;   gcodeZoffset,0
;   overrideMachineDefinition,1
;   machineTypeOverride,0
;   strokeXoverride,361
;   strokeYoverride,367
;   strokeZoverride,400
;   originOffsetXoverride,0
;   originOffsetYoverride,0
;   originOffsetZoverride,0
;   homeXdirOverride,1
;   homeYdirOverride,1
;   homeZdirOverride,-1
;   flipXoverride,1
;   flipYoverride,-1
;   flipZoverride,1
;   toolheadOffsets,0,0|0,0|0,0|0,0|0,0|0,0
;   overrideFirmwareConfiguration,0
;   firmwareTypeOverride,RepRap (Marlin/Repetier/Sprinter)
;   GPXconfigOverride,r2
;   baudRateOverride,115200
;   overridePrinterModels,1
;   printerModelsOverride
;   startingGcode,G32 ; home and level bed by screws,
;   layerChangeGcode,
;   retractionGcode,
;   toolChangeGcode,
;   endingGcode,G91,G1 X999 Y999 Z50 H1 F1500,G1 X-15 Y-15 F9999,G1 E7 F300,G1 E3 F1000,G1 E-20 F1000,G90,M106 S0 ; turn off cooling fan,M104 S0 ; turn off extruder,M140 S0 ; turn off bed,M84 ; disable motors
;   exportFileFormat,gcode
;   celebration,0
;   celebrationSong,Random Song
;   postProcessing,
;   defaultSpeed,7200
;   outlineUnderspeed,0.5
;   solidInfillUnderspeed,0.8
;   supportUnderspeed,0.8
;   rapidXYspeed,30000
;   rapidZspeed,2400
;   minBridgingArea,50
;   bridgingExtraInflation,0
;   bridgingExtrusionMultiplier,1
;   bridgingSpeedMultiplier,1
;   useFixedBridgingAngle,0
;   fixedBridgingAngle,0
;   applyBridgingToPerimeters,0
;   filamentDiameters,1.75|1.75|1.75|1.75|1.75|1.75
;   filamentPricesPerKg,46|46|46|46|46|46
;   filamentDensities,1.25|1.25|1.25|1.25|1.25|1.25
;   useMinPrintHeight,0
;   minPrintHeight,0
;   useMaxPrintHeight,0
;   maxPrintHeight,0
;   useDiaphragm,0
;   diaphragmLayerInterval,20
;   robustSlicing,1
;   mergeAllIntoSolid,0
;   onlyRetractWhenCrossingOutline,1
;   retractBetweenLayers,1
;   useRetractionMinTravel,1
;   retractionMinTravel,1.5
;   retractWhileWiping,0
;   onlyWipeOutlines,1
;   avoidCrossingOutline,1
;   maxMovementDetourFactor,10
;   toolChangeRetractionDistance,12
;   toolChangeExtraRestartDistance,-0.5
;   toolChangeRetractionSpeed,600
;   externalThinWallType,1
;   internalThinWallType,1
;   thinWallAllowedOverlapPercentage,10
;   singleExtrusionMinLength,1
;   singleExtrusionMinPrintingWidthPercentage,50
;   singleExtrusionMaxPrintingWidthPercentage,200
;   singleExtrusionEndpointExtension,0.2
;   horizontalSizeCompensation,0
G90
M82
M106 S0
M140 S60
M190 S60
M104 S200 T0
M109 S200 T0
G32 ; home and level bed by screws
; process Process1
; layer 1, Z = 0.600
T0
G92 E0.0000
G1 E-3.0000 F2700
; feature skirt
; tool H0.600 W0.576
G1 Z0.600 F2400
G1 X172.642 Y175.136 F30000
G1 E0.0000 F2700
G92 E0.0000
G1 X188.358 Y175.136 E2.2581 F720
G1 X188.864 Y175.642 E2.3609
G1 X188.864 Y191.358 E4.6190
G1 X188.358 Y191.864 E4.7219
G1 X172.642 Y191.864 E6.9800
G1 X172.136 Y191.358 E7.0828
G1 X172.136 Y175.642 E9.3409
G1 X172.642 Y175.136 E9.4438
G1 X172.881 Y175.712 F30000
G92 E0.0000
G1 X188.119 Y175.712 E2.1895 F720
G1 X188.288 Y175.881 E2.2238
G1 X188.288 Y191.119 E4.4134
G1 X188.119 Y191.288 E4.4476
G1 X172.881 Y191.288 E6.6372
G1 X172.712 Y191.119 E6.6715
G1 X172.712 Y175.881 E8.8610
G1 X172.881 Y175.712 E8.8953
G92 E0.0000
G1 E-3.0000 F2700
; feature inner perimeter
G1 X173.288 Y176.288 F30000
G1 X173.415 Y176.288
G1 X175.016 Y178.016
G1 E0.0000 F2700
G92 E0.0000
G1 X185.984 Y178.016 E1.5759 F540
G1 X185.984 Y188.984 E3.1518
G1 X175.016 Y188.984 E4.7278
G1 X175.016 Y178.016 E6.3037
G1 X174.440 Y177.440 F30000
G92 E0.0000
G1 X186.560 Y177.440 E1.7414 F540
G1 X186.560 Y189.560 E3.4829
G1 X174.440 Y189.560 E5.2243
G1 X174.440 Y177.440 E6.9658
G1 X173.864 Y176.864 F30000
G92 E0.0000
G1 X187.136 Y176.864 E1.9070 F540
G1 X187.136 Y190.136 E3.8139
G1 X173.864 Y190.136 E5.7209
G1 X173.864 Y176.864 E7.6279
; feature outer perimeter
G1 X173.288 Y176.288 F30000
G92 E0.0000
G1 X187.712 Y176.288 E2.0725 F360
G1 X187.712 Y190.712 E4.1450
G1 X173.288 Y190.712 E6.2175
G1 X173.288 Y176.288 E8.2900
; feature solid layer
G1 X185.309 Y178.534 F30000
G92 E0.0000
G1 X185.466 Y178.691 E0.0317 F576
G1 X185.466 Y179.505 E0.1488
G1 X184.495 Y178.534 E0.3460
G1 X183.680 Y178.534 E0.4631
G1 X185.466 Y180.320 E0.8258
G1 X185.466 Y181.134 E0.9429
G1 X182.866 Y178.534 E1.4712
G1 X182.051 Y178.534 E1.5882
G1 X185.466 Y181.949 E2.2821
G1 X185.466 Y182.763 E2.3991
G1 X181.237 Y178.534 E3.2584
G1 X180.422 Y178.534 E3.3755
G1 X185.466 Y183.578 E4.4004
G1 X185.466 Y184.393 E4.5174
G1 X179.607 Y178.534 E5.7078
G1 X178.793 Y178.534 E5.8248
G1 X185.466 Y185.207 E7.1808
G1 X185.466 Y186.022 E7.2978
G1 X177.978 Y178.534 E8.8192
G1 X177.164 Y178.534 E8.9363
G1 X185.466 Y186.836 E10.6232
G1 X185.466 Y187.651 E10.7403
G1 X176.349 Y178.534 E12.5928
G1 X175.534 Y178.534 E12.7098
G1 X185.466 Y188.466 E14.7278
G1 X184.651 Y188.466 E14.8449
G1 X175.534 Y179.349 E16.6974
G1 X175.534 Y180.164 E16.8144
G1 X183.836 Y188.466 E18.5014
G1 X183.022 Y188.466 E18.6184
G1 X175.534 Y180.978 E20.1399
G1 X175.534 Y181.793 E20.2569
G1 X182.207 Y188.466 E21.6128
G1 X181.393 Y188.466 E21.7299
G1 X175.534 Y182.607 E22.9203
G1 X175.534 Y183.422 E23.0373
G1 X180.578 Y188.466 E24.0622
G1 X179.764 Y188.466 E24.1792
G1 X175.534 Y184.236 E25.0386
G1 X175.534 Y185.051 E25.1556
G1 X178.949 Y188.466 E25.8495
G1 X178.134 Y188.466 E25.9665
G1 X175.534 Y185.866 E26.4948
G1 X175.534 Y186.680 E26.6119
G1 X177.320 Y188.466 E26.9746
G1 X176.505 Y188.466 E27.0917
G1 X175.534 Y187.495 E27.2889
G1 X175.534 Y188.309 E27.4060
G1 X175.691 Y188.466 E27.4377
G92 E0.0000
G1 E-3.0000 F2700
; layer 2, Z = 0.800
M106 S255
; feature skirt
; tool H0.200 W0.480
G1 Z0.800 F2400
G1 X173.288 Y177.866 F30000
G1 X173.288 Y176.288
G1 X172.702 Y175.280
G1 E0.0000 F2700
G92 E0.0000
G1 X188.298 Y175.280 E0.6225 F7200
G1 X188.720 Y175.702 E0.6463
G1 X188.720 Y191.298 E1.2688
G1 X188.298 Y191.720 E1.2926
G1 X172.702 Y191.720 E1.9151
G1 X172.280 Y191.298 E1.9389
G1 X172.280 Y175.702 E2.5614
G1 X172.702 Y175.280 E2.5852
G1 X172.901 Y175.760 F30000
G92 E0.0000
G1 X188.099 Y175.760 E0.6066 F7200
G1 X188.240 Y175.901 E0.6146
G1 X188.240 Y191.099 E1.2212
G1 X188.099 Y191.240 E1.2291
G1 X172.901 Y191.240 E1.8357
G1 X172.760 Y191.099 E1.8437
G1 X172.760 Y175.901 E2.4503
G1 X172.901 Y175.760 E2.4582
G92 E0.0000
G1 E-3.0000 F2700
; feature inner perimeter
G1 X173.240 Y176.240 F30000
G1 X173.345 Y176.240
G1 X174.680 Y177.680
G1 E0.0000 F2700
G92 E0.0000
G1 X186.320 Y177.680 E0.4646 F5400
G1 X186.320 Y189.320 E0.9292
G1 X174.680 Y189.320 E1.3937
G1 X174.680 Y177.680 E1.8583
G1 X174.200 Y177.200 F30000
G92 E0.0000
G1 X186.800 Y177.200 E0.5029 F5400
G1 X186.800 Y189.800 E1.0058
G1 X174.200 Y189.800 E1.5087
G1 X174.200 Y177.200 E2.0116
G1 X173.720 Y176.720 F30000
G92 E0.0000
G1 X187.280 Y176.720 E0.5412 F5400
G1 X187.280 Y190.280 E1.0824
G1 X173.720 Y190.280 E1.6236
G1 X173.720 Y176.720 E2.1648
; feature outer perimeter
G1 X173.240 Y176.240 F30000
G92 E0.0000
G1 X187.760 Y176.240 E0.5795 F3600
G1 X187.760 Y190.760 E1.1590
G1 X173.240 Y190.760 E1.7386
G1 X173.240 Y176.240 E2.3181
; feature solid layer
G1 X175.112 Y178.706 F30000
G92 E0.0000
G1 X175.706 Y178.112 E0.0335 F5760
G1 X176.385 Y178.112 E0.0606
G1 X175.112 Y179.385 E0.1324
G1 X175.112 Y180.063 E0.1595
G1 X177.063 Y178.112 E0.2697
G1 X177.742 Y178.112 E0.2968
G1 X175.112 Y180.742 E0.4452
G1 X175.112 Y181.421 E0.4723
G1 X178.421 Y178.112 E0.6591
G1 X179.100 Y178.112 E0.6862
G1 X175.112 Y182.100 E0.9113
G1 X175.112 Y182.779 E0.9384
G1 X179.779 Y178.112 E1.2018
G1 X180.457 Y178.112 E1.2289
G1 X175.112 Y183.457 E1.5306
G1 X175.112 Y184.136 E1.5577
G1 X181.136 Y178.112 E1.8977
G1 X181.815 Y178.112 E1.9248
G1 X175.112 Y184.815 E2.3032
G1 X175.112 Y185.494 E2.3302
G1 X182.494 Y178.112 E2.7469
G1 X183.173 Y178.112 E2.7740
G1 X175.112 Y186.173 E3.2290
G1 X175.112 Y186.852 E3.2561
G1 X183.852 Y178.112 E3.7494
G1 X184.530 Y178.112 E3.7765
G1 X175.112 Y187.530 E4.3081
G1 X175.112 Y188.209 E4.3352
G1 X185.209 Y178.112 E4.9051
G1 X185.888 Y178.112 E4.9322
G1 X175.112 Y188.888 E5.5404
G1 X175.791 Y188.888 E5.5675
G1 X185.888 Y178.791 E6.1375
G1 X185.888 Y179.470 E6.1646
G1 X176.470 Y188.888 E6.6962
G1 X177.149 Y188.888 E6.7233
G1 X185.888 Y180.149 E7.2166
G1 X185.888 Y180.827 E7.2437
G1 X177.827 Y188.888 E7.6986
G1 X178.506 Y188.888 E7.7257
G1 X185.888 Y181.506 E8.1424
G1 X185.888 Y182.185 E8.1695
G1 X179.185 Y188.888 E8.5478
G1 X179.864 Y188.888 E8.5749
G1 X185.888 Y182.864 E8.9150
G1 X185.888 Y183.543 E8.9421
G1 X180.543 Y188.888 E9.2438
G1 X181.221 Y188.888 E9.2709
G1 X185.888 Y184.221 E9.5343
G1 X185.888 Y184.900 E9.5614
G1 X181.900 Y188.888 E9.7864
G1 X182.579 Y188.888 E9.8135
G1 X185.888 Y185.579 E10.0003
G1 X185.888 Y186.258 E10.0274
G1 X183.258 Y188.888 E10.1759
G1 X183.937 Y188.888 E10.2029
G1 X185.888 Y186.937 E10.3131
G1 X185.888 Y187.616 E10.3402
G1 X184.616 Y188.888 E10.4120
G1 X185.294 Y188.888 E10.4391
G1 X185.888 Y188.294 E10.4726
G92 E0.0000
G1 E-3.0000 F2700
; layer 3, Z = 1.000
; feature skirt
G1 Z1.000 F2400
G1 X173.674 Y176.240 F30000
G1 X173.240 Y176.240
G1 X172.702 Y175.280
G1 E0.0000 F2700
G92 E0.0000
G1 X188.298 Y175.280 E0.6225 F7200
G1 X188.720 Y175.702 E0.6463
G1 X188.720 Y191.298 E1.2688
G1 X188.298 Y191.720 E1.2926
G1 X172.702 Y191.720 E1.9151
G1 X172.280 Y191.298 E1.9389
G1 X172.280 Y175.702 E2.5614
G1 X172.702 Y175.280 E2.5852
G1 X172.901 Y175.760 F30000
G92 E0.0000
G1 X188.099 Y175.760 E0.6066 F7200
G1 X188.240 Y175.901 E0.6146
G1 X188.240 Y191.099 E1.2212
G1 X188.099 Y191.240 E1.2291
G1 X172.901 Y191.240 E1.8357
G1 X172.760 Y191.099 E1.8437
G1 X172.760 Y175.901 E2.4503
G1 X172.901 Y175.760 E2.4582
G92 E0.0000
G1 E-3.0000 F2700
; feature inner perimeter
G1 X173.240 Y176.240 F30000
G1 X173.345 Y176.240
G1 X174.680 Y177.680
G1 E0.0000 F2700
G92 E0.0000
G1 X186.320 Y177.680 E0.4646 F5400
G1 X186.320 Y189.320 E0.9292
G1 X174.680 Y189.320 E1.3937
G1 X174.680 Y177.680 E1.8583
G1 X174.200 Y177.200 F30000
G92 E0.0000
G1 X186.800 Y177.200 E0.5029 F5400
G1 X186.800 Y189.800 E1.0058
G1 X174.200 Y189.800 E1.5087
G1 X174.200 Y177.200 E2.0116
G1 X173.720 Y176.720 F30000
G92 E0.0000
G1 X187.280 Y176.720 E0.5412 F5400
G1 X187.280 Y190.280 E1.0824
G1 X173.720 Y190.280 E1.6236
G1 X173.720 Y176.720 E2.1648
; feature outer perimeter
G1 X173.240 Y176.240 F30000
G92 E0.0000
G1 X187.760 Y176.240 E0.5795 F3600
G1 X187.760 Y190.760 E1.1590
G1 X173.240 Y190.760 E1.7386
G1 X173.240 Y176.240 E2.3181
; feature solid layer
G1 X185.294 Y178.112 F30000
G92 E0.0000
G1 X185.888 Y178.706 E0.0335 F5760
G1 X185.888 Y179.384 E0.0606
G1 X184.616 Y178.112 E0.1324
G1 X183.937 Y178.112 E0.1595
G1 X185.888 Y180.063 E0.2697
G1 X185.888 Y180.742 E0.2968
G1 X183.258 Y178.112 E0.4452
G1 X182.579 Y178.112 E0.4723
G1 X185.888 Y181.421 E0.6591
G1 X185.888 Y182.100 E0.6862
G1 X181.900 Y178.112 E0.9113
G1 X181.221 Y178.112 E0.9383
G1 X185.888 Y182.779 E1.2017
G1 X185.888 Y183.457 E1.2288
G1 X180.543 Y178.112 E1.5306
G1 X179.864 Y178.112 E1.5577
G1 X185.888 Y184.136 E1.8977
G1 X185.888 Y184.815 E1.9248
G1 X179.185 Y178.112 E2.3031
G1 X178.506 Y178.112 E2.3302
G1 X185.888 Y185.494 E2.7469
G1 X185.888 Y186.173 E2.7740
G1 X177.827 Y178.112 E3.2290
G1 X177.148 Y178.112 E3.2561
G1 X185.888 Y186.852 E3.7493
G1 X185.888 Y187.530 E3.7764
G1 X176.470 Y178.112 E4.3081
G1 X175.791 Y178.112 E4.3351
G1 X185.888 Y188.209 E4.9051
G1 X185.888 Y188.888 E4.9322
G1 X175.112 Y178.112 E5.5404
G1 X175.112 Y178.791 E5.5675
G1 X185.209 Y188.888 E6.1374
G1 X184.530 Y188.888 E6.1645
G1 X175.112 Y179.470 E6.6961
G1 X175.112 Y180.148 E6.7232
G1 X183.852 Y188.888 E7.2165
G1 X183.173 Y188.888 E7.2436
G1 X175.112 Y180.827 E7.6986
G1 X175.112 Y181.506 E7.7257
G1 X182.494 Y188.888 E8.1424
G1 X181.815 Y188.888 E8.1695
G1 X175.112 Y182.185 E8.5478
G1 X175.112 Y182.864 E8.5749
G1 X181.136 Y188.888 E8.9149
G1 X180.457 Y188.888 E8.9420
G1 X175.112 Y183.543 E9.2438
G1 X175.112 Y184.221 E9.2708
G1 X179.779 Y188.888 E9.5342
G1 X179.100 Y188.888 E9.5613
G1 X175.112 Y184.900 E9.7864
G1 X175.112 Y185.579 E9.8135
G1 X178.421 Y188.888 E10.0003
G1 X177.742 Y188.888 E10.0274
G1 X175.112 Y186.258 E10.1758
G1 X175.112 Y186.937 E10.2029
G1 X177.063 Y188.888 E10.3131
G1 X176.384 Y188.888 E10.3402
G1 X175.112 Y187.616 E10.4120
G1 X175.112 Y188.294 E10.4391
G1 X175.706 Y188.888 E10.4726
G92 E0.0000
G1 E-3.0000 F2700
; layer 4, Z = 1.200
; feature inner perimeter
G1 Z1.200 F2400
G1 X174.680 Y177.680 F30000
G1 E0.0000 F2700
G92 E0.0000
G1 X186.320 Y177.680 E0.4646 F5400
G1 X186.320 Y189.320 E0.9292
G1 X174.680 Y189.320 E1.3937
G1 X174.680 Y177.680 E1.8583
G1 X174.200 Y177.200 F30000
G92 E0.0000
G1 X186.800 Y177.200 E0.5029 F5400
G1 X186.800 Y189.800 E1.0058
G1 X174.200 Y189.800 E1.5087
G1 X174.200 Y177.200 E2.0116
G1 X173.720 Y176.720 F30000
G92 E0.0000
G1 X187.280 Y176.720 E0.5412 F5400
G1 X187.280 Y190.280 E1.0824
G1 X173.720 Y190.280 E1.6236
G1 X173.720 Y176.720 E2.1648
; feature outer perimeter
