; G-Code generated by Simplify3D(R) Version 4.1.2
; Apr 1, 2020 at 10:27:10 PM
; Settings Summary
;   processName,Process1
;   applyToModels,cube_100
;   profileName,StiansEnder5PlusTitan (modified)
;   profileVersion,2019-04-06 08:00:00
;   baseProfile,Default (modified)
;   printMaterial,addNorth E-PLA
;   printQuality,High
;   printExtruders,
;   extruderName,Primary Extruder
;   extruderToolheadNumber,0
;   extruderDiameter,0.4
;   extruderAutoWidth,0
;   extruderWidth,0.4
;   extrusionMultiplier,1
;   extruderUseRetract,1
;   extruderRetractionDistance,3
;   extruderExtraRestartDistance,0
;   extruderRetractionZLift,0
;   extruderRetractionSpeed,2700
;   extruderUseCoasting,0
;   extruderCoastingDistance,0
;   extruderUseWipe,0
;   extruderWipeDistance,2
;   primaryExtruder,0
;   layerHeight,0.1
;   topSolidLayers,0
;   bottomSolidLayers,0
;   perimeterOutlines,1
;   printPerimetersInsideOut,1
;   startPointOption,3
;   startPointOriginX,0
;   startPointOriginY,0
;   sequentialIslands,0
;   spiralVaseMode,0
;   firstLayerHeightPercentage,300
;   firstLayerWidthPercentage,120
;   firstLayerUnderspeed,0.15
;   useRaft,0
;   raftExtruder,0
;   raftTopLayers,3
;   raftBaseLayers,2
;   raftOffset,3
;   raftSeparationDistance,0.14
;   raftTopInfill,100
;   aboveRaftSpeedMultiplier,0.3
;   useSkirt,1
;   skirtExtruder,0
;   skirtLayers,2
;   skirtOutlines,2
;   skirtOffset,0
;   usePrimePillar,0
;   primePillarExtruder,999
;   primePillarWidth,12
;   primePillarLocation,7
;   primePillarSpeedMultiplier,1.25
;   useOozeShield,0
;   oozeShieldExtruder,999
;   oozeShieldOffset,2
;   oozeShieldOutlines,1
;   oozeShieldSidewallShape,1
;   oozeShieldSidewallAngle,30
;   oozeShieldSpeedMultiplier,1
;   infillExtruder,0
;   internalInfillPattern,Triangular
;   externalInfillPattern,Rectilinear
;   infillPercentage,0
;   outlineOverlapPercentage,10
;   infillExtrusionWidthPercentage,100
;   minInfillLength,2
;   infillLayerInterval,1
;   internalInfillAngles,0,60,-60
;   overlapInternalInfillAngles,1
;   externalInfillAngles,45,-45
;   generateSupport,0
;   supportExtruder,0
;   supportInfillPercentage,40
;   supportExtraInflation,0
;   supportBaseLayers,0
;   denseSupportExtruder,0
;   denseSupportLayers,0
;   denseSupportInfillPercentage,70
;   supportLayerInterval,1
;   supportHorizontalPartOffset,0.3
;   supportUpperSeparationLayers,1
;   supportLowerSeparationLayers,1
;   supportType,0
;   supportGridSpacing,4
;   maxOverhangAngle,45
;   supportAngles,0
;   temperatureName,Primary Extruder,Heated Bed
;   temperatureNumber,0,0
;   temperatureSetpointCount,1,1
;   temperatureSetpointLayers,1,1
;   temperatureSetpointTemperatures,210,60
;   temperatureStabilizeAtStartup,1,1
;   temperatureHeatedBed,0,1
;   fanLayers,1,2
;   fanSpeeds,0,100
;   blipFanToFullPower,1
;   adjustSpeedForCooling,0
;   minSpeedLayerTime,10
;   minCoolingSpeedSlowdown,10
;   increaseFanForCooling,1
;   minFanLayerTime,45
;   maxCoolingFanSpeed,100
;   increaseFanForBridging,1
;   bridgingFanSpeed,100
;   use5D,1
;   relativeEdistances,0
;   allowEaxisZeroing,1
;   independentExtruderAxes,0
;   includeM10123,0
;   stickySupport,1
;   applyToolheadOffsets,0
;   gcodeXoffset,0
;   gcodeYoffset,0
;   gcodeZoffset,0
;   overrideMachineDefinition,1
;   machineTypeOverride,0
;   strokeXoverride,361
;   strokeYoverride,367
;   strokeZoverride,400
;   originOffsetXoverride,0
;   originOffsetYoverride,0
;   originOffsetZoverride,0
;   homeXdirOverride,1
;   homeYdirOverride,1
;   homeZdirOverride,-1
;   flipXoverride,1
;   flipYoverride,-1
;   flipZoverride,1
;   toolheadOffsets,0,0|0,0|0,0|0,0|0,0|0,0
;   overrideFirmwareConfiguration,0
;   firmwareTypeOverride,RepRap (Marlin/Repetier/Sprinter)
;   GPXconfigOverride,r2
;   baudRateOverride,115200
;   overridePrinterModels,1
;   printerModelsOverride
;   startingGcode,G32 ; home and level bed by screws,
;   layerChangeGcode,
;   retractionGcode,
;   toolChangeGcode,
;   endingGcode,G91,G1 X999 Y999 Z50 H1 F1500,G1 X-15 Y-15 F9999,G1 E7 F300,G1 E3 F1000,G1 E-20 F1000,G90,M106 S0 ; turn off cooling fan,M104 S0 ; turn off extruder,M140 S0 ; turn off bed,M84 ; disable motors
;   exportFileFormat,gcode
;   celebration,0
;   celebrationSong,Random Song
;   postProcessing,
;   defaultSpeed,4500
;   outlineUnderspeed,1
;   solidInfillUnderspeed,1
;   supportUnderspeed,0.8
;   rapidXYspeed,30000
;   rapidZspeed,2400
;   minBridgingArea,50
;   bridgingExtraInflation,0
;   bridgingExtrusionMultiplier,1
;   bridgingSpeedMultiplier,1
;   useFixedBridgingAngle,0
;   fixedBridgingAngle,0
;   applyBridgingToPerimeters,0
;   filamentDiameters,1.75|1.75|1.75|1.75|1.75|1.75
;   filamentPricesPerKg,46|46|46|46|46|46
;   filamentDensities,1.25|1.25|1.25|1.25|1.25|1.25
;   useMinPrintHeight,0
;   minPrintHeight,0
;   useMaxPrintHeight,0
;   maxPrintHeight,0
;   useDiaphragm,0
;   diaphragmLayerInterval,20
;   robustSlicing,1
;   mergeAllIntoSolid,0
;   onlyRetractWhenCrossingOutline,1
;   retractBetweenLayers,0
;   useRetractionMinTravel,1
;   retractionMinTravel,1.5
;   retractWhileWiping,0
;   onlyWipeOutlines,1
;   avoidCrossingOutline,1
;   maxMovementDetourFactor,10
;   toolChangeRetractionDistance,12
;   toolChangeExtraRestartDistance,-0.5
;   toolChangeRetractionSpeed,600
;   externalThinWallType,1
;   internalThinWallType,1
;   thinWallAllowedOverlapPercentage,10
;   singleExtrusionMinLength,1
;   singleExtrusionMinPrintingWidthPercentage,50
;   singleExtrusionMaxPrintingWidthPercentage,200
;   singleExtrusionEndpointExtension,0.2
;   horizontalSizeCompensation,0
G90
M82
M106 S0
M140 S60
M190 S60
M104 S210 T0
M109 S210 T0
G32 ; home and level bed by screws
; process Process1
; layer 1, Z = 0.300
T0
G92 E0.0000
G1 E-3.0000 F2700
; feature skirt
; tool H0.300 W0.480
G1 Z0.300 F2400
G1 X5.202 Y7.780 F30000
G1 E0.0000 F2700
G92 E0.0000
G1 X355.798 Y7.780 E20.9896 F675
G1 X356.220 Y8.202 E21.0253
G1 X356.220 Y358.798 E42.0149
G1 X355.798 Y359.220 E42.0506
G1 X5.202 Y359.220 E63.0402
G1 X4.780 Y358.798 E63.0759
G1 X4.780 Y8.202 E84.0655
G1 X5.202 Y7.780 E84.1012
G1 X5.401 Y8.260 F30000
G92 E0.0000
G1 X355.599 Y8.260 E20.9658 F675
G1 X355.740 Y8.401 E20.9777
G1 X355.740 Y358.599 E41.9435
G1 X355.599 Y358.740 E41.9554
G1 X5.401 Y358.740 E62.9212
G1 X5.260 Y358.599 E62.9331
G1 X5.260 Y8.401 E83.8989
G1 X5.401 Y8.260 E83.9108
; feature outer perimeter
G1 X5.740 Y8.740 F30000
G92 E0.0000
G1 X355.260 Y8.740 E20.9251 F675
G1 X355.260 Y358.260 E41.8503
G1 X5.740 Y358.260 E62.7754
G1 X5.740 Y8.740 E83.7006
; layer 2, Z = 0.400
M106 S255
; feature skirt
; tool H0.100 W0.400
G1 Z0.400 F2400
G1 X5.717 Y8.700 F30000
G1 X5.700 Y8.700
G1 X5.251 Y7.900
G92 E0.0000
G1 X355.749 Y7.900 E5.8288 F4500
G1 X356.100 Y8.251 E5.8371
G1 X356.100 Y358.749 E11.6658
G1 X355.749 Y359.100 E11.6741
G1 X5.251 Y359.100 E17.5029
G1 X4.900 Y358.749 E17.5112
G1 X4.900 Y8.251 E23.3400
G1 X5.251 Y7.900 E23.3482
G1 X5.417 Y8.300 F30000
G92 E0.0000
G1 X355.583 Y8.300 E5.8233 F4500
G1 X355.700 Y8.417 E5.8260
G1 X355.700 Y358.583 E11.6493
G1 X355.583 Y358.700 E11.6521
G1 X5.417 Y358.700 E17.4753
G1 X5.300 Y358.583 E17.4781
G1 X5.300 Y8.417 E23.3014
G1 X5.417 Y8.300 E23.3041
; feature outer perimeter
G1 X5.700 Y8.700 F30000
G92 E0.0000
G1 X355.300 Y8.700 E5.8139 F4500
G1 X355.300 Y358.300 E11.6277
G1 X5.700 Y358.300 E17.4416
G1 X5.700 Y8.700 E23.2555
; layer 3, Z = 0.500
G1 Z0.500 F2400
G92 E0.0000
G1 X355.300 Y8.700 E5.8139 F4500
G1 X355.300 Y358.300 E11.6277
G1 X5.700 Y358.300 E17.4416
G1 X5.700 Y8.700 E23.2555
; layer 4, Z = 0.600
G1 Z0.600 F2400
G92 E0.0000
G1 X355.300 Y8.700 E5.8139 F4500
G1 X355.300 Y358.300 E11.6277
G1 X5.700 Y358.300 E17.4416
G1 X5.700 Y8.700 E23.2555
; layer 5, Z = 0.700
G1 Z0.700 F2400
G92 E0.0000
G1 X355.300 Y8.700 E5.8139 F4500
G1 X355.300 Y358.300 E11.6277
G1 X5.700 Y358.300 E17.4416
G1 X5.700 Y8.700 E23.2555
; layer 6, Z = 0.800
G1 Z0.800 F2400
G92 E0.0000
G1 X355.300 Y8.700 E5.8139 F4500
G1 X355.300 Y358.300 E11.6277
G1 X5.700 Y358.300 E17.4416
G1 X5.700 Y8.700 E23.2555
; layer 7, Z = 0.900
G1 Z0.900 F2400
G92 E0.0000
G1 X355.300 Y8.700 E5.8139 F4500
G1 X355.300 Y358.300 E11.6277
G1 X5.700 Y358.300 E17.4416
G1 X5.700 Y8.700 E23.2555
; layer 8, Z = 1.000
G1 Z1.000 F2400
G92 E0.0000
G1 X355.300 Y8.700 E5.8139 F4500
G1 X355.300 Y358.300 E11.6277
G1 X5.700 Y358.300 E17.4416
G1 X5.700 Y8.700 E23.2555
; layer 9, Z = 1.100
G1 Z1.100 F2400
G92 E0.0000
G1 X355.300 Y8.700 E5.8139 F4500
G1 X355.300 Y358.300 E11.6277
G1 X5.700 Y358.300 E17.4416
G1 X5.700 Y8.700 E23.2555
; layer 10, Z = 1.200
G1 Z1.200 F2400
G92 E0.0000
G1 X355.300 Y8.700 E5.8139 F4500
G1 X355.300 Y358.300 E11.6277
G1 X5.700 Y358.300 E17.4416
G1 X5.700 Y8.700 E23.2555
; layer 11, Z = 1.300
G1 Z1.300 F2400
G92 E0.0000
G1 X355.300 Y8.700 E5.8139 F4500
G1 X355.300 Y358.300 E11.6277
G1 X5.700 Y358.300 E17.4416
G1 X5.700 Y8.700 E23.2555
; layer 12, Z = 1.400
G1 Z1.400 F2400
G92 E0.0000
G1 X355.300 Y8.700 E5.8139 F4500
G1 X355.300 Y358.300 E11.6277
G1 X5.700 Y358.300 E17.4416
G1 X5.700 Y8.700 E23.2555
; layer 13, Z = 1.500
G1 Z1.500 F2400
G92 E0.0000
G1 X355.300 Y8.700 E5.8139 F4500
G1 X355.300 Y358.300 E11.6277
G1 X5.700 Y358.300 E17.4416
G1 X5.700 Y8.700 E23.2555
; layer 14, Z = 1.600
G1 Z1.600 F2400
G92 E0.0000
G1 X355.300 Y8.700 E5.8139 F4500
G1 X355.300 Y358.300 E11.6277
G1 X5.700 Y358.300 E17.4416
G1 X5.700 Y8.700 E23.2555
; layer 15, Z = 1.700
G1 Z1.700 F2400
G92 E0.0000
G1 X355.300 Y8.700 E5.8139 F4500
G1 X355.300 Y358.300 E11.6277
G1 X5.700 Y358.300 E17.4416
G1 X5.700 Y8.700 E23.2555
; layer 16, Z = 1.800
G1 Z1.800 F2400
G92 E0.0000
G1 X355.300 Y8.700 E5.8139 F4500
G1 X355.300 Y358.300 E11.6277
G1 X5.700 Y358.300 E17.4416
G1 X5.700 Y8.700 E23.2555
; layer 17, Z = 1.900
G1 Z1.900 F2400
G92 E0.0000
G1 X355.300 Y8.700 E5.8139 F4500
G1 X355.300 Y358.300 E11.6277
G1 X5.700 Y358.300 E17.4416
G1 X5.700 Y8.700 E23.2555
; layer 18, Z = 2.000
G1 Z2.000 F2400
G92 E0.0000
G1 X355.300 Y8.700 E5.8139 F4500
G1 X355.300 Y358.300 E11.6277
G1 X5.700 Y358.300 E17.4416
G1 X5.700 Y8.700 E23.2555
; layer 19, Z = 2.100
G1 Z2.100 F2400
G92 E0.0000
G1 X355.300 Y8.700 E5.8139 F4500
G1 X355.300 Y358.300 E11.6277
G1 X5.700 Y358.300 E17.4416
G1 X5.700 Y8.700 E23.2555
; layer 20, Z = 2.200
G1 Z2.200 F2400
G92 E0.0000
G1 X355.300 Y8.700 E5.8139 F4500
G1 X355.300 Y358.300 E11.6277
G1 X5.700 Y358.300 E17.4416
G1 X5.700 Y8.700 E23.2555
; layer 21, Z = 2.300
G1 Z2.300 F2400
G92 E0.0000
G1 X355.300 Y8.700 E5.8139 F4500
G1 X355.300 Y358.300 E11.6277
G1 X5.700 Y358.300 E17.4416
G1 X5.700 Y8.700 E23.2555
; layer 22, Z = 2.400
G1 Z2.400 F2400
G92 E0.0000
G1 X355.300 Y8.700 E5.8139 F4500
G1 X355.300 Y358.300 E11.6277
G1 X5.700 Y358.300 E17.4416
G1 X5.700 Y8.700 E23.2555
; layer 23, Z = 2.500
G1 Z2.500 F2400
G92 E0.0000
G1 X355.300 Y8.700 E5.8139 F4500
G1 X355.300 Y358.300 E11.6277
G1 X5.700 Y358.300 E17.4416
G1 X5.700 Y8.700 E23.2555
; layer 24, Z = 2.600
G1 Z2.600 F2400
G92 E0.0000
G1 X355.300 Y8.700 E5.8139 F4500
G1 X355.300 Y358.300 E11.6277
G1 X5.700 Y358.300 E17.4416
G1 X5.700 Y8.700 E23.2555
; layer 25, Z = 2.700
G1 Z2.700 F2400
G92 E0.0000
G1 X355.300 Y8.700 E5.8139 F4500
G1 X355.300 Y358.300 E11.6277
G1 X5.700 Y358.300 E17.4416
G1 X5.700 Y8.700 E23.2555
; layer 26, Z = 2.800
G1 Z2.800 F2400
G92 E0.0000
G1 X355.300 Y8.700 E5.8139 F4500
G1 X355.300 Y358.300 E11.6277
G1 X5.700 Y358.300 E17.4416
G1 X5.700 Y8.700 E23.2555
; layer 27, Z = 2.900
G1 Z2.900 F2400
G92 E0.0000
G1 X355.300 Y8.700 E5.8139 F4500
G1 X355.300 Y358.300 E11.6277
G1 X5.700 Y358.300 E17.4416
G1 X5.700 Y8.700 E23.2555
; layer 28, Z = 3.000
G1 Z3.000 F2400
G92 E0.0000
G1 X355.300 Y8.700 E5.8139 F4500
G1 X355.300 Y358.300 E11.6277
G1 X5.700 Y358.300 E17.4416
G1 X5.700 Y8.700 E23.2555
; layer 29, Z = 3.100
G1 Z3.100 F2400
G92 E0.0000
G1 X355.300 Y8.700 E5.8139 F4500
G1 X355.300 Y358.300 E11.6277
G1 X5.700 Y358.300 E17.4416
G1 X5.700 Y8.700 E23.2555
; layer 30, Z = 3.200
G1 Z3.200 F2400
G92 E0.0000
G1 X355.300 Y8.700 E5.8139 F4500
G1 X355.300 Y358.300 E11.6277
G1 X5.700 Y358.300 E17.4416
G1 X5.700 Y8.700 E23.2555
; layer 31, Z = 3.300
G1 Z3.300 F2400
G92 E0.0000
G1 X355.300 Y8.700 E5.8139 F4500
G1 X355.300 Y358.300 E11.6277
G1 X5.700 Y358.300 E17.4416
G1 X5.700 Y8.700 E23.2555
; layer 32, Z = 3.400
G1 Z3.400 F2400
G92 E0.0000
G1 X355.300 Y8.700 E5.8139 F4500
G1 X355.300 Y358.300 E11.6277
G1 X5.700 Y358.300 E17.4416
G1 X5.700 Y8.700 E23.2555
; layer 33, Z = 3.500
G1 Z3.500 F2400
G92 E0.0000
G1 X355.300 Y8.700 E5.8139 F4500
G1 X355.300 Y358.300 E11.6277
G1 X5.700 Y358.300 E17.4416
G1 X5.700 Y8.700 E23.2555
; layer 34, Z = 3.600
G1 Z3.600 F2400
G92 E0.0000
G1 X355.300 Y8.700 E5.8139 F4500
G1 X355.300 Y358.300 E11.6277
G1 X5.700 Y358.300 E17.4416
G1 X5.700 Y8.700 E23.2555
; layer 35, Z = 3.700
G1 Z3.700 F2400
G92 E0.0000
G1 X355.300 Y8.700 E5.8139 F4500
G1 X355.300 Y358.300 E11.6277
G1 X5.700 Y358.300 E17.4416
G1 X5.700 Y8.700 E23.2555
; layer 36, Z = 3.800
G1 Z3.800 F2400
G92 E0.0000
G1 X355.300 Y8.700 E5.8139 F4500
G1 X355.300 Y358.300 E11.6277
G1 X5.700 Y358.300 E17.4416
G1 X5.700 Y8.700 E23.2555
; layer 37, Z = 3.900
G1 Z3.900 F2400
G92 E0.0000
G1 X355.300 Y8.700 E5.8139 F4500
G1 X355.300 Y358.300 E11.6277
G1 X5.700 Y358.300 E17.4416
G1 X5.700 Y8.700 E23.2555
; layer 38, Z = 4.000
G1 Z4.000 F2400
G92 E0.0000
G1 X355.300 Y8.700 E5.8139 F4500
G1 X355.300 Y358.300 E11.6277
G1 X5.700 Y358.300 E17.4416
G1 X5.700 Y8.700 E23.2555
; layer 39, Z = 4.100
G1 Z4.100 F2400
G92 E0.0000
G1 X355.300 Y8.700 E5.8139 F4500
G1 X355.300 Y358.300 E11.6277
G1 X5.700 Y358.300 E17.4416
G1 X5.700 Y8.700 E23.2555
; layer 40, Z = 4.200
G1 Z4.200 F2400
G92 E0.0000
G1 X355.300 Y8.700 E5.8139 F4500
G1 X355.300 Y358.300 E11.6277
G1 X5.700 Y358.300 E17.4416
G1 X5.700 Y8.700 E23.2555
; layer 41, Z = 4.300
G1 Z4.300 F2400
G92 E0.0000
G1 X355.300 Y8.700 E5.8139 F4500
G1 X355.300 Y358.300 E11.6277
G1 X5.700 Y358.300 E17.4416
G1 X5.700 Y8.700 E23.2555
; layer 42, Z = 4.400
G1 Z4.400 F2400
G92 E0.0000
G1 X355.300 Y8.700 E5.8139 F4500
G1 X355.300 Y358.300 E11.6277
G1 X5.700 Y358.300 E17.4416
G1 X5.700 Y8.700 E23.2555
; layer 43, Z = 4.500
G1 Z4.500 F2400
G92 E0.0000
G1 X355.300 Y8.700 E5.8139 F4500
G1 X355.300 Y358.300 E11.6277
G1 X5.700 Y358.300 E17.4416
G1 X5.700 Y8.700 E23.2555
; layer 44, Z = 4.600
G1 Z4.600 F2400
G92 E0.0000
G1 X355.300 Y8.700 E5.8139 F4500
G1 X355.300 Y358.300 E11.6277
G1 X5.700 Y358.300 E17.4416
G1 X5.700 Y8.700 E23.2555
; layer 45, Z = 4.700
G1 Z4.700 F2400
G92 E0.0000
G1 X355.300 Y8.700 E5.8139 F4500
G1 X355.300 Y358.300 E11.6277
G1 X5.700 Y358.300 E17.4416
G1 X5.700 Y8.700 E23.2555
; layer 46, Z = 4.800
G1 Z4.800 F2400
G92 E0.0000
G1 X355.300 Y8.700 E5.8139 F4500
G1 X355.300 Y358.300 E11.6277
G1 X5.700 Y358.300 E17.4416
G1 X5.700 Y8.700 E23.2555
; layer 47, Z = 4.900
G1 Z4.900 F2400
G92 E0.0000
G1 X355.300 Y8.700 E5.8139 F4500
G1 X355.300 Y358.300 E11.6277
G1 X5.700 Y358.300 E17.4416
G1 X5.700 Y8.700 E23.2555
; layer 48, Z = 5.000
G1 Z5.000 F2400
G92 E0.0000
G1 X355.300 Y8.700 E5.8139 F4500
G1 X355.300 Y358.300 E11.6277
G1 X5.700 Y358.300 E17.4416
G1 X5.700 Y8.700 E23.2555
; layer 49, Z = 5.100
G1 Z5.100 F2400
G92 E0.0000
G1 X355.300 Y8.700 E5.8139 F4500
G1 X355.300 Y358.300 E11.6277
G1 X5.700 Y358.300 E17.4416
G1 X5.700 Y8.700 E23.2555
; layer 50, Z = 5.200
G1 Z5.200 F2400
G92 E0.0000
G1 X355.300 Y8.700 E5.8139 F4500
G1 X355.300 Y358.300 E11.6277
G1 X5.700 Y358.300 E17.4416
G1 X5.700 Y8.700 E23.2555
; layer 51, Z = 5.300
G1 Z5.300 F2400
G92 E0.0000
G1 X355.300 Y8.700 E5.8139 F4500
G1 X355.300 Y358.300 E11.6277
G1 X5.700 Y358.300 E17.4416
G1 X5.700 Y8.700 E23.2555
; layer 52, Z = 5.400
G1 Z5.400 F2400
G92 E0.0000
G1 X355.300 Y8.700 E5.8139 F4500
G1 X355.300 Y358.300 E11.6277
G1 X5.700 Y358.300 E17.4416
G1 X5.700 Y8.700 E23.2555
; layer 53, Z = 5.500
G1 Z5.500 F2400
G92 E0.0000
G1 X355.300 Y8.700 E5.8139 F4500
G1 X355.300 Y358.300 E11.6277
G1 X5.700 Y358.300 E17.4416
G1 X5.700 Y8.700 E23.2555
; layer 54, Z = 5.600
G1 Z5.600 F2400
G92 E0.0000
G1 X355.300 Y8.700 E5.8139 F4500
G1 X355.300 Y358.300 E11.6277
G1 X5.700 Y358.300 E17.4416
