; G-Code generated by Simplify3D(R) Version 4.1.2
; Apr 2, 2020 at 5:07:42 PM
; Settings Summary
;   processName,Process1
;   applyToModels,cube_100
;   profileName,StiansEnder5PlusTitan (modified)
;   profileVersion,2019-04-06 08:00:00
;   baseProfile,Default (modified)
;   printMaterial,addNorth E-PLA
;   printQuality,Medium
;   printExtruders,
;   extruderName,Primary Extruder
;   extruderToolheadNumber,0
;   extruderDiameter,0.4
;   extruderAutoWidth,0
;   extruderWidth,0.48
;   extrusionMultiplier,1
;   extruderUseRetract,1
;   extruderRetractionDistance,3
;   extruderExtraRestartDistance,0
;   extruderRetractionZLift,0
;   extruderRetractionSpeed,2700
;   extruderUseCoasting,0
;   extruderCoastingDistance,0
;   extruderUseWipe,0
;   extruderWipeDistance,2
;   primaryExtruder,0
;   layerHeight,0.2
;   topSolidLayers,0
;   bottomSolidLayers,0
;   perimeterOutlines,2
;   printPerimetersInsideOut,1
;   startPointOption,3
;   startPointOriginX,0
;   startPointOriginY,0
;   sequentialIslands,0
;   spiralVaseMode,0
;   firstLayerHeightPercentage,100
;   firstLayerWidthPercentage,100
;   firstLayerUnderspeed,0.1
;   useRaft,0
;   raftExtruder,0
;   raftTopLayers,3
;   raftBaseLayers,2
;   raftOffset,3
;   raftSeparationDistance,0.14
;   raftTopInfill,100
;   aboveRaftSpeedMultiplier,0.3
;   useSkirt,1
;   skirtExtruder,0
;   skirtLayers,3
;   skirtOutlines,2
;   skirtOffset,0
;   usePrimePillar,0
;   primePillarExtruder,999
;   primePillarWidth,12
;   primePillarLocation,7
;   primePillarSpeedMultiplier,1.25
;   useOozeShield,0
;   oozeShieldExtruder,999
;   oozeShieldOffset,2
;   oozeShieldOutlines,1
;   oozeShieldSidewallShape,1
;   oozeShieldSidewallAngle,30
;   oozeShieldSpeedMultiplier,1
;   infillExtruder,0
;   internalInfillPattern,Rectilinear
;   externalInfillPattern,Rectilinear
;   infillPercentage,100
;   outlineOverlapPercentage,10
;   infillExtrusionWidthPercentage,100
;   minInfillLength,2
;   infillLayerInterval,1
;   internalInfillAngles,45,-45
;   overlapInternalInfillAngles,0
;   externalInfillAngles,45,-45
;   generateSupport,0
;   supportExtruder,0
;   supportInfillPercentage,30
;   supportExtraInflation,0
;   supportBaseLayers,0
;   denseSupportExtruder,0
;   denseSupportLayers,0
;   denseSupportInfillPercentage,70
;   supportLayerInterval,1
;   supportHorizontalPartOffset,0.3
;   supportUpperSeparationLayers,1
;   supportLowerSeparationLayers,1
;   supportType,0
;   supportGridSpacing,4
;   maxOverhangAngle,45
;   supportAngles,0
;   temperatureName,Primary Extruder,Heated Bed
;   temperatureNumber,0,0
;   temperatureSetpointCount,1,1
;   temperatureSetpointLayers,1,1
;   temperatureSetpointTemperatures,200,60
;   temperatureStabilizeAtStartup,1,1
;   temperatureHeatedBed,0,1
;   fanLayers,1,2
;   fanSpeeds,0,100
;   blipFanToFullPower,1
;   adjustSpeedForCooling,1
;   minSpeedLayerTime,10
;   minCoolingSpeedSlowdown,10
;   increaseFanForCooling,1
;   minFanLayerTime,45
;   maxCoolingFanSpeed,100
;   increaseFanForBridging,1
;   bridgingFanSpeed,100
;   use5D,1
;   relativeEdistances,0
;   allowEaxisZeroing,1
;   independentExtruderAxes,0
;   includeM10123,0
;   stickySupport,1
;   applyToolheadOffsets,0
;   gcodeXoffset,0
;   gcodeYoffset,0
;   gcodeZoffset,0
;   overrideMachineDefinition,1
;   machineTypeOverride,0
;   strokeXoverride,361
;   strokeYoverride,367
;   strokeZoverride,400
;   originOffsetXoverride,0
;   originOffsetYoverride,0
;   originOffsetZoverride,0
;   homeXdirOverride,1
;   homeYdirOverride,1
;   homeZdirOverride,-1
;   flipXoverride,1
;   flipYoverride,-1
;   flipZoverride,1
;   toolheadOffsets,0,0|0,0|0,0|0,0|0,0|0,0
;   overrideFirmwareConfiguration,0
;   firmwareTypeOverride,RepRap (Marlin/Repetier/Sprinter)
;   GPXconfigOverride,r2
;   baudRateOverride,115200
;   overridePrinterModels,1
;   printerModelsOverride
;   startingGcode,G32 ; home and level bed by screws,
;   layerChangeGcode,
;   retractionGcode,
;   toolChangeGcode,
;   endingGcode,G91,G1 X999 Y999 Z50 H1 F1500,G1 X-15 Y-15 F9999,G1 E7 F300,G1 E3 F1000,G1 E-20 F1000,G90,M106 S0 ; turn off cooling fan,M104 S0 ; turn off extruder,M140 S0 ; turn off bed,M84 ; disable motors
;   exportFileFormat,gcode
;   celebration,0
;   celebrationSong,Random Song
;   postProcessing,
;   defaultSpeed,3600
;   outlineUnderspeed,0.5
;   solidInfillUnderspeed,0.8
;   supportUnderspeed,0.8
;   rapidXYspeed,30000
;   rapidZspeed,2400
;   minBridgingArea,50
;   bridgingExtraInflation,0
;   bridgingExtrusionMultiplier,1
;   bridgingSpeedMultiplier,1
;   useFixedBridgingAngle,0
;   fixedBridgingAngle,0
;   applyBridgingToPerimeters,1
;   filamentDiameters,1.75|1.75|1.75|1.75|1.75|1.75
;   filamentPricesPerKg,46|46|46|46|46|46
;   filamentDensities,1.25|1.25|1.25|1.25|1.25|1.25
;   useMinPrintHeight,0
;   minPrintHeight,0
;   useMaxPrintHeight,0
;   maxPrintHeight,0
;   useDiaphragm,0
;   diaphragmLayerInterval,20
;   robustSlicing,1
;   mergeAllIntoSolid,0
;   onlyRetractWhenCrossingOutline,1
;   retractBetweenLayers,0
;   useRetractionMinTravel,1
;   retractionMinTravel,1.5
;   retractWhileWiping,0
;   onlyWipeOutlines,1
;   avoidCrossingOutline,1
;   maxMovementDetourFactor,10
;   toolChangeRetractionDistance,12
;   toolChangeExtraRestartDistance,-0.5
;   toolChangeRetractionSpeed,600
;   externalThinWallType,1
;   internalThinWallType,1
;   thinWallAllowedOverlapPercentage,10
;   singleExtrusionMinLength,1
;   singleExtrusionMinPrintingWidthPercentage,50
;   singleExtrusionMaxPrintingWidthPercentage,200
;   singleExtrusionEndpointExtension,0.2
;   horizontalSizeCompensation,0
G90
M82
M106 S0
M140 S60
M190 S60
M104 S200 T0
M109 S200 T0
G32 ; home and level bed by screws
; process Process1
; layer 1, Z = 0.200
T0
G92 E0.0000
G1 E-3.0000 F2700
; feature skirt
; tool H0.200 W0.480
G1 Z0.200 F2400
G1 X155.202 Y157.780 F30000
G1 E0.0000 F2700
G92 E0.0000
G1 X205.798 Y157.780 E2.0194 F360
G1 X206.220 Y158.202 E2.0432
G1 X206.220 Y208.798 E4.0626
G1 X205.798 Y209.220 E4.0864
G1 X155.202 Y209.220 E6.1059
G1 X154.780 Y208.798 E6.1297
G1 X154.780 Y158.202 E8.1491
G1 X155.202 Y157.780 E8.1729
G1 X155.401 Y158.260 F30000
G92 E0.0000
G1 X205.599 Y158.260 E2.0035 F360
G1 X205.740 Y158.401 E2.0115
G1 X205.740 Y208.599 E4.0150
G1 X205.599 Y208.740 E4.0230
G1 X155.401 Y208.740 E6.0265
G1 X155.260 Y208.599 E6.0344
G1 X155.260 Y158.401 E8.0380
G1 X155.401 Y158.260 E8.0459
; feature inner perimeter
G1 X155.740 Y158.740 F30000
G1 X155.810 Y158.740
G1 X156.220 Y159.220
G92 E0.0000
G1 X204.780 Y159.220 E1.9381 F270
G1 X204.780 Y207.780 E3.8763
G1 X156.220 Y207.780 E5.8144
G1 X156.220 Y159.220 E7.7525
; feature outer perimeter
G1 X155.740 Y158.740 F30000
G92 E0.0000
G1 X205.260 Y158.740 E1.9765 F180
G1 X205.260 Y208.260 E3.9529
G1 X155.740 Y208.260 E5.9294
G1 X155.740 Y158.740 E7.9058
; feature infill
G1 X204.170 Y159.652 F30000
G92 E0.0000
G1 X204.348 Y159.830 E0.0101 F360
G1 X204.348 Y160.509 E0.0372
G1 X203.491 Y159.652 E0.0855
G1 X202.812 Y159.652 E0.1126
G1 X204.348 Y161.188 E0.1993
G1 X204.348 Y161.867 E0.2264
G1 X202.133 Y159.652 E0.3515
G1 X201.454 Y159.652 E0.3785
G1 X204.348 Y162.546 E0.5419
G1 X204.348 Y163.225 E0.5690
G1 X200.775 Y159.652 E0.7706
G1 X200.097 Y159.652 E0.7977
G1 X204.348 Y163.903 E1.0377
G1 X204.348 Y164.582 E1.0648
G1 X199.418 Y159.652 E1.3431
G1 X198.739 Y159.652 E1.3701
G1 X204.348 Y165.261 E1.6867
G1 X204.348 Y165.940 E1.7138
G1 X198.060 Y159.652 E2.0687
G1 X197.381 Y159.652 E2.0958
G1 X204.348 Y166.619 E2.4891
G1 X204.348 Y167.297 E2.5162
G1 X196.703 Y159.652 E2.9477
G1 X196.024 Y159.652 E2.9748
G1 X204.348 Y167.976 E3.4447
G1 X204.348 Y168.655 E3.4717
G1 X195.345 Y159.652 E3.9799
G1 X194.666 Y159.652 E4.0070
G1 X204.348 Y169.334 E4.5535
G1 X204.348 Y170.013 E4.5806
G1 X193.987 Y159.652 E5.1654
G1 X193.308 Y159.652 E5.1925
G1 X204.348 Y170.692 E5.8156
G1 X204.348 Y171.370 E5.8427
G1 X192.630 Y159.652 E6.5042
G1 X191.951 Y159.652 E6.5312
G1 X204.348 Y172.049 E7.2310
G1 X204.348 Y172.728 E7.2581
G1 X191.272 Y159.652 E7.9962
G1 X190.593 Y159.652 E8.0233
G1 X204.348 Y173.407 E8.7996
G1 X204.348 Y174.086 E8.8267
G1 X189.914 Y159.652 E9.6414
G1 X189.235 Y159.652 E9.6685
G1 X204.348 Y174.765 E10.5215
G1 X204.348 Y175.443 E10.5486
G1 X188.557 Y159.652 E11.4400
G1 X187.878 Y159.652 E11.4671
G1 X204.348 Y176.122 E12.3967
G1 X204.348 Y176.801 E12.4238
G1 X187.199 Y159.652 E13.3918
G1 X186.520 Y159.652 E13.4188
G1 X204.348 Y177.480 E14.4251
G1 X204.348 Y178.159 E14.4522
G1 X185.841 Y159.652 E15.4968
G1 X185.163 Y159.652 E15.5239
G1 X204.348 Y178.837 E16.6068
G1 X204.348 Y179.516 E16.6339
G1 X184.484 Y159.652 E17.7551
G1 X183.805 Y159.652 E17.7822
G1 X204.348 Y180.195 E18.9418
G1 X204.348 Y180.874 E18.9689
G1 X183.126 Y159.652 E20.1667
G1 X182.447 Y159.652 E20.1938
G1 X204.348 Y181.553 E21.4300
G1 X204.348 Y182.232 E21.4571
G1 X181.768 Y159.652 E22.7316
G1 X181.090 Y159.652 E22.7587
G1 X204.348 Y182.910 E24.0715
G1 X204.348 Y183.589 E24.0986
G1 X180.411 Y159.652 E25.4497
G1 X179.732 Y159.652 E25.4768
G1 X204.348 Y184.268 E26.8662
G1 X204.348 Y184.947 E26.8933
G1 X179.053 Y159.652 E28.3210
G1 X178.374 Y159.652 E28.3481
G1 X204.348 Y185.626 E29.8142
G1 X204.348 Y186.304 E29.8413
G1 X177.696 Y159.652 E31.3457
G1 X177.017 Y159.652 E31.3728
G1 X204.348 Y186.983 E32.9155
G1 X204.348 Y187.662 E32.9426
G1 X176.338 Y159.652 E34.5236
G1 X175.659 Y159.652 E34.5507
G1 X204.348 Y188.341 E36.1700
G1 X204.348 Y189.020 E36.1971
G1 X174.980 Y159.652 E37.8547
G1 X174.301 Y159.652 E37.8818
G1 X204.348 Y189.699 E39.5778
G1 X204.348 Y190.377 E39.6049
G1 X173.623 Y159.652 E41.3392
G1 X172.944 Y159.652 E41.3663
G1 X204.348 Y191.056 E43.1388
G1 X204.348 Y191.735 E43.1659
G1 X172.265 Y159.652 E44.9768
G1 X171.586 Y159.652 E45.0039
G1 X204.348 Y192.414 E46.8532
G1 X204.348 Y193.093 E46.8803
G1 X170.907 Y159.652 E48.7678
G1 X170.228 Y159.652 E48.7949
G1 X204.348 Y193.772 E50.7207
G1 X204.348 Y194.450 E50.7478
G1 X169.550 Y159.652 E52.7120
G1 X168.871 Y159.652 E52.7391
G1 X204.348 Y195.129 E54.7416
G1 X204.348 Y195.808 E54.7687
G1 X168.192 Y159.652 E56.8095
G1 X167.513 Y159.652 E56.8366
G1 X204.348 Y196.487 E58.9157
G1 X204.348 Y197.166 E58.9428
G1 X166.834 Y159.652 E61.0602
G1 X166.156 Y159.652 E61.0873
G1 X204.348 Y197.844 E63.2431
G1 X204.348 Y198.523 E63.2701
G1 X165.477 Y159.652 E65.4642
G1 X164.798 Y159.652 E65.4913
G1 X204.348 Y199.202 E67.7237
G1 X204.348 Y199.881 E67.7508
G1 X164.119 Y159.652 E70.0215
G1 X163.440 Y159.652 E70.0486
G1 X204.348 Y200.560 E72.3576
G1 X204.348 Y201.239 E72.3847
G1 X162.761 Y159.652 E74.7320
G1 X162.083 Y159.652 E74.7591
G1 X204.348 Y201.917 E77.1447
G1 X204.348 Y202.596 E77.1718
G1 X161.404 Y159.652 E79.5958
G1 X160.725 Y159.652 E79.6229
G1 X204.348 Y203.275 E82.0851
G1 X204.348 Y203.954 E82.1122
G1 X160.046 Y159.652 E84.6128
G1 X159.367 Y159.652 E84.6399
G1 X204.348 Y204.633 E87.1788
G1 X204.348 Y205.312 E87.2059
G1 X158.688 Y159.652 E89.7831
G1 X158.010 Y159.652 E89.8102
G1 X204.348 Y205.990 E92.4258
G1 X204.348 Y206.669 E92.4529
G1 X157.331 Y159.652 E95.1067
G1 X156.652 Y159.652 E95.1338
G1 X204.348 Y207.348 E97.8260
G1 X203.669 Y207.348 E97.8531
G1 X156.652 Y160.331 E100.5069
G1 X156.652 Y161.010 E100.5340
G1 X202.990 Y207.348 E103.1496
G1 X202.312 Y207.348 E103.1766
G1 X156.652 Y161.688 E105.7539
G1 X156.652 Y162.367 E105.7810
G1 X201.633 Y207.348 E108.3199
G1 X200.954 Y207.348 E108.3470
G1 X156.652 Y163.046 E110.8476
G1 X156.652 Y163.725 E110.8746
G1 X200.275 Y207.348 E113.3369
G1 X199.596 Y207.348 E113.3640
G1 X156.652 Y164.404 E115.7880
G1 X156.652 Y165.083 E115.8151
G1 X198.917 Y207.348 E118.2007
G1 X198.239 Y207.348 E118.2278
G1 X156.652 Y165.761 E120.5751
G1 X156.652 Y166.440 E120.6022
G1 X197.560 Y207.348 E122.9112
G1 X196.881 Y207.348 E122.9383
G1 X156.652 Y167.119 E125.2090
G1 X156.652 Y167.798 E125.2361
G1 X196.202 Y207.348 E127.4685
G1 X195.523 Y207.348 E127.4956
G1 X156.652 Y168.477 E129.6897
G1 X156.652 Y169.156 E129.7168
G1 X194.844 Y207.348 E131.8725
G1 X194.166 Y207.348 E131.8996
G1 X156.652 Y169.834 E134.0170
G1 X156.652 Y170.513 E134.0441
G1 X193.487 Y207.348 E136.1232
G1 X192.808 Y207.348 E136.1503
G1 X156.652 Y171.192 E138.1911
G1 X156.652 Y171.871 E138.2182
G1 X192.129 Y207.348 E140.2207
G1 X191.450 Y207.348 E140.2478
G1 X156.652 Y172.550 E142.2120
G1 X156.652 Y173.228 E142.2391
G1 X190.772 Y207.348 E144.1649
G1 X190.093 Y207.348 E144.1920
G1 X156.652 Y173.907 E146.0796
G1 X156.652 Y174.586 E146.1067
G1 X189.414 Y207.348 E147.9559
G1 X188.735 Y207.348 E147.9830
G1 X156.652 Y175.265 E149.7939
G1 X156.652 Y175.944 E149.8210
G1 X188.056 Y207.348 E151.5936
G1 X187.377 Y207.348 E151.6207
G1 X156.652 Y176.623 E153.3549
G1 X156.652 Y177.301 E153.3820
G1 X186.699 Y207.348 E155.0780
G1 X186.020 Y207.348 E155.1051
G1 X156.652 Y177.980 E156.7627
G1 X156.652 Y178.659 E156.7898
G1 X185.341 Y207.348 E158.4092
G1 X184.662 Y207.348 E158.4363
G1 X156.652 Y179.338 E160.0173
G1 X156.652 Y180.017 E160.0444
G1 X183.983 Y207.348 E161.5871
G1 X183.305 Y207.348 E161.6142
G1 X156.652 Y180.695 E163.1185
G1 X156.652 Y181.374 E163.1456
G1 X182.626 Y207.348 E164.6117
G1 X181.947 Y207.348 E164.6388
G1 X156.652 Y182.053 E166.0665
G1 X156.652 Y182.732 E166.0936
G1 X181.268 Y207.348 E167.4831
G1 X180.589 Y207.348 E167.5102
G1 X156.652 Y183.411 E168.8613
G1 X156.652 Y184.090 E168.8884
G1 X179.910 Y207.348 E170.2012
G1 X179.232 Y207.348 E170.2283
G1 X156.652 Y184.768 E171.5028
G1 X156.652 Y185.447 E171.5299
G1 X178.553 Y207.348 E172.7660
G1 X177.874 Y207.348 E172.7931
G1 X156.652 Y186.126 E173.9910
G1 X156.652 Y186.805 E174.0181
G1 X177.195 Y207.348 E175.1776
G1 X176.516 Y207.348 E175.2047
G1 X156.652 Y187.484 E176.3259
G1 X156.652 Y188.163 E176.3530
G1 X175.837 Y207.348 E177.4359
G1 X175.159 Y207.348 E177.4630
G1 X156.652 Y188.841 E178.5076
G1 X156.652 Y189.520 E178.5347
G1 X174.480 Y207.348 E179.5410
G1 X173.801 Y207.348 E179.5681
G1 X156.652 Y190.199 E180.5361
G1 X156.652 Y190.878 E180.5632
G1 X173.122 Y207.348 E181.4928
G1 X172.443 Y207.348 E181.5199
G1 X156.652 Y191.557 E182.4112
G1 X156.652 Y192.235 E182.4383
G1 X171.765 Y207.348 E183.2913
G1 X171.086 Y207.348 E183.3184
G1 X156.652 Y192.914 E184.1331
G1 X156.652 Y193.593 E184.1602
G1 X170.407 Y207.348 E184.9366
G1 X169.728 Y207.348 E184.9637
G1 X156.652 Y194.272 E185.7018
G1 X156.652 Y194.951 E185.7289
G1 X169.049 Y207.348 E186.4286
G1 X168.370 Y207.348 E186.4557
G1 X156.652 Y195.630 E187.1172
G1 X156.652 Y196.308 E187.1442
G1 X167.692 Y207.348 E187.7674
G1 X167.013 Y207.348 E187.7945
G1 X156.652 Y196.987 E188.3793
G1 X156.652 Y197.666 E188.4064
G1 X166.334 Y207.348 E188.9529
G1 X165.655 Y207.348 E188.9799
G1 X156.652 Y198.345 E189.4881
G1 X156.652 Y199.024 E189.5152
G1 X164.976 Y207.348 E189.9851
G1 X164.297 Y207.348 E190.0122
G1 X156.652 Y199.703 E190.4437
G1 X156.652 Y200.381 E190.4708
G1 X163.619 Y207.348 E190.8640
G1 X162.940 Y207.348 E190.8911
G1 X156.652 Y201.060 E191.2460
G1 X156.652 Y201.739 E191.2731
G1 X162.261 Y207.348 E191.5897
G1 X161.582 Y207.348 E191.6168
G1 X156.652 Y202.418 E191.8951
G1 X156.652 Y203.097 E191.9222
G1 X160.903 Y207.348 E192.1622
G1 X160.225 Y207.348 E192.1893
G1 X156.652 Y203.775 E192.3909
G1 X156.652 Y204.454 E192.4180
G1 X159.546 Y207.348 E192.5813
G1 X158.867 Y207.348 E192.6084
G1 X156.652 Y205.133 E192.7334
G1 X156.652 Y205.812 E192.7605
G1 X158.188 Y207.348 E192.8472
G1 X157.509 Y207.348 E192.8743
G1 X156.652 Y206.491 E192.9227
G1 X156.652 Y207.170 E192.9498
G1 X156.830 Y207.348 E192.9599
G92 E0.0000
G1 E-3.0000 F2700
; layer 2, Z = 0.400
M106 S255
; feature skirt
G1 Z0.400 F2400
G1 X155.740 Y174.161 F30000
G1 X155.740 Y158.740
G1 X155.202 Y157.780
G1 E0.0000 F2700
G92 E0.0000
G1 X205.798 Y157.780 E2.0194 F3600
G1 X206.220 Y158.202 E2.0432
G1 X206.220 Y208.798 E4.0626
G1 X205.798 Y209.220 E4.0864
G1 X155.202 Y209.220 E6.1059
G1 X154.780 Y208.798 E6.1297
G1 X154.780 Y158.202 E8.1491
G1 X155.202 Y157.780 E8.1729
G1 X155.401 Y158.260 F30000
G92 E0.0000
G1 X205.599 Y158.260 E2.0035 F3600
G1 X205.740 Y158.401 E2.0115
G1 X205.740 Y208.599 E4.0150
G1 X205.599 Y208.740 E4.0230
G1 X155.401 Y208.740 E6.0265
