; G-Code generated by Simplify3D(R) Version 4.1.2
; Mar 27, 2020 at 9:11:29 PM
; Settings Summary
;   processName,Process1
;   applyToModels,HeatpipebenderRC9_bracket,HeatpipebenderRC9_axle,HeatpipebenderRC9_bender,HeatpipebenderRC9_handle
;   profileName,Creality Ender 5 (modified)
;   profileVersion,2019-04-06 08:00:00
;   baseProfile,
;   printMaterial,addNorth E-PLA
;   printQuality,Medium
;   printExtruders,
;   extruderName,Primary Extruder
;   extruderToolheadNumber,0
;   extruderDiameter,0.4
;   extruderAutoWidth,0
;   extruderWidth,0.38
;   extrusionMultiplier,0.93
;   extruderUseRetract,1
;   extruderRetractionDistance,5
;   extruderExtraRestartDistance,0
;   extruderRetractionZLift,0
;   extruderRetractionSpeed,2700
;   extruderUseCoasting,0
;   extruderCoastingDistance,0
;   extruderUseWipe,0
;   extruderWipeDistance,2
;   primaryExtruder,0
;   layerHeight,0.2
;   topSolidLayers,4
;   bottomSolidLayers,4
;   perimeterOutlines,7
;   printPerimetersInsideOut,1
;   startPointOption,3
;   startPointOriginX,0
;   startPointOriginY,0
;   sequentialIslands,0
;   spiralVaseMode,0
;   firstLayerHeightPercentage,150
;   firstLayerWidthPercentage,120
;   firstLayerUnderspeed,0.2
;   useRaft,0
;   raftExtruder,0
;   raftTopLayers,3
;   raftBaseLayers,2
;   raftOffset,3
;   raftSeparationDistance,0.14
;   raftTopInfill,100
;   aboveRaftSpeedMultiplier,0.3
;   useSkirt,1
;   skirtExtruder,0
;   skirtLayers,5
;   skirtOutlines,2
;   skirtOffset,30
;   usePrimePillar,0
;   primePillarExtruder,999
;   primePillarWidth,12
;   primePillarLocation,7
;   primePillarSpeedMultiplier,1.25
;   useOozeShield,0
;   oozeShieldExtruder,999
;   oozeShieldOffset,2
;   oozeShieldOutlines,1
;   oozeShieldSidewallShape,1
;   oozeShieldSidewallAngle,30
;   oozeShieldSpeedMultiplier,1
;   infillExtruder,0
;   internalInfillPattern,Triangular
;   externalInfillPattern,Rectilinear
;   infillPercentage,50
;   outlineOverlapPercentage,15
;   infillExtrusionWidthPercentage,100
;   minInfillLength,2
;   infillLayerInterval,1
;   internalInfillAngles,0,60,-60
;   overlapInternalInfillAngles,1
;   externalInfillAngles,45,-45
;   generateSupport,0
;   supportExtruder,0
;   supportInfillPercentage,30
;   supportExtraInflation,0
;   supportBaseLayers,0
;   denseSupportExtruder,0
;   denseSupportLayers,0
;   denseSupportInfillPercentage,70
;   supportLayerInterval,1
;   supportHorizontalPartOffset,0.3
;   supportUpperSeparationLayers,1
;   supportLowerSeparationLayers,1
;   supportType,0
;   supportGridSpacing,4
;   maxOverhangAngle,45
;   supportAngles,0
;   temperatureName,Primary Extruder,Heated Bed
;   temperatureNumber,0,0
;   temperatureSetpointCount,1,1
;   temperatureSetpointLayers,1,1
;   temperatureSetpointTemperatures,220,55
;   temperatureStabilizeAtStartup,1,1
;   temperatureHeatedBed,0,1
;   fanLayers,1,2
;   fanSpeeds,0,100
;   blipFanToFullPower,1
;   adjustSpeedForCooling,1
;   minSpeedLayerTime,10
;   minCoolingSpeedSlowdown,20
;   increaseFanForCooling,1
;   minFanLayerTime,45
;   maxCoolingFanSpeed,100
;   increaseFanForBridging,1
;   bridgingFanSpeed,100
;   use5D,1
;   relativeEdistances,0
;   allowEaxisZeroing,1
;   independentExtruderAxes,0
;   includeM10123,0
;   stickySupport,1
;   applyToolheadOffsets,0
;   gcodeXoffset,0
;   gcodeYoffset,0
;   gcodeZoffset,0
;   overrideMachineDefinition,1
;   machineTypeOverride,0
;   strokeXoverride,361
;   strokeYoverride,367
;   strokeZoverride,400
;   originOffsetXoverride,0
;   originOffsetYoverride,0
;   originOffsetZoverride,0
;   homeXdirOverride,1
;   homeYdirOverride,1
;   homeZdirOverride,-1
;   flipXoverride,1
;   flipYoverride,-1
;   flipZoverride,1
;   toolheadOffsets,0,0|0,0|0,0|0,0|0,0|0,0
;   overrideFirmwareConfiguration,1
;   firmwareTypeOverride,RepRap (Marlin/Repetier/Sprinter)
;   GPXconfigOverride,r2
;   baudRateOverride,115200
;   overridePrinterModels,1
;   printerModelsOverride
;   startingGcode,G32 ; home and level bed by screws,
;   layerChangeGcode,
;   retractionGcode,
;   toolChangeGcode,
;   endingGcode,G91,G1 X999 Y999 Z50 H1 F1500,G1 X-15 Y-15 F9999,G1 E7 F300,G1 E3 F1000,G1 E-20 F1000,G90,M106 S0 ; turn off cooling fan,M104 S0 ; turn off extruder,M140 S0 ; turn off bed,M84 ; disable motors
;   exportFileFormat,gcode
;   celebration,0
;   celebrationSong,Random Song
;   postProcessing,
;   defaultSpeed,3000
;   outlineUnderspeed,0.5
;   solidInfillUnderspeed,0.8
;   supportUnderspeed,0.8
;   rapidXYspeed,6000
;   rapidZspeed,1002
;   minBridgingArea,50
;   bridgingExtraInflation,0
;   bridgingExtrusionMultiplier,1
;   bridgingSpeedMultiplier,1
;   useFixedBridgingAngle,0
;   fixedBridgingAngle,0
;   applyBridgingToPerimeters,0
;   filamentDiameters,1.75|1.75|1.75|1.75|1.75|1.75
;   filamentPricesPerKg,46|46|46|46|46|46
;   filamentDensities,1.25|1.25|1.25|1.25|1.25|1.25
;   useMinPrintHeight,0
;   minPrintHeight,0
;   useMaxPrintHeight,0
;   maxPrintHeight,0
;   useDiaphragm,0
;   diaphragmLayerInterval,20
;   robustSlicing,1
;   mergeAllIntoSolid,0
;   onlyRetractWhenCrossingOutline,1
;   retractBetweenLayers,0
;   useRetractionMinTravel,1
;   retractionMinTravel,1.5
;   retractWhileWiping,0
;   onlyWipeOutlines,1
;   avoidCrossingOutline,1
;   maxMovementDetourFactor,10
;   toolChangeRetractionDistance,12
;   toolChangeExtraRestartDistance,-0.5
;   toolChangeRetractionSpeed,600
;   externalThinWallType,1
;   internalThinWallType,1
;   thinWallAllowedOverlapPercentage,10
;   singleExtrusionMinLength,1
;   singleExtrusionMinPrintingWidthPercentage,50
;   singleExtrusionMaxPrintingWidthPercentage,200
;   singleExtrusionEndpointExtension,0.2
;   horizontalSizeCompensation,0
G90
M82
M106 S0
M140 S55
M190 S55
M104 S220 T0
M109 S220 T0
G32 ; home and level bed by screws
; process Process1
; layer 1, Z = 0.300
T0
G92 E0.0000
G1 E-5.0000 F2700
; feature skirt
; tool H0.300 W0.456
G1 Z0.300 F1002
G1 X134.868 Y130.942 F6000
G1 E0.0000 F2700
G92 E0.0000
G1 X137.642 Y128.485 E0.1960 F600
G1 X141.489 Y125.829 E0.4433
G1 X144.778 Y124.102 E0.6398
G1 X149.154 Y122.442 E0.8873
G1 X152.762 Y121.553 E1.0839
G1 X156.483 Y121.103 E1.2821
G1 X158.330 Y120.991 E1.3800
G1 X162.680 Y120.991 E1.6101
G1 X164.528 Y121.103 E1.7080
G1 X166.742 Y121.371 E1.8259
G1 X178.366 Y120.034 E2.4448
G1 X180.024 Y120.991 E2.5461
G1 X220.023 Y120.991 E4.6618
G1 X237.997 Y138.965 E6.0063
G1 X237.997 Y167.041 E7.4914
G1 X239.662 Y169.533 E7.6499
G1 X241.707 Y173.359 E7.8794
G1 X242.861 Y176.145 E8.0388
G1 X244.120 Y180.296 E8.2683
G1 X244.708 Y183.253 E8.4278
G1 X244.951 Y185.713 E8.5585
G1 X248.159 Y196.947 E9.1765
G1 X241.326 Y209.732 E9.9432
G1 X239.651 Y212.239 E10.1027
G1 X236.650 Y215.895 E10.3529
G1 X234.518 Y218.028 E10.5124
G1 X230.861 Y221.028 E10.7626
G1 X228.355 Y222.703 E10.9220
G1 X224.183 Y224.933 E11.1722
G1 X221.397 Y226.087 E11.3317
G1 X216.871 Y227.460 E11.5819
G1 X213.914 Y228.048 E11.7414
G1 X209.207 Y228.511 E11.9916
G1 X206.192 Y228.511 E12.1510
G1 X201.485 Y228.048 E12.4012
G1 X198.528 Y227.460 E12.5607
G1 X198.220 Y227.366 E12.5777
G1 X194.207 Y227.761 E12.7910
G1 X191.615 Y227.761 E12.9281
G1 X191.131 Y228.569 E12.9779
G1 X190.294 Y229.821 E13.0576
G1 X188.979 Y231.595 E13.1744
G1 X188.024 Y232.759 E13.2540
G1 X186.541 Y234.395 E13.3708
G1 X185.475 Y235.461 E13.4505
G1 X183.839 Y236.944 E13.5673
G1 X182.675 Y237.898 E13.6469
G1 X180.902 Y239.214 E13.7637
G1 X179.649 Y240.051 E13.8434
G1 X177.755 Y241.186 E13.9602
G1 X176.426 Y241.896 E14.0399
G1 X174.430 Y242.841 E14.1567
G1 X173.037 Y243.418 E14.2365
G1 X170.958 Y244.162 E14.3533
G1 X169.517 Y244.599 E14.4329
G1 X167.375 Y245.135 E14.5497
G1 X165.897 Y245.429 E14.6294
G1 X163.713 Y245.753 E14.7462
G1 X162.215 Y245.901 E14.8258
G1 X160.009 Y246.009 E14.9426
G1 X158.501 Y246.009 E15.0224
G1 X156.295 Y245.901 E15.1392
G1 X154.797 Y245.753 E15.2188
G1 X152.613 Y245.429 E15.3356
G1 X151.135 Y245.135 E15.4153
G1 X148.994 Y244.599 E15.5321
G1 X147.553 Y244.162 E15.6117
G1 X145.474 Y243.418 E15.7285
G1 X144.081 Y242.841 E15.8083
G1 X142.084 Y241.896 E15.9251
G1 X140.756 Y241.186 E16.0048
G1 X138.862 Y240.051 E16.1216
G1 X137.608 Y239.214 E16.2013
G1 X135.835 Y237.898 E16.3181
G1 X134.671 Y236.943 E16.3977
G1 X133.035 Y235.461 E16.5145
G1 X131.970 Y234.395 E16.5942
G1 X131.636 Y234.027 E16.6205
G1 X130.487 Y232.759 E16.7110
G1 X129.531 Y231.595 E16.7907
G1 X128.216 Y229.821 E16.9074
G1 X127.379 Y228.569 E16.9871
G1 X126.443 Y227.006 E17.0835
G1 X115.071 Y215.635 E17.9341
G1 X115.071 Y185.465 E19.5299
G1 X124.600 Y175.936 E20.2427
G1 X124.600 Y153.338 E21.4380
G1 X125.047 Y149.654 E21.6343
G1 X126.166 Y145.113 E21.8816
G1 X127.482 Y141.642 E22.0780
G1 X129.657 Y137.499 E22.3255
G1 X131.768 Y134.441 E22.5220
G1 X134.868 Y130.942 E22.7693
G1 X135.191 Y131.266 F6000
G92 E0.0000
G1 X137.924 Y128.845 E0.1931 F600
G1 X141.725 Y126.220 E0.4374
G1 X144.965 Y124.519 E0.6310
G1 X149.289 Y122.879 E0.8756
G1 X152.844 Y122.003 E1.0693
G1 X156.524 Y121.557 E1.2653
G1 X158.344 Y121.447 E1.3617
G1 X162.667 Y121.447 E1.5904
G1 X164.487 Y121.557 E1.6868
G1 X166.740 Y121.830 E1.8069
G1 X178.268 Y120.504 E2.4207
G1 X179.902 Y121.447 E2.5205
G1 X219.834 Y121.447 E4.6326
G1 X237.541 Y139.154 E5.9572
G1 X237.541 Y167.202 E7.4407
G1 X237.621 Y167.299 E7.4473
G1 X239.270 Y169.768 E7.6044
G1 X241.294 Y173.554 E7.8315
G1 X242.431 Y176.299 E7.9886
G1 X243.677 Y180.407 E8.2157
G1 X244.257 Y183.320 E8.3728
G1 X244.501 Y185.799 E8.5046
G1 X247.670 Y196.895 E9.1149
G1 X240.934 Y209.497 E9.8708
G1 X239.284 Y211.967 E10.0279
G1 X236.311 Y215.589 E10.2757
G1 X234.211 Y217.689 E10.4328
G1 X230.589 Y220.662 E10.6806
G1 X228.120 Y222.311 E10.8377
G1 X223.988 Y224.520 E11.0855
G1 X221.243 Y225.657 E11.2427
G1 X216.760 Y227.017 E11.4905
G1 X213.847 Y227.596 E11.6475
G1 X209.185 Y228.055 E11.8954
G1 X206.214 Y228.055 E12.0525
G1 X201.552 Y227.596 E12.3003
G1 X198.639 Y227.017 E12.4574
G1 X198.266 Y226.904 E12.4780
G1 X194.184 Y227.305 E12.6949
G1 X191.357 Y227.305 E12.8445
G1 X190.746 Y228.325 E12.9074
G1 X189.921 Y229.559 E12.9859
G1 X188.619 Y231.314 E13.1015
G1 X187.678 Y232.461 E13.1799
G1 X186.210 Y234.080 E13.2955
G1 X185.160 Y235.130 E13.3741
G1 X183.541 Y236.598 E13.4897
G1 X182.394 Y237.539 E13.5681
G1 X180.639 Y238.841 E13.6837
G1 X179.405 Y239.666 E13.7622
G1 X177.530 Y240.789 E13.8779
G1 X176.221 Y241.489 E13.9564
G1 X174.245 Y242.424 E14.0720
G1 X172.873 Y242.992 E14.1506
G1 X170.814 Y243.728 E14.2662
G1 X169.395 Y244.159 E14.3446
G1 X167.275 Y244.690 E14.4602
G1 X165.819 Y244.980 E14.5387
G1 X163.657 Y245.300 E14.6543
G1 X162.181 Y245.446 E14.7328
G1 X159.998 Y245.553 E14.8484
G1 X158.512 Y245.553 E14.9270
G1 X156.329 Y245.446 E15.0426
G1 X154.853 Y245.300 E15.1211
G1 X152.691 Y244.980 E15.2367
G1 X151.235 Y244.690 E15.3152
G1 X149.115 Y244.159 E15.4308
G1 X147.696 Y243.728 E15.5092
G1 X145.638 Y242.992 E15.6249
G1 X144.266 Y242.424 E15.7034
G1 X142.289 Y241.489 E15.8191
G1 X140.981 Y240.790 E15.8975
G1 X139.106 Y239.666 E16.0132
G1 X137.871 Y238.841 E16.0917
G1 X136.116 Y237.539 E16.2073
G1 X134.969 Y236.598 E16.2857
G1 X133.350 Y235.130 E16.4013
G1 X132.300 Y234.080 E16.4799
G1 X131.962 Y233.707 E16.5065
G1 X130.832 Y232.461 E16.5955
G1 X129.891 Y231.314 E16.6740
G1 X128.589 Y229.559 E16.7896
G1 X127.765 Y228.325 E16.8681
G1 X126.805 Y226.724 E16.9668
G1 X115.527 Y215.446 E17.8104
G1 X115.527 Y185.654 E19.3862
G1 X125.056 Y176.125 E20.0990
G1 X125.056 Y153.365 E21.3028
G1 X125.497 Y149.736 E21.4962
G1 X126.602 Y145.249 E21.7406
G1 X127.899 Y141.829 E21.9341
G1 X130.048 Y137.735 E22.1786
G1 X132.127 Y134.723 E22.3723
G1 X135.191 Y131.266 E22.6166
G92 E0.0000
G1 E-5.0000 F2700
; feature inner perimeter
G1 X156.755 Y152.853 F6000
G1 X156.654 Y152.966
G1 X158.583 Y154.916
G1 E0.0000 F2700
G92 E0.0000
G1 X158.784 Y154.777 E0.0130 F450
G1 X159.012 Y154.690 E0.0259
G1 X159.434 Y154.639 E0.0483
G1 X161.576 Y154.639 E0.1616
G1 X161.998 Y154.690 E0.1841
G1 X162.226 Y154.777 E0.1970
G1 X162.428 Y154.916 E0.2100
G1 X162.590 Y155.099 E0.2229
G1 X162.703 Y155.315 E0.2358
G1 X162.762 Y155.553 E0.2488
G1 X162.762 Y202.301 E2.7215
G1 X161.864 Y201.876 E2.7740
G1 X161.234 Y201.651 E2.8094
G1 X160.415 Y201.446 E2.8541
G1 X162.036 Y199.961 E2.9703
G1 X158.248 Y199.961 E3.1707
G1 X158.248 Y155.553 E5.5196
G1 X158.307 Y155.315 E5.5326
G1 X158.420 Y155.099 E5.5455
G1 X158.583 Y154.916 E5.5584
G1 X158.278 Y154.572 F6000
G92 E0.0000
G1 X158.571 Y154.370 E0.0188 F450
G1 X158.902 Y154.244 E0.0376
G1 X159.407 Y154.183 E0.0644
G1 X161.604 Y154.183 E0.1807
G1 X162.108 Y154.244 E0.2075
G1 X162.440 Y154.370 E0.2263
G1 X162.732 Y154.572 E0.2451
G1 X162.968 Y154.838 E0.2639
G1 X163.133 Y155.152 E0.2827
G1 X163.218 Y155.497 E0.3015
G1 X163.218 Y203.204 E2.8249
G1 X162.789 Y202.886 E2.8531
G1 X162.254 Y202.565 E2.8861
G1 X161.689 Y202.298 E2.9191
G1 X161.102 Y202.088 E2.9521
G1 X160.496 Y201.936 E2.9852
G1 X159.879 Y201.845 E3.0182
G1 X159.334 Y201.818 E3.0470
G1 X160.863 Y200.417 E3.1568
G1 X157.792 Y200.417 E3.3192
G1 X157.792 Y155.497 E5.6951
G1 X157.877 Y155.152 E5.7139
G1 X158.042 Y154.838 E5.7327
G1 X158.278 Y154.572 E5.7515
G1 X157.973 Y154.228 F6000
G92 E0.0000
G1 X158.357 Y153.963 E0.0247 F450
G1 X158.792 Y153.798 E0.0493
G1 X159.379 Y153.727 E0.0805
G1 X161.631 Y153.727 E0.1997
G1 X162.218 Y153.798 E0.2309
G1 X162.653 Y153.963 E0.2556
G1 X163.037 Y154.228 E0.2802
G1 X163.346 Y154.577 E0.3049
G1 X163.562 Y154.989 E0.3295
G1 X163.674 Y155.442 E0.3542
G1 X163.674 Y203.408 E2.8913
G1 X163.510 Y204.072 E2.9275
G1 X163.001 Y203.611 E2.9638
G1 X162.535 Y203.266 E2.9945
G1 X162.038 Y202.968 E3.0251
G1 X161.515 Y202.720 E3.0558
G1 X160.969 Y202.525 E3.0864
G1 X160.407 Y202.384 E3.1171
G1 X159.834 Y202.299 E3.1477
G1 X159.255 Y202.271 E3.1784
G1 X158.102 Y202.327 E3.2394
G1 X159.690 Y200.873 E3.3533
G1 X147.807 Y200.873 E3.9818
G1 X147.807 Y200.227 E4.0160
G1 X157.336 Y200.227 E4.5200
G1 X157.336 Y155.442 E6.8888
G1 X157.448 Y154.989 E6.9135
G1 X157.664 Y154.577 E6.9382
G1 X157.973 Y154.228 E6.9628
G1 X157.669 Y153.884 F6000
G92 E0.0000
G1 X158.144 Y153.556 E0.0305 F450
G1 X158.683 Y153.352 E0.0610
G1 X159.351 Y153.271 E0.0967
G1 X161.659 Y153.271 E0.2187
G1 X162.328 Y153.352 E0.2543
G1 X162.867 Y153.556 E0.2848
G1 X163.342 Y153.884 E0.3153
G1 X163.724 Y154.316 E0.3458
G1 X163.992 Y154.827 E0.3763
G1 X164.130 Y155.387 E0.4069
G1 X164.130 Y203.463 E2.9498
G1 X163.992 Y204.024 E2.9803
G1 X163.568 Y204.831 E3.0286
G1 X163.107 Y204.323 E3.0649
G1 X162.711 Y203.964 E3.0932
G1 X162.282 Y203.645 E3.1214
G1 X161.823 Y203.370 E3.1497
G1 X161.340 Y203.142 E3.1780
G1 X160.837 Y202.962 E3.2063
G1 X160.318 Y202.832 E3.2345
G1 X159.789 Y202.753 E3.2628
G1 X159.255 Y202.727 E3.2911
G1 X158.721 Y202.753 E3.3194
G1 X158.192 Y202.832 E3.3477
G1 X157.670 Y202.963 E3.3761
G1 X157.170 Y203.142 E3.4042
G1 X156.931 Y203.255 E3.4182
G1 X156.734 Y202.962 E3.4369
G1 X158.517 Y201.329 E3.5648
G1 X147.351 Y201.329 E4.1554
G1 X147.351 Y199.771 E4.2378
G1 X156.880 Y199.771 E4.7418
G1 X156.880 Y155.387 E7.0895
G1 X157.018 Y154.827 E7.1200
G1 X157.286 Y154.316 E7.1505
G1 X157.669 Y153.884 E7.1810
G1 X157.364 Y153.541 F6000
G92 E0.0000
G1 X157.930 Y153.150 E0.0364 F450
G1 X158.573 Y152.906 E0.0727
G1 X159.324 Y152.815 E0.1128
G1 X161.686 Y152.815 E0.2377
G1 X162.438 Y152.906 E0.2777
G1 X163.080 Y153.150 E0.3141
G1 X163.646 Y153.541 E0.3505
G1 X164.102 Y154.055 E0.3868
G1 X164.421 Y154.664 E0.4232
G1 X164.586 Y155.331 E0.4596
G1 X164.586 Y203.519 E3.0084
G1 X164.421 Y204.186 E3.0447
G1 X164.160 Y204.685 E3.0745
G1 X164.554 Y205.343 E3.1151
G1 X164.806 Y205.876 E3.1463
G1 X165.004 Y206.427 E3.1772
G1 X165.155 Y207.048 E3.2111
G1 X165.235 Y207.586 E3.2398
G1 X165.264 Y208.175 E3.2710
G1 X165.235 Y208.764 E3.3022
G1 X165.152 Y209.325 E3.3322
G1 X165.004 Y209.921 E3.3647
G1 X164.806 Y210.475 E3.3958
G1 X164.554 Y211.007 E3.4269
G1 X164.251 Y211.513 E3.4581
G1 X163.900 Y211.987 E3.4893
G1 X163.504 Y212.424 E3.5205
G1 X163.067 Y212.820 E3.5517
G1 X162.593 Y213.171 E3.5829
G1 X162.088 Y213.474 E3.6141
G1 X161.555 Y213.726 E3.6453
G1 X160.999 Y213.925 E3.6764
G1 X160.427 Y214.068 E3.7076
