; G-Code generated by Simplify3D(R) Version 4.1.2
; Mar 23, 2020 at 11:07:47 PM
; Settings Summary
;   processName,Process1
;   applyToModels,TempTower_OverHangTestV2.1
;   profileName,Creality Ender 5 (modified)
;   profileVersion,2019-04-06 08:00:00
;   baseProfile,
;   printMaterial,addNorth E-PLA
;   printQuality,Fast
;   printExtruders,
;   extruderName,Primary Extruder
;   extruderToolheadNumber,0
;   extruderDiameter,0.4
;   extruderAutoWidth,1
;   extruderWidth,0.48
;   extrusionMultiplier,0.9
;   extruderUseRetract,1
;   extruderRetractionDistance,2
;   extruderExtraRestartDistance,0
;   extruderRetractionZLift,0
;   extruderRetractionSpeed,2700
;   extruderUseCoasting,0
;   extruderCoastingDistance,0
;   extruderUseWipe,0
;   extruderWipeDistance,2
;   primaryExtruder,0
;   layerHeight,0.3
;   topSolidLayers,2
;   bottomSolidLayers,2
;   perimeterOutlines,2
;   printPerimetersInsideOut,1
;   startPointOption,3
;   startPointOriginX,0
;   startPointOriginY,0
;   sequentialIslands,0
;   spiralVaseMode,0
;   firstLayerHeightPercentage,115
;   firstLayerWidthPercentage,125
;   firstLayerUnderspeed,0.2
;   useRaft,0
;   raftExtruder,0
;   raftTopLayers,3
;   raftBaseLayers,2
;   raftOffset,3
;   raftSeparationDistance,0.14
;   raftTopInfill,100
;   aboveRaftSpeedMultiplier,0.3
;   useSkirt,1
;   skirtExtruder,0
;   skirtLayers,2
;   skirtOutlines,10
;   skirtOffset,0
;   usePrimePillar,0
;   primePillarExtruder,999
;   primePillarWidth,12
;   primePillarLocation,7
;   primePillarSpeedMultiplier,1.25
;   useOozeShield,0
;   oozeShieldExtruder,999
;   oozeShieldOffset,2
;   oozeShieldOutlines,1
;   oozeShieldSidewallShape,1
;   oozeShieldSidewallAngle,30
;   oozeShieldSpeedMultiplier,1
;   infillExtruder,0
;   internalInfillPattern,Triangular
;   externalInfillPattern,Rectilinear
;   infillPercentage,29
;   outlineOverlapPercentage,15
;   infillExtrusionWidthPercentage,80
;   minInfillLength,2
;   infillLayerInterval,1
;   internalInfillAngles,0,60,-60
;   overlapInternalInfillAngles,1
;   externalInfillAngles,45,-45
;   generateSupport,0
;   supportExtruder,0
;   supportInfillPercentage,25
;   supportExtraInflation,0
;   supportBaseLayers,0
;   denseSupportExtruder,0
;   denseSupportLayers,0
;   denseSupportInfillPercentage,70
;   supportLayerInterval,1
;   supportHorizontalPartOffset,0.3
;   supportUpperSeparationLayers,1
;   supportLowerSeparationLayers,1
;   supportType,0
;   supportGridSpacing,4
;   maxOverhangAngle,45
;   supportAngles,0
;   temperatureName,Primary Extruder,Heated Bed
;   temperatureNumber,0,0
;   temperatureSetpointCount,10,1
;   temperatureSetpointLayers,1,31,58,84,111,138,164,191,218,244,1
;   temperatureSetpointTemperatures,220,215,210,205,200,195,190,185,180,175,60
;   temperatureStabilizeAtStartup,1,1
;   temperatureHeatedBed,0,1
;   fanLayers,1,2
;   fanSpeeds,0,70
;   blipFanToFullPower,1
;   adjustSpeedForCooling,1
;   minSpeedLayerTime,10
;   minCoolingSpeedSlowdown,3
;   increaseFanForCooling,1
;   minFanLayerTime,45
;   maxCoolingFanSpeed,100
;   increaseFanForBridging,1
;   bridgingFanSpeed,100
;   use5D,1
;   relativeEdistances,0
;   allowEaxisZeroing,1
;   independentExtruderAxes,0
;   includeM10123,0
;   stickySupport,1
;   applyToolheadOffsets,0
;   gcodeXoffset,0
;   gcodeYoffset,0
;   gcodeZoffset,0
;   overrideMachineDefinition,1
;   machineTypeOverride,0
;   strokeXoverride,361
;   strokeYoverride,367
;   strokeZoverride,400
;   originOffsetXoverride,0
;   originOffsetYoverride,0
;   originOffsetZoverride,0
;   homeXdirOverride,1
;   homeYdirOverride,1
;   homeZdirOverride,-1
;   flipXoverride,1
;   flipYoverride,-1
;   flipZoverride,1
;   toolheadOffsets,0,0|0,0|0,0|0,0|0,0|0,0
;   overrideFirmwareConfiguration,0
;   firmwareTypeOverride,RepRap (Marlin/Repetier/Sprinter)
;   GPXconfigOverride,r2
;   baudRateOverride,115200
;   overridePrinterModels,1
;   printerModelsOverride
;   startingGcode,G28 ; home all axes,
;   layerChangeGcode,
;   retractionGcode,
;   toolChangeGcode,
;   endingGcode,G91,G1 X999 Y999 Z50 H1 F1500,G1 X-15 Y-15 F9999,G1 E7 F300,G1 E3 F1000,G1 E-20 F1000,G90,M106 S0 ; turn off cooling fan,M104 S0 ; turn off extruder,M140 S0 ; turn off bed,M84 ; disable motors
;   exportFileFormat,gcode
;   celebration,0
;   celebrationSong,Random Song
;   postProcessing,
;   defaultSpeed,2400
;   outlineUnderspeed,0.5
;   solidInfillUnderspeed,0.8
;   supportUnderspeed,0.8
;   rapidXYspeed,6000
;   rapidZspeed,1002
;   minBridgingArea,50
;   bridgingExtraInflation,0
;   bridgingExtrusionMultiplier,1
;   bridgingSpeedMultiplier,1
;   useFixedBridgingAngle,0
;   fixedBridgingAngle,0
;   applyBridgingToPerimeters,0
;   filamentDiameters,1.75|1.75|1.75|1.75|1.75|1.75
;   filamentPricesPerKg,46|46|46|46|46|46
;   filamentDensities,1.25|1.25|1.25|1.25|1.25|1.25
;   useMinPrintHeight,0
;   minPrintHeight,0
;   useMaxPrintHeight,0
;   maxPrintHeight,0
;   useDiaphragm,0
;   diaphragmLayerInterval,20
;   robustSlicing,1
;   mergeAllIntoSolid,0
;   onlyRetractWhenCrossingOutline,1
;   retractBetweenLayers,0
;   useRetractionMinTravel,1
;   retractionMinTravel,3
;   retractWhileWiping,1
;   onlyWipeOutlines,1
;   avoidCrossingOutline,1
;   maxMovementDetourFactor,10
;   toolChangeRetractionDistance,12
;   toolChangeExtraRestartDistance,-0.5
;   toolChangeRetractionSpeed,600
;   externalThinWallType,0
;   internalThinWallType,1
;   thinWallAllowedOverlapPercentage,10
;   singleExtrusionMinLength,1
;   singleExtrusionMinPrintingWidthPercentage,50
;   singleExtrusionMaxPrintingWidthPercentage,200
;   singleExtrusionEndpointExtension,0.2
;   horizontalSizeCompensation,0
G90
M82
M106 S255
G4 P500
M106 S158
M140 S60
M190 S60
M104 S220 T0
M109 S220 T0
G28 ; home all axes
; process Process1
; layer 1, Z = 0.345
T0
G92 E0.0000
G1 E-2.0000 F2700
; feature skirt
; tool H0.345 W0.600
G1 Z0.345 F1002
G1 X55.133 Y45.090 F6000
G1 E0.0000 F2700
G92 E0.0000
G1 X58.472 Y41.751 E0.3657 F480
G1 X66.194 Y41.751 E0.9638
G1 X69.533 Y45.090 E1.3296
G1 X69.533 Y57.812 E2.3150
G1 X66.194 Y61.151 E2.6807
G1 X58.472 Y61.151 E3.2788
G1 X55.133 Y57.812 E3.6446
G1 X55.133 Y45.090 E4.6299
G1 X55.733 Y45.338 F6000
G92 E0.0000
G1 X58.721 Y42.351 E0.3272 F480
G1 X65.946 Y42.351 E0.8868
G1 X68.933 Y45.338 E1.2141
G1 X68.933 Y57.563 E2.1610
G1 X65.946 Y60.551 E2.4882
G1 X58.721 Y60.551 E3.0478
G1 X55.733 Y57.563 E3.3751
G1 X55.733 Y45.338 E4.3220
G1 X56.333 Y45.587 F6000
G92 E0.0000
G1 X58.969 Y42.951 E0.2887 F480
G1 X65.697 Y42.951 E0.8099
G1 X68.333 Y45.587 E1.0986
G1 X68.333 Y57.315 E2.0070
G1 X65.697 Y59.951 E2.2957
G1 X58.969 Y59.951 E2.8168
G1 X56.333 Y57.315 E3.1056
G1 X56.333 Y45.587 E4.0140
G1 X56.933 Y45.835 F6000
G92 E0.0000
G1 X59.218 Y43.551 E0.2502 F480
G1 X65.448 Y43.551 E0.7329
G1 X67.733 Y45.835 E0.9831
G1 X67.733 Y57.066 E1.8530
G1 X65.448 Y59.351 E2.1032
G1 X59.218 Y59.351 E2.5858
G1 X56.933 Y57.066 E2.8361
G1 X56.933 Y45.835 E3.7060
G1 X57.533 Y46.084 F6000
G92 E0.0000
G1 X59.466 Y44.151 E0.2117 F480
G1 X65.200 Y44.151 E0.6559
G1 X67.133 Y46.084 E0.8676
G1 X67.133 Y56.817 E1.6990
G1 X65.200 Y58.751 E1.9107
G1 X59.466 Y58.751 E2.3548
G1 X57.533 Y56.817 E2.5666
G1 X57.533 Y46.084 E3.3980
G1 X58.133 Y46.332 F6000
G92 E0.0000
G1 X59.715 Y44.751 E0.1732 F480
G1 X64.951 Y44.751 E0.5789
G1 X66.533 Y46.332 E0.7521
G1 X66.533 Y56.569 E1.5450
G1 X64.951 Y58.151 E1.7182
G1 X59.715 Y58.151 E2.1238
G1 X58.133 Y56.569 E2.2971
G1 X58.133 Y46.332 E3.0900
G1 X58.733 Y46.581 F6000
G92 E0.0000
G1 X59.963 Y45.351 E0.1347 F480
G1 X64.703 Y45.351 E0.5019
G1 X65.933 Y46.581 E0.6366
G1 X65.933 Y56.320 E1.3910
G1 X64.703 Y57.551 E1.5257
G1 X59.963 Y57.551 E1.8928
G1 X58.733 Y56.320 E2.0276
G1 X58.733 Y46.581 E2.7820
G1 X59.333 Y46.829 F6000
G92 E0.0000
G1 X60.212 Y45.951 E0.0962 F480
G1 X64.454 Y45.951 E0.4249
G1 X65.333 Y46.829 E0.5211
G1 X65.333 Y56.072 E1.2370
G1 X64.454 Y56.951 E1.3332
G1 X60.212 Y56.951 E1.6619
G1 X59.333 Y56.072 E1.7581
G1 X59.333 Y46.829 E2.4740
G1 X59.933 Y47.078 F6000
G92 E0.0000
G1 X60.460 Y46.551 E0.0577 F480
G1 X64.206 Y46.551 E0.3479
G1 X64.733 Y47.078 E0.4056
G1 X64.733 Y55.823 E1.0830
G1 X64.206 Y56.351 E1.1407
G1 X60.460 Y56.351 E1.4309
G1 X59.933 Y55.823 E1.4886
G1 X59.933 Y47.078 E2.1660
G1 X60.533 Y47.326 F6000
G92 E0.0000
G1 X60.709 Y47.151 E0.0193 F480
G1 X63.957 Y47.151 E0.2709
G1 X64.133 Y47.326 E0.2901
G1 X64.133 Y55.575 E0.9290
G1 X63.957 Y55.751 E0.9482
G1 X60.709 Y55.751 E1.1999
G1 X60.533 Y55.575 E1.2191
G1 X60.533 Y47.326 E1.8580
G92 E0.0000
G1 E-2.0000 F2700
G1 X100.133 Y45.090 F6000
G1 E0.0000 F2700
G92 E0.0000
G1 X103.472 Y41.751 E0.3657 F480
G1 X111.689 Y41.751 E1.0022
G1 X115.028 Y45.090 E1.3679
G1 X115.028 Y57.812 E2.3533
G1 X111.689 Y61.151 E2.7191
G1 X103.472 Y61.151 E3.3555
G1 X100.133 Y57.812 E3.7212
G1 X100.133 Y45.090 E4.7066
G1 X100.733 Y45.338 F6000
G92 E0.0000
G1 X103.721 Y42.351 E0.3272 F480
G1 X111.441 Y42.351 E0.9252
G1 X114.428 Y45.338 E1.2524
G1 X114.428 Y57.563 E2.1993
G1 X111.441 Y60.551 E2.5266
G1 X103.721 Y60.551 E3.1245
G1 X100.733 Y57.563 E3.4518
G1 X100.733 Y45.338 E4.3986
G1 X101.333 Y45.587 F6000
G92 E0.0000
G1 X103.969 Y42.951 E0.2887 F480
G1 X111.192 Y42.951 E0.8482
G1 X113.828 Y45.587 E1.1369
G1 X113.828 Y57.315 E2.0453
G1 X111.192 Y59.951 E2.3341
G1 X103.969 Y59.951 E2.8935
G1 X101.333 Y57.315 E3.1823
G1 X101.333 Y45.587 E4.0906
G1 X101.933 Y45.835 F6000
G92 E0.0000
G1 X104.218 Y43.551 E0.2502 F480
G1 X110.944 Y43.551 E0.7712
G1 X113.228 Y45.835 E1.0214
G1 X113.228 Y57.066 E1.8913
G1 X110.944 Y59.351 E2.1416
G1 X104.218 Y59.351 E2.6625
G1 X101.933 Y57.066 E2.9128
G1 X101.933 Y45.835 E3.7826
G1 X102.533 Y46.084 F6000
G92 E0.0000
G1 X104.466 Y44.151 E0.2117 F480
G1 X110.695 Y44.151 E0.6942
G1 X112.628 Y46.084 E0.9059
G1 X112.628 Y56.817 E1.7373
G1 X110.695 Y58.751 E1.9491
G1 X104.466 Y58.751 E2.4315
G1 X102.533 Y56.817 E2.6433
G1 X102.533 Y46.084 E3.4746
G1 X103.133 Y46.332 F6000
G92 E0.0000
G1 X104.715 Y44.751 E0.1732 F480
G1 X110.446 Y44.751 E0.6172
G1 X112.028 Y46.332 E0.7904
G1 X112.028 Y56.569 E1.5833
G1 X110.446 Y58.151 E1.7566
G1 X104.715 Y58.151 E2.2005
G1 X103.133 Y56.569 E2.3738
G1 X103.133 Y46.332 E3.1667
G1 X103.733 Y46.581 F6000
G92 E0.0000
G1 X104.963 Y45.351 E0.1347 F480
G1 X110.198 Y45.351 E0.5402
G1 X111.428 Y46.581 E0.6749
G1 X111.428 Y56.320 E1.4293
G1 X110.198 Y57.551 E1.5641
G1 X104.963 Y57.551 E1.9695
G1 X103.733 Y56.320 E2.1043
G1 X103.733 Y46.581 E2.8587
G1 X104.333 Y46.829 F6000
G92 E0.0000
G1 X105.212 Y45.951 E0.0962 F480
G1 X109.949 Y45.951 E0.4632
G1 X110.828 Y46.829 E0.5594
G1 X110.828 Y56.072 E1.2753
G1 X109.949 Y56.951 E1.3716
G1 X105.212 Y56.951 E1.7385
G1 X104.333 Y56.072 E1.8348
G1 X104.333 Y46.829 E2.5507
G1 X104.933 Y47.078 F6000
G92 E0.0000
G1 X105.460 Y46.551 E0.0577 F480
G1 X109.701 Y46.551 E0.3862
G1 X110.228 Y47.078 E0.4440
G1 X110.228 Y55.823 E1.1213
G1 X109.701 Y56.351 E1.1791
G1 X105.460 Y56.351 E1.5075
G1 X104.933 Y55.823 E1.5653
G1 X104.933 Y47.078 E2.2427
G1 X105.533 Y47.326 F6000
G92 E0.0000
G1 X105.709 Y47.151 E0.0193 F480
G1 X109.452 Y47.151 E0.3092
G1 X109.628 Y47.326 E0.3285
G1 X109.628 Y55.575 E0.9673
G1 X109.452 Y55.751 E0.9866
G1 X105.709 Y55.751 E1.2765
G1 X105.533 Y55.575 E1.2958
G1 X105.533 Y47.326 E1.9347
G92 E0.0000
G1 E-2.0000 F2700
; feature inner perimeter
G1 X63.533 Y47.751 F6000
G1 X63.533 Y48.308
G1 X61.733 Y48.351
G1 E0.0000 F2700
G92 E0.0000
G1 X62.933 Y48.351 E0.0929 F360
G1 X62.933 Y54.551 E0.5732
G1 X61.733 Y54.551 E0.6661
G1 X61.733 Y48.351 E1.1463
; feature outer perimeter
G1 X61.133 Y47.751 F6000
G92 E0.0000
G1 X63.533 Y47.751 E0.1859 F240
G1 X63.533 Y55.151 E0.7591
G1 X61.133 Y55.151 E0.9449
G1 X61.133 Y47.751 E1.5181
; feature solid layer
G1 X62.243 Y49.347 F6000
G92 E0.0000
G1 X62.423 Y49.527 E0.0197 F384
G1 X62.423 Y50.375 E0.0854
G1 X62.243 Y50.195 E0.1052
G1 X62.243 Y51.044 E0.1709
G1 X62.423 Y51.224 E0.1906
G1 X62.423 Y52.072 E0.2563
G1 X62.243 Y51.892 E0.2760
G1 X62.243 Y52.741 E0.3418
G1 X62.423 Y52.921 E0.3615
G1 X62.423 Y53.769 E0.4272
G1 X62.243 Y53.589 E0.4469
G92 E0.0000
G1 E-2.0000 F2700
; feature inner perimeter
G1 X63.533 Y53.438 F6000
G1 X63.533 Y47.751
G1 X106.133 Y47.751
G1 X106.133 Y48.421
G1 X106.733 Y48.351
G1 E0.0000 F2700
G92 E0.0000
G1 X108.106 Y48.351 E0.1063 F360
G1 X108.106 Y54.551 E0.5865
G1 X106.733 Y54.551 E0.6928
G1 X106.733 Y48.351 E1.1730
; feature outer perimeter
G1 X106.133 Y47.751 F6000
G92 E0.0000
G1 X108.706 Y47.751 E0.1993 F240
G1 X108.706 Y55.151 E0.7724
G1 X106.133 Y55.151 E0.9717
G1 X106.133 Y47.751 E1.5448
; feature solid layer
G1 X107.577 Y48.861 F6000
G92 E0.0000
G1 X107.596 Y48.879 E0.0020 F384
G1 X107.596 Y49.727 E0.0677
G1 X107.243 Y49.375 E0.1063
G1 X107.243 Y50.223 E0.1721
G1 X107.596 Y50.576 E0.2107
G1 X107.596 Y51.424 E0.2764
G1 X107.243 Y51.072 E0.3150
G1 X107.243 Y51.920 E0.3807
G1 X107.596 Y52.273 E0.4193
G1 X107.596 Y53.121 E0.4851
G1 X107.243 Y52.769 E0.5237
G1 X107.243 Y53.617 E0.5894
G1 X107.596 Y53.970 E0.6280
G92 E0.0000
G1 E-2.0000 F2700
; layer 2, Z = 0.645
M106 S238
; feature skirt
; tool H0.300 W0.480
G1 Z0.645 F1002
G1 X106.133 Y52.025 F6000
G1 X106.133 Y47.751
G1 X101.273 Y45.562
G1 E0.0000 F2700
G92 E0.0000
G1 X103.944 Y42.891 E0.2035 F1026
G1 X111.217 Y42.891 E0.5954
G1 X113.888 Y45.562 E0.7989
G1 X113.888 Y57.339 E1.4335
G1 X111.217 Y60.011 E1.6371
G1 X103.944 Y60.011 E2.0289
G1 X101.273 Y57.339 E2.2325
G1 X101.273 Y45.562 E2.8671
G1 X101.753 Y45.761 F6000
G92 E0.0000
G1 X104.143 Y43.371 E0.1821 F1026
G1 X111.018 Y43.371 E0.5526
G1 X113.408 Y45.761 E0.7347
G1 X113.408 Y57.141 E1.3478
G1 X111.018 Y59.531 E1.5300
G1 X104.143 Y59.531 E1.9004
G1 X101.753 Y57.141 E2.0825
G1 X101.753 Y45.761 E2.6957
G1 X102.233 Y45.959 F6000
G92 E0.0000
G1 X104.342 Y43.851 E0.1607 F1026
G1 X110.819 Y43.851 E0.5097
G1 X112.928 Y45.959 E0.6704
G1 X112.928 Y56.942 E1.2621
G1 X110.819 Y59.051 E1.4228
G1 X104.342 Y59.051 E1.7718
G1 X102.233 Y56.942 E1.9325
G1 X102.233 Y45.959 E2.5243
G1 X102.713 Y46.158 F6000
G92 E0.0000
G1 X104.541 Y44.331 E0.1393 F1026
G1 X110.620 Y44.331 E0.4668
G1 X112.448 Y46.158 E0.6061
G1 X112.448 Y56.743 E1.1764
G1 X110.620 Y58.571 E1.3157
G1 X104.541 Y58.571 E1.6433
G1 X102.713 Y56.743 E1.7826
G1 X102.713 Y46.158 E2.3529
G1 X103.193 Y46.357 F6000
G92 E0.0000
G1 X104.740 Y44.811 E0.1178 F1026
G1 X110.422 Y44.811 E0.4240
G1 X111.968 Y46.357 E0.5418
G1 X111.968 Y56.544 E1.0907
G1 X110.422 Y58.091 E1.2086
G1 X104.740 Y58.091 E1.5147
G1 X103.193 Y56.544 E1.6326
G1 X103.193 Y46.357 E2.1815
G1 X103.673 Y46.556 F6000
G92 E0.0000
G1 X104.938 Y45.291 E0.0964 F1026
G1 X110.223 Y45.291 E0.3811
G1 X111.488 Y46.556 E0.4776
G1 X111.488 Y56.345 E1.0050
G1 X110.223 Y57.611 E1.1014
G1 X104.938 Y57.611 E1.3862
G1 X103.673 Y56.345 E1.4826
G1 X103.673 Y46.556 E2.0101
G1 X104.153 Y46.755 F6000
G92 E0.0000
G1 X105.137 Y45.771 E0.0750 F1026
G1 X110.024 Y45.771 E0.3383
G1 X111.008 Y46.755 E0.4133
G1 X111.008 Y56.146 E0.9193
G1 X110.024 Y57.131 E0.9943
G1 X105.137 Y57.131 E1.2576
G1 X104.153 Y56.146 E1.3326
G1 X104.153 Y46.755 E1.8387
G1 X104.633 Y46.954 F6000
G92 E0.0000
G1 X105.336 Y46.251 E0.0536 F1026
G1 X109.825 Y46.251 E0.2954
G1 X110.528 Y46.954 E0.3490
G1 X110.528 Y55.948 E0.8336
G1 X109.825 Y56.651 E0.8872
G1 X105.336 Y56.651 E1.1291
G1 X104.633 Y55.948 E1.1826
G1 X104.633 Y46.954 E1.6672
G1 X105.113 Y47.152 F6000
G92 E0.0000
G1 X105.535 Y46.731 E0.0321 F1026
G1 X109.626 Y46.731 E0.2526
G1 X110.048 Y47.152 E0.2847
G1 X110.048 Y55.749 E0.7479
G1 X109.626 Y56.171 E0.7801
G1 X105.535 Y56.171 E1.0005
G1 X105.113 Y55.749 E1.0327
G1 X105.113 Y47.152 E1.4958
G1 X105.593 Y47.351 F6000
G92 E0.0000
G1 X105.734 Y47.211 E0.0107 F1026
G1 X109.427 Y47.211 E0.2097
G1 X109.568 Y47.351 E0.2205
G1 X109.568 Y55.550 E0.6622
G1 X109.427 Y55.691 E0.6729
G1 X105.734 Y55.691 E0.8720
G1 X105.593 Y55.550 E0.8827
G1 X105.593 Y47.351 E1.3244
G92 E0.0000
G1 E-2.0000 F2700
G1 X56.273 Y45.562 F6000
G1 E0.0000 F2700
G92 E0.0000
G1 X58.944 Y42.891 E0.2035 F1026
G1 X65.722 Y42.891 E0.5687
G1 X68.393 Y45.562 E0.7723
G1 X68.393 Y57.339 E1.4069
G1 X65.722 Y60.011 E1.6104
G1 X58.944 Y60.011 E1.9756
G1 X56.273 Y57.339 E2.1791
