; G-Code generated by Simplify3D(R) Version 4.1.2
; Mar 24, 2020 at 9:54:32 AM
; Settings Summary
;   processName,Process1
;   applyToModels,TempTower_OverHangTestV2.1
;   profileName,Creality Ender 5 (modified)
;   profileVersion,2019-04-06 08:00:00
;   baseProfile,
;   printMaterial,addNorth E-PLA
;   printQuality,High
;   printExtruders,
;   extruderName,Primary Extruder
;   extruderToolheadNumber,0
;   extruderDiameter,0.4
;   extruderAutoWidth,1
;   extruderWidth,0.48
;   extrusionMultiplier,0.9
;   extruderUseRetract,1
;   extruderRetractionDistance,2
;   extruderExtraRestartDistance,0
;   extruderRetractionZLift,0
;   extruderRetractionSpeed,2700
;   extruderUseCoasting,0
;   extruderCoastingDistance,0
;   extruderUseWipe,0
;   extruderWipeDistance,2
;   primaryExtruder,0
;   layerHeight,0.1
;   topSolidLayers,4
;   bottomSolidLayers,4
;   perimeterOutlines,2
;   printPerimetersInsideOut,1
;   startPointOption,3
;   startPointOriginX,0
;   startPointOriginY,0
;   sequentialIslands,0
;   spiralVaseMode,0
;   firstLayerHeightPercentage,300
;   firstLayerWidthPercentage,125
;   firstLayerUnderspeed,0.2
;   useRaft,0
;   raftExtruder,0
;   raftTopLayers,3
;   raftBaseLayers,2
;   raftOffset,3
;   raftSeparationDistance,0.14
;   raftTopInfill,100
;   aboveRaftSpeedMultiplier,0.3
;   useSkirt,1
;   skirtExtruder,0
;   skirtLayers,2
;   skirtOutlines,10
;   skirtOffset,0
;   usePrimePillar,0
;   primePillarExtruder,999
;   primePillarWidth,12
;   primePillarLocation,7
;   primePillarSpeedMultiplier,1.25
;   useOozeShield,0
;   oozeShieldExtruder,999
;   oozeShieldOffset,2
;   oozeShieldOutlines,1
;   oozeShieldSidewallShape,1
;   oozeShieldSidewallAngle,30
;   oozeShieldSpeedMultiplier,1
;   infillExtruder,0
;   internalInfillPattern,Triangular
;   externalInfillPattern,Rectilinear
;   infillPercentage,0
;   outlineOverlapPercentage,15
;   infillExtrusionWidthPercentage,80
;   minInfillLength,2
;   infillLayerInterval,1
;   internalInfillAngles,0,60,-60
;   overlapInternalInfillAngles,1
;   externalInfillAngles,45,-45
;   generateSupport,0
;   supportExtruder,0
;   supportInfillPercentage,40
;   supportExtraInflation,0
;   supportBaseLayers,0
;   denseSupportExtruder,0
;   denseSupportLayers,0
;   denseSupportInfillPercentage,70
;   supportLayerInterval,1
;   supportHorizontalPartOffset,0.3
;   supportUpperSeparationLayers,1
;   supportLowerSeparationLayers,1
;   supportType,0
;   supportGridSpacing,4
;   maxOverhangAngle,45
;   supportAngles,0
;   temperatureName,Primary Extruder,Heated Bed
;   temperatureNumber,0,0
;   temperatureSetpointCount,10,1
;   temperatureSetpointLayers,1,31,58,84,111,138,164,191,218,244,1
;   temperatureSetpointTemperatures,220,215,210,205,200,195,190,185,180,175,60
;   temperatureStabilizeAtStartup,1,1
;   temperatureHeatedBed,0,1
;   fanLayers,1,2
;   fanSpeeds,0,70
;   blipFanToFullPower,1
;   adjustSpeedForCooling,1
;   minSpeedLayerTime,10
;   minCoolingSpeedSlowdown,3
;   increaseFanForCooling,1
;   minFanLayerTime,45
;   maxCoolingFanSpeed,100
;   increaseFanForBridging,1
;   bridgingFanSpeed,100
;   use5D,1
;   relativeEdistances,0
;   allowEaxisZeroing,1
;   independentExtruderAxes,0
;   includeM10123,0
;   stickySupport,1
;   applyToolheadOffsets,0
;   gcodeXoffset,0
;   gcodeYoffset,0
;   gcodeZoffset,0
;   overrideMachineDefinition,1
;   machineTypeOverride,0
;   strokeXoverride,361
;   strokeYoverride,367
;   strokeZoverride,400
;   originOffsetXoverride,0
;   originOffsetYoverride,0
;   originOffsetZoverride,0
;   homeXdirOverride,1
;   homeYdirOverride,1
;   homeZdirOverride,-1
;   flipXoverride,1
;   flipYoverride,-1
;   flipZoverride,1
;   toolheadOffsets,0,0|0,0|0,0|0,0|0,0|0,0
;   overrideFirmwareConfiguration,0
;   firmwareTypeOverride,RepRap (Marlin/Repetier/Sprinter)
;   GPXconfigOverride,r2
;   baudRateOverride,115200
;   overridePrinterModels,1
;   printerModelsOverride
;   startingGcode,G28 ; home all axes,
;   layerChangeGcode,
;   retractionGcode,
;   toolChangeGcode,
;   endingGcode,G91,G1 X999 Y999 Z50 H1 F1500,G1 X-15 Y-15 F9999,G1 E7 F300,G1 E3 F1000,G1 E-20 F1000,G90,M106 S0 ; turn off cooling fan,M104 S0 ; turn off extruder,M140 S0 ; turn off bed,M84 ; disable motors
;   exportFileFormat,gcode
;   celebration,0
;   celebrationSong,Random Song
;   postProcessing,
;   defaultSpeed,2400
;   outlineUnderspeed,0.5
;   solidInfillUnderspeed,0.8
;   supportUnderspeed,0.8
;   rapidXYspeed,6000
;   rapidZspeed,1002
;   minBridgingArea,50
;   bridgingExtraInflation,0
;   bridgingExtrusionMultiplier,1
;   bridgingSpeedMultiplier,1
;   useFixedBridgingAngle,0
;   fixedBridgingAngle,0
;   applyBridgingToPerimeters,0
;   filamentDiameters,1.75|1.75|1.75|1.75|1.75|1.75
;   filamentPricesPerKg,46|46|46|46|46|46
;   filamentDensities,1.25|1.25|1.25|1.25|1.25|1.25
;   useMinPrintHeight,0
;   minPrintHeight,0
;   useMaxPrintHeight,0
;   maxPrintHeight,0
;   useDiaphragm,0
;   diaphragmLayerInterval,20
;   robustSlicing,1
;   mergeAllIntoSolid,0
;   onlyRetractWhenCrossingOutline,1
;   retractBetweenLayers,0
;   useRetractionMinTravel,1
;   retractionMinTravel,3
;   retractWhileWiping,0
;   onlyWipeOutlines,1
;   avoidCrossingOutline,1
;   maxMovementDetourFactor,10
;   toolChangeRetractionDistance,12
;   toolChangeExtraRestartDistance,-0.5
;   toolChangeRetractionSpeed,600
;   externalThinWallType,1
;   internalThinWallType,1
;   thinWallAllowedOverlapPercentage,10
;   singleExtrusionMinLength,1
;   singleExtrusionMinPrintingWidthPercentage,50
;   singleExtrusionMaxPrintingWidthPercentage,200
;   singleExtrusionEndpointExtension,0.2
;   horizontalSizeCompensation,0
G90
M82
M106 S255
G4 P500
M106 S159
M140 S60
M190 S60
M104 S220 T0
M109 S220 T0
G28 ; home all axes
; process Process1
; layer 1, Z = 0.300
T0
G92 E0.0000
G1 E-2.0000 F2700
; feature skirt
; tool H0.300 W0.600
G1 Z0.300 F1002
G1 X55.133 Y45.090 F6000
G1 E0.0000 F2700
G92 E0.0000
G1 X58.472 Y41.751 E0.3180 F480
G1 X66.194 Y41.751 E0.8381
G1 X69.533 Y45.090 E1.1562
G1 X69.533 Y57.812 E2.0130
G1 X66.194 Y61.151 E2.3311
G1 X58.472 Y61.151 E2.8511
G1 X55.133 Y57.812 E3.1692
G1 X55.133 Y45.090 E4.0260
G1 X55.733 Y45.338 F6000
G92 E0.0000
G1 X58.721 Y42.351 E0.2846 F480
G1 X65.946 Y42.351 E0.7712
G1 X68.933 Y45.338 E1.0557
G1 X68.933 Y57.563 E1.8791
G1 X65.946 Y60.551 E2.1637
G1 X58.721 Y60.551 E2.6503
G1 X55.733 Y57.563 E2.9348
G1 X55.733 Y45.338 E3.7582
G1 X56.333 Y45.587 F6000
G92 E0.0000
G1 X58.969 Y42.951 E0.2511 F480
G1 X65.697 Y42.951 E0.7042
G1 X68.333 Y45.587 E0.9553
G1 X68.333 Y57.315 E1.7452
G1 X65.697 Y59.951 E1.9963
G1 X58.969 Y59.951 E2.4494
G1 X56.333 Y57.315 E2.7005
G1 X56.333 Y45.587 E3.4904
G1 X56.933 Y45.835 F6000
G92 E0.0000
G1 X59.218 Y43.551 E0.2176 F480
G1 X65.448 Y43.551 E0.6373
G1 X67.733 Y45.835 E0.8549
G1 X67.733 Y57.066 E1.6113
G1 X65.448 Y59.351 E1.8289
G1 X59.218 Y59.351 E2.2486
G1 X56.933 Y57.066 E2.4662
G1 X56.933 Y45.835 E3.2226
G1 X57.533 Y46.084 F6000
G92 E0.0000
G1 X59.466 Y44.151 E0.1841 F480
G1 X65.200 Y44.151 E0.5703
G1 X67.133 Y46.084 E0.7544
G1 X67.133 Y56.817 E1.4774
G1 X65.200 Y58.751 E1.6615
G1 X59.466 Y58.751 E2.0477
G1 X57.533 Y56.817 E2.2318
G1 X57.533 Y46.084 E2.9548
G1 X58.133 Y46.332 F6000
G92 E0.0000
G1 X59.715 Y44.751 E0.1506 F480
G1 X64.951 Y44.751 E0.5034
G1 X66.533 Y46.332 E0.6540
G1 X66.533 Y56.569 E1.3435
G1 X64.951 Y58.151 E1.4941
G1 X59.715 Y58.151 E1.8468
G1 X58.133 Y56.569 E1.9975
G1 X58.133 Y46.332 E2.6869
G1 X58.733 Y46.581 F6000
G92 E0.0000
G1 X59.963 Y45.351 E0.1172 F480
G1 X64.703 Y45.351 E0.4364
G1 X65.933 Y46.581 E0.5536
G1 X65.933 Y56.320 E1.2096
G1 X64.703 Y57.551 E1.3267
G1 X59.963 Y57.551 E1.6460
G1 X58.733 Y56.320 E1.7631
G1 X58.733 Y46.581 E2.4191
G1 X59.333 Y46.829 F6000
G92 E0.0000
G1 X60.212 Y45.951 E0.0837 F480
G1 X64.454 Y45.951 E0.3694
G1 X65.333 Y46.829 E0.4531
G1 X65.333 Y56.072 E1.0756
G1 X64.454 Y56.951 E1.1593
G1 X60.212 Y56.951 E1.4451
G1 X59.333 Y56.072 E1.5288
G1 X59.333 Y46.829 E2.1513
G1 X59.933 Y47.078 F6000
G92 E0.0000
G1 X60.460 Y46.551 E0.0502 F480
G1 X64.206 Y46.551 E0.3025
G1 X64.733 Y47.078 E0.3527
G1 X64.733 Y55.823 E0.9417
G1 X64.206 Y56.351 E0.9920
G1 X60.460 Y56.351 E1.2442
G1 X59.933 Y55.823 E1.2944
G1 X59.933 Y47.078 E1.8835
G1 X60.533 Y47.326 F6000
G92 E0.0000
G1 X60.709 Y47.151 E0.0167 F480
G1 X63.957 Y47.151 E0.2355
G1 X64.133 Y47.326 E0.2523
G1 X64.133 Y55.575 E0.8078
G1 X63.957 Y55.751 E0.8246
G1 X60.709 Y55.751 E1.0434
G1 X60.533 Y55.575 E1.0601
G1 X60.533 Y47.326 E1.6156
G92 E0.0000
G1 E-2.0000 F2700
G1 X100.133 Y45.090 F6000
G1 E0.0000 F2700
G92 E0.0000
G1 X103.472 Y41.751 E0.3180 F480
G1 X111.544 Y41.751 E0.8617
G1 X114.883 Y45.090 E1.1797
G1 X114.883 Y57.812 E2.0366
G1 X111.544 Y61.151 E2.3546
G1 X103.472 Y61.151 E2.8983
G1 X100.133 Y57.812 E3.2163
G1 X100.133 Y45.090 E4.0732
G1 X100.733 Y45.338 F6000
G92 E0.0000
G1 X103.721 Y42.351 E0.2846 F480
G1 X111.296 Y42.351 E0.7947
G1 X114.283 Y45.338 E1.0793
G1 X114.283 Y57.563 E1.9027
G1 X111.296 Y60.551 E2.1872
G1 X103.721 Y60.551 E2.6974
G1 X100.733 Y57.563 E2.9820
G1 X100.733 Y45.338 E3.8054
G1 X101.333 Y45.587 F6000
G92 E0.0000
G1 X103.969 Y42.951 E0.2511 F480
G1 X111.047 Y42.951 E0.7278
G1 X113.683 Y45.587 E0.9789
G1 X113.683 Y57.315 E1.7688
G1 X111.047 Y59.951 E2.0199
G1 X103.969 Y59.951 E2.4966
G1 X101.333 Y57.315 E2.7476
G1 X101.333 Y45.587 E3.5375
G1 X101.933 Y45.835 F6000
G92 E0.0000
G1 X104.218 Y43.551 E0.2176 F480
G1 X110.799 Y43.551 E0.6608
G1 X113.083 Y45.835 E0.8784
G1 X113.083 Y57.066 E1.6349
G1 X110.799 Y59.351 E1.8525
G1 X104.218 Y59.351 E2.2957
G1 X101.933 Y57.066 E2.5133
G1 X101.933 Y45.835 E3.2697
G1 X102.533 Y46.084 F6000
G92 E0.0000
G1 X104.466 Y44.151 E0.1841 F480
G1 X110.550 Y44.151 E0.5939
G1 X112.483 Y46.084 E0.7780
G1 X112.483 Y56.817 E1.5010
G1 X110.550 Y58.751 E1.6851
G1 X104.466 Y58.751 E2.0948
G1 X102.533 Y56.817 E2.2790
G1 X102.533 Y46.084 E3.0019
G1 X103.133 Y46.332 F6000
G92 E0.0000
G1 X104.715 Y44.751 E0.1506 F480
G1 X110.301 Y44.751 E0.5269
G1 X111.883 Y46.332 E0.6776
G1 X111.883 Y56.569 E1.3670
G1 X110.301 Y58.151 E1.5177
G1 X104.715 Y58.151 E1.8940
G1 X103.133 Y56.569 E2.0446
G1 X103.133 Y46.332 E2.7341
G1 X103.733 Y46.581 F6000
G92 E0.0000
G1 X104.963 Y45.351 E0.1172 F480
G1 X110.053 Y45.351 E0.4600
G1 X111.283 Y46.581 E0.5771
G1 X111.283 Y56.320 E1.2331
G1 X110.053 Y57.551 E1.3503
G1 X104.963 Y57.551 E1.6931
G1 X103.733 Y56.320 E1.8103
G1 X103.733 Y46.581 E2.4663
G1 X104.333 Y46.829 F6000
G92 E0.0000
G1 X105.212 Y45.951 E0.0837 F480
G1 X109.804 Y45.951 E0.3930
G1 X110.683 Y46.829 E0.4767
G1 X110.683 Y56.072 E1.0992
G1 X109.804 Y56.951 E1.1829
G1 X105.212 Y56.951 E1.4922
G1 X104.333 Y56.072 E1.5759
G1 X104.333 Y46.829 E2.1984
G1 X104.933 Y47.078 F6000
G92 E0.0000
G1 X105.460 Y46.551 E0.0502 F480
G1 X109.556 Y46.551 E0.3261
G1 X110.083 Y47.078 E0.3763
G1 X110.083 Y55.823 E0.9653
G1 X109.556 Y56.351 E1.0155
G1 X105.460 Y56.351 E1.2914
G1 X104.933 Y55.823 E1.3416
G1 X104.933 Y47.078 E1.9306
G1 X105.533 Y47.326 F6000
G92 E0.0000
G1 X105.709 Y47.151 E0.0167 F480
G1 X109.307 Y47.151 E0.2591
G1 X109.483 Y47.326 E0.2758
G1 X109.483 Y55.575 E0.8314
G1 X109.307 Y55.751 E0.8481
G1 X105.709 Y55.751 E1.0905
G1 X105.533 Y55.575 E1.1072
G1 X105.533 Y47.326 E1.6628
G92 E0.0000
G1 E-2.0000 F2700
; feature inner perimeter
G1 X63.533 Y47.751 F6000
G1 X63.533 Y48.308
G1 X61.733 Y48.351
G1 E0.0000 F2700
G92 E0.0000
G1 X62.933 Y48.351 E0.0808 F360
G1 X62.933 Y54.551 E0.4984
G1 X61.733 Y54.551 E0.5792
G1 X61.733 Y48.351 E0.9968
; feature outer perimeter
G1 X61.133 Y47.751 F6000
G92 E0.0000
G1 X63.533 Y47.751 E0.1616 F240
G1 X63.533 Y55.151 E0.6600
G1 X61.133 Y55.151 E0.8217
G1 X61.133 Y47.751 E1.3201
; feature solid layer
G1 X62.243 Y49.347 F6000
G92 E0.0000
G1 X62.423 Y49.527 E0.0171 F384
G1 X62.423 Y50.375 E0.0743
G1 X62.243 Y50.195 E0.0914
G1 X62.243 Y51.044 E0.1486
G1 X62.423 Y51.224 E0.1657
G1 X62.423 Y52.072 E0.2229
G1 X62.243 Y51.892 E0.2400
G1 X62.243 Y52.741 E0.2972
G1 X62.423 Y52.921 E0.3143
G1 X62.423 Y53.769 E0.3715
G1 X62.243 Y53.589 E0.3886
G92 E0.0000
G1 E-2.0000 F2700
; feature inner perimeter
G1 X63.533 Y53.438 F6000
G1 X63.533 Y47.751
G1 X106.133 Y47.751
G1 X106.133 Y48.421
G1 X106.733 Y48.351
G1 E0.0000 F2700
G92 E0.0000
G1 X108.083 Y48.351 E0.0909 F360
G1 X108.083 Y54.551 E0.5085
G1 X106.733 Y54.551 E0.5994
G1 X106.733 Y48.351 E1.0170
; feature outer perimeter
G1 X106.133 Y47.751 F6000
G92 E0.0000
G1 X108.683 Y47.751 E0.1717 F240
G1 X108.683 Y55.151 E0.6702
G1 X106.133 Y55.151 E0.8419
G1 X106.133 Y47.751 E1.3403
; feature solid layer
G1 X107.243 Y49.375 F6000
G92 E0.0000
G1 X107.573 Y49.705 E0.0314 F384
G1 X107.573 Y50.553 E0.0886
G1 X107.243 Y50.223 E0.1200
G1 X107.243 Y51.072 E0.1772
G1 X107.573 Y51.402 E0.2086
G1 X107.573 Y52.250 E0.2657
G1 X107.243 Y51.920 E0.2972
G1 X107.243 Y52.769 E0.3543
G1 X107.573 Y53.099 E0.3858
G1 X107.573 Y53.947 E0.4429
G1 X107.243 Y53.617 E0.4743
G92 E0.0000
G1 E-2.0000 F2700
; layer 2, Z = 0.400
M106 S238
; feature skirt
; tool H0.100 W0.480
G1 Z0.400 F1002
G1 X106.133 Y52.120 F6000
G1 X106.133 Y47.751
G1 X101.273 Y45.562
G1 E0.0000 F2700
G92 E0.0000
G1 X103.944 Y42.891 E0.0678 F1008
G1 X111.072 Y42.891 E0.1959
G1 X113.743 Y45.562 E0.2637
G1 X113.743 Y57.339 E0.4752
G1 X111.072 Y60.011 E0.5431
G1 X103.944 Y60.011 E0.6711
G1 X101.273 Y57.339 E0.7390
G1 X101.273 Y45.562 E0.9505
G1 X101.753 Y45.761 F6000
G92 E0.0000
G1 X104.143 Y43.371 E0.0607 F1008
G1 X110.873 Y43.371 E0.1816
G1 X113.263 Y45.761 E0.2423
G1 X113.263 Y57.141 E0.4467
G1 X110.873 Y59.531 E0.5074
G1 X104.143 Y59.531 E0.6283
G1 X101.753 Y57.141 E0.6890
G1 X101.753 Y45.761 E0.8934
G1 X102.233 Y45.959 F6000
G92 E0.0000
G1 X104.342 Y43.851 E0.0536 F1008
G1 X110.674 Y43.851 E0.1673
G1 X112.783 Y45.959 E0.2209
G1 X112.783 Y56.942 E0.4181
G1 X110.674 Y59.051 E0.4717
G1 X104.342 Y59.051 E0.5854
G1 X102.233 Y56.942 E0.6390
G1 X102.233 Y45.959 E0.8362
G1 X102.713 Y46.158 F6000
G92 E0.0000
G1 X104.541 Y44.331 E0.0464 F1008
G1 X110.475 Y44.331 E0.1530
G1 X112.303 Y46.158 E0.1994
G1 X112.303 Y56.743 E0.3895
G1 X110.475 Y58.571 E0.4360
G1 X104.541 Y58.571 E0.5426
G1 X102.713 Y56.743 E0.5890
G1 X102.713 Y46.158 E0.7791
G1 X103.193 Y46.357 F6000
G92 E0.0000
G1 X104.740 Y44.811 E0.0393 F1008
G1 X110.277 Y44.811 E0.1387
G1 X111.823 Y46.357 E0.1780
G1 X111.823 Y56.544 E0.3610
G1 X110.277 Y58.091 E0.4003
G1 X104.740 Y58.091 E0.4997
G1 X103.193 Y56.544 E0.5390
G1 X103.193 Y46.357 E0.7219
G1 X103.673 Y46.556 F6000
G92 E0.0000
G1 X104.938 Y45.291 E0.0321 F1008
G1 X110.078 Y45.291 E0.1244
G1 X111.343 Y46.556 E0.1566
G1 X111.343 Y56.345 E0.3324
G1 X110.078 Y57.611 E0.3645
G1 X104.938 Y57.611 E0.4568
G1 X103.673 Y56.345 E0.4890
G1 X103.673 Y46.556 E0.6648
G1 X104.153 Y46.755 F6000
G92 E0.0000
G1 X105.137 Y45.771 E0.0250 F1008
G1 X109.879 Y45.771 E0.1102
G1 X110.863 Y46.755 E0.1352
G1 X110.863 Y56.146 E0.3038
G1 X109.879 Y57.131 E0.3288
G1 X105.137 Y57.131 E0.4140
G1 X104.153 Y56.146 E0.4390
G1 X104.153 Y46.755 E0.6077
G1 X104.633 Y46.954 F6000
G92 E0.0000
G1 X105.336 Y46.251 E0.0179 F1008
G1 X109.680 Y46.251 E0.0959
G1 X110.383 Y46.954 E0.1137
G1 X110.383 Y55.948 E0.2753
G1 X109.680 Y56.651 E0.2931
G1 X105.336 Y56.651 E0.3711
G1 X104.633 Y55.948 E0.3890
G1 X104.633 Y46.954 E0.5505
G1 X105.113 Y47.152 F6000
G92 E0.0000
G1 X105.535 Y46.731 E0.0107 F1008
G1 X109.481 Y46.731 E0.0816
G1 X109.903 Y47.152 E0.0923
G1 X109.903 Y55.749 E0.2467
G1 X109.481 Y56.171 E0.2574
G1 X105.535 Y56.171 E0.3283
G1 X105.113 Y55.749 E0.3390
G1 X105.113 Y47.152 E0.4934
G1 X105.593 Y47.351 F6000
G92 E0.0000
G1 X105.734 Y47.211 E0.0036 F1008
G1 X109.282 Y47.211 E0.0673
G1 X109.423 Y47.351 E0.0709
G1 X109.423 Y55.550 E0.2181
G1 X109.282 Y55.691 E0.2217
G1 X105.734 Y55.691 E0.2854
G1 X105.593 Y55.550 E0.2890
G1 X105.593 Y47.351 E0.4363
G92 E0.0000
G1 E-2.0000 F2700
G1 X56.273 Y45.562 F6000
G1 E0.0000 F2700
G92 E0.0000
G1 X58.944 Y42.891 E0.0678 F1008
G1 X65.722 Y42.891 E0.1896
G1 X68.393 Y45.562 E0.2574
G1 X68.393 Y57.339 E0.4690
G1 X65.722 Y60.011 E0.5368
G1 X58.944 Y60.011 E0.6585
G1 X56.273 Y57.339 E0.7264
G1 X56.273 Y45.562 E0.9379
G1 X56.753 Y45.761 F6000
