; G-Code generated by Simplify3D(R) Version 4.1.2
; Mar 23, 2020 at 10:09:02 PM
; Settings Summary
;   processName,Process1
;   applyToModels,TempTower_OverHangTestV2.1
;   profileName,Creality Ender 5 (modified)
;   profileVersion,2019-04-06 08:00:00
;   baseProfile,
;   printMaterial,addNorth E-PLA
;   printQuality,Fast
;   printExtruders,
;   extruderName,Primary Extruder
;   extruderToolheadNumber,0
;   extruderDiameter,0.4
;   extruderAutoWidth,1
;   extruderWidth,0.48
;   extrusionMultiplier,0.92
;   extruderUseRetract,1
;   extruderRetractionDistance,3
;   extruderExtraRestartDistance,0
;   extruderRetractionZLift,0
;   extruderRetractionSpeed,6000
;   extruderUseCoasting,0
;   extruderCoastingDistance,0
;   extruderUseWipe,0
;   extruderWipeDistance,2
;   primaryExtruder,0
;   layerHeight,0.3
;   topSolidLayers,2
;   bottomSolidLayers,2
;   perimeterOutlines,2
;   printPerimetersInsideOut,1
;   startPointOption,3
;   startPointOriginX,0
;   startPointOriginY,0
;   sequentialIslands,0
;   spiralVaseMode,0
;   firstLayerHeightPercentage,115
;   firstLayerWidthPercentage,125
;   firstLayerUnderspeed,0.2
;   useRaft,0
;   raftExtruder,0
;   raftTopLayers,3
;   raftBaseLayers,2
;   raftOffset,3
;   raftSeparationDistance,0.14
;   raftTopInfill,100
;   aboveRaftSpeedMultiplier,0.3
;   useSkirt,1
;   skirtExtruder,0
;   skirtLayers,2
;   skirtOutlines,10
;   skirtOffset,0
;   usePrimePillar,0
;   primePillarExtruder,999
;   primePillarWidth,12
;   primePillarLocation,7
;   primePillarSpeedMultiplier,1.25
;   useOozeShield,0
;   oozeShieldExtruder,999
;   oozeShieldOffset,2
;   oozeShieldOutlines,1
;   oozeShieldSidewallShape,1
;   oozeShieldSidewallAngle,30
;   oozeShieldSpeedMultiplier,1
;   infillExtruder,0
;   internalInfillPattern,Triangular
;   externalInfillPattern,Rectilinear
;   infillPercentage,29
;   outlineOverlapPercentage,15
;   infillExtrusionWidthPercentage,80
;   minInfillLength,2
;   infillLayerInterval,1
;   internalInfillAngles,0,60,-60
;   overlapInternalInfillAngles,1
;   externalInfillAngles,45,-45
;   generateSupport,0
;   supportExtruder,0
;   supportInfillPercentage,25
;   supportExtraInflation,0
;   supportBaseLayers,0
;   denseSupportExtruder,0
;   denseSupportLayers,0
;   denseSupportInfillPercentage,70
;   supportLayerInterval,1
;   supportHorizontalPartOffset,0.3
;   supportUpperSeparationLayers,1
;   supportLowerSeparationLayers,1
;   supportType,0
;   supportGridSpacing,4
;   maxOverhangAngle,45
;   supportAngles,0
;   temperatureName,Primary Extruder,Heated Bed
;   temperatureNumber,0,0
;   temperatureSetpointCount,10,1
;   temperatureSetpointLayers,1,31,58,84,111,138,164,191,218,244,1
;   temperatureSetpointTemperatures,220,215,210,205,200,195,190,185,180,175,60
;   temperatureStabilizeAtStartup,1,1
;   temperatureHeatedBed,0,1
;   fanLayers,1,2
;   fanSpeeds,0,70
;   blipFanToFullPower,1
;   adjustSpeedForCooling,1
;   minSpeedLayerTime,10
;   minCoolingSpeedSlowdown,5
;   increaseFanForCooling,1
;   minFanLayerTime,45
;   maxCoolingFanSpeed,100
;   increaseFanForBridging,1
;   bridgingFanSpeed,100
;   use5D,1
;   relativeEdistances,0
;   allowEaxisZeroing,1
;   independentExtruderAxes,0
;   includeM10123,0
;   stickySupport,1
;   applyToolheadOffsets,0
;   gcodeXoffset,0
;   gcodeYoffset,0
;   gcodeZoffset,0
;   overrideMachineDefinition,1
;   machineTypeOverride,0
;   strokeXoverride,361
;   strokeYoverride,367
;   strokeZoverride,400
;   originOffsetXoverride,0
;   originOffsetYoverride,0
;   originOffsetZoverride,0
;   homeXdirOverride,1
;   homeYdirOverride,1
;   homeZdirOverride,-1
;   flipXoverride,1
;   flipYoverride,-1
;   flipZoverride,1
;   toolheadOffsets,0,0|0,0|0,0|0,0|0,0|0,0
;   overrideFirmwareConfiguration,0
;   firmwareTypeOverride,RepRap (Marlin/Repetier/Sprinter)
;   GPXconfigOverride,r2
;   baudRateOverride,115200
;   overridePrinterModels,1
;   printerModelsOverride
;   startingGcode,G28 ; home all axes,
;   layerChangeGcode,
;   retractionGcode,
;   toolChangeGcode,
;   endingGcode,G91,G1 X999 Y999 Z50 H1 F1500,G1 X-15 Y-15 F9999,G1 E7 F300,G1 E3 F1000,G1 E-20 F1000,G90,M106 S0 ; turn off cooling fan,M104 S0 ; turn off extruder,M140 S0 ; turn off bed,M84 ; disable motors
;   exportFileFormat,gcode
;   celebration,0
;   celebrationSong,Random Song
;   postProcessing,
;   defaultSpeed,4800
;   outlineUnderspeed,0.5
;   solidInfillUnderspeed,0.8
;   supportUnderspeed,0.8
;   rapidXYspeed,7200
;   rapidZspeed,1002
;   minBridgingArea,50
;   bridgingExtraInflation,0
;   bridgingExtrusionMultiplier,1
;   bridgingSpeedMultiplier,1
;   useFixedBridgingAngle,0
;   fixedBridgingAngle,0
;   applyBridgingToPerimeters,0
;   filamentDiameters,1.75|1.75|1.75|1.75|1.75|1.75
;   filamentPricesPerKg,46|46|46|46|46|46
;   filamentDensities,1.25|1.25|1.25|1.25|1.25|1.25
;   useMinPrintHeight,0
;   minPrintHeight,0
;   useMaxPrintHeight,0
;   maxPrintHeight,0
;   useDiaphragm,0
;   diaphragmLayerInterval,20
;   robustSlicing,1
;   mergeAllIntoSolid,0
;   onlyRetractWhenCrossingOutline,1
;   retractBetweenLayers,0
;   useRetractionMinTravel,1
;   retractionMinTravel,3
;   retractWhileWiping,1
;   onlyWipeOutlines,1
;   avoidCrossingOutline,1
;   maxMovementDetourFactor,10
;   toolChangeRetractionDistance,12
;   toolChangeExtraRestartDistance,-0.5
;   toolChangeRetractionSpeed,600
;   externalThinWallType,0
;   internalThinWallType,1
;   thinWallAllowedOverlapPercentage,10
;   singleExtrusionMinLength,1
;   singleExtrusionMinPrintingWidthPercentage,50
;   singleExtrusionMaxPrintingWidthPercentage,200
;   singleExtrusionEndpointExtension,0.2
;   horizontalSizeCompensation,0
G90
M82
M106 S255
G4 P500
M106 S198
M140 S60
M190 S60
M104 S220 T0
M109 S220 T0
G28 ; home all axes
; process Process1
; layer 1, Z = 0.345
T0
G92 E0.0000
G1 E-3.0000 F6000
; feature skirt
; tool H0.345 W0.600
G1 Z0.345 F1002
G1 X55.133 Y45.090 F7200
G1 E0.0000 F6000
G92 E0.0000
G1 X58.472 Y41.751 E0.3739 F818
G1 X66.194 Y41.751 E0.9853
G1 X69.533 Y45.090 E1.3591
G1 X69.533 Y57.812 E2.3664
G1 X66.194 Y61.151 E2.7403
G1 X58.472 Y61.151 E3.3517
G1 X55.133 Y57.812 E3.7256
G1 X55.133 Y45.090 E4.7328
G1 X55.733 Y45.338 F7200
G92 E0.0000
G1 X58.721 Y42.351 E0.3345 F818
G1 X65.946 Y42.351 E0.9066
G1 X68.933 Y45.338 E1.2411
G1 X68.933 Y57.563 E2.2090
G1 X65.946 Y60.551 E2.5435
G1 X58.721 Y60.551 E3.1156
G1 X55.733 Y57.563 E3.4501
G1 X55.733 Y45.338 E4.4180
G1 X56.333 Y45.587 F7200
G92 E0.0000
G1 X58.969 Y42.951 E0.2952 F818
G1 X65.697 Y42.951 E0.8278
G1 X68.333 Y45.587 E1.1230
G1 X68.333 Y57.315 E2.0516
G1 X65.697 Y59.951 E2.3467
G1 X58.969 Y59.951 E2.8794
G1 X56.333 Y57.315 E3.1746
G1 X56.333 Y45.587 E4.1032
G1 X56.933 Y45.835 F7200
G92 E0.0000
G1 X59.218 Y43.551 E0.2558 F818
G1 X65.448 Y43.551 E0.7491
G1 X67.733 Y45.835 E1.0049
G1 X67.733 Y57.066 E1.8942
G1 X65.448 Y59.351 E2.1500
G1 X59.218 Y59.351 E2.6433
G1 X56.933 Y57.066 E2.8991
G1 X56.933 Y45.835 E3.7883
G1 X57.533 Y46.084 F7200
G92 E0.0000
G1 X59.466 Y44.151 E0.2165 F818
G1 X65.200 Y44.151 E0.6704
G1 X67.133 Y46.084 E0.8869
G1 X67.133 Y56.817 E1.7367
G1 X65.200 Y58.751 E1.9532
G1 X59.466 Y58.751 E2.4072
G1 X57.533 Y56.817 E2.6236
G1 X57.533 Y46.084 E3.4735
G1 X58.133 Y46.332 F7200
G92 E0.0000
G1 X59.715 Y44.751 E0.1771 F818
G1 X64.951 Y44.751 E0.5917
G1 X66.533 Y46.332 E0.7688
G1 X66.533 Y56.569 E1.5793
G1 X64.951 Y58.151 E1.7564
G1 X59.715 Y58.151 E2.1710
G1 X58.133 Y56.569 E2.3481
G1 X58.133 Y46.332 E3.1586
G1 X58.733 Y46.581 F7200
G92 E0.0000
G1 X59.963 Y45.351 E0.1377 F818
G1 X64.703 Y45.351 E0.5130
G1 X65.933 Y46.581 E0.6508
G1 X65.933 Y56.320 E1.4219
G1 X64.703 Y57.551 E1.5596
G1 X59.963 Y57.551 E1.9349
G1 X58.733 Y56.320 E2.0727
G1 X58.733 Y46.581 E2.8438
G1 X59.333 Y46.829 F7200
G92 E0.0000
G1 X60.212 Y45.951 E0.0984 F818
G1 X64.454 Y45.951 E0.4343
G1 X65.333 Y46.829 E0.5327
G1 X65.333 Y56.072 E1.2645
G1 X64.454 Y56.951 E1.3629
G1 X60.212 Y56.951 E1.6988
G1 X59.333 Y56.072 E1.7972
G1 X59.333 Y46.829 E2.5290
G1 X59.933 Y47.078 F7200
G92 E0.0000
G1 X60.460 Y46.551 E0.0590 F818
G1 X64.206 Y46.551 E0.3556
G1 X64.733 Y47.078 E0.4146
G1 X64.733 Y55.823 E1.1071
G1 X64.206 Y56.351 E1.1661
G1 X60.460 Y56.351 E1.4627
G1 X59.933 Y55.823 E1.5217
G1 X59.933 Y47.078 E2.2141
G1 X60.533 Y47.326 F7200
G92 E0.0000
G1 X60.709 Y47.151 E0.0197 F818
G1 X63.957 Y47.151 E0.2769
G1 X64.133 Y47.326 E0.2966
G1 X64.133 Y55.575 E0.9496
G1 X63.957 Y55.751 E0.9693
G1 X60.709 Y55.751 E1.2265
G1 X60.533 Y55.575 E1.2462
G1 X60.533 Y47.326 E1.8993
G92 E0.0000
G1 E-3.0000 F6000
G1 X100.133 Y45.090 F7200
G1 E0.0000 F6000
G92 E0.0000
G1 X103.472 Y41.751 E0.3739 F818
G1 X111.689 Y41.751 E1.0245
G1 X115.028 Y45.090 E1.3983
G1 X115.028 Y57.812 E2.4056
G1 X111.689 Y61.151 E2.7795
G1 X103.472 Y61.151 E3.4301
G1 X100.133 Y57.812 E3.8039
G1 X100.133 Y45.090 E4.8112
G1 X100.733 Y45.338 F7200
G92 E0.0000
G1 X103.721 Y42.351 E0.3345 F818
G1 X111.441 Y42.351 E0.9458
G1 X114.428 Y45.338 E1.2803
G1 X114.428 Y57.563 E2.2482
G1 X111.441 Y60.551 E2.5827
G1 X103.721 Y60.551 E3.1939
G1 X100.733 Y57.563 E3.5285
G1 X100.733 Y45.338 E4.4964
G1 X101.333 Y45.587 F7200
G92 E0.0000
G1 X103.969 Y42.951 E0.2952 F818
G1 X111.192 Y42.951 E0.8670
G1 X113.828 Y45.587 E1.1622
G1 X113.828 Y57.315 E2.0908
G1 X111.192 Y59.951 E2.3859
G1 X103.969 Y59.951 E2.9578
G1 X101.333 Y57.315 E3.2530
G1 X101.333 Y45.587 E4.1815
G1 X101.933 Y45.835 F7200
G92 E0.0000
G1 X104.218 Y43.551 E0.2558 F818
G1 X110.944 Y43.551 E0.7883
G1 X113.228 Y45.835 E1.0441
G1 X113.228 Y57.066 E1.9334
G1 X110.944 Y59.351 E2.1892
G1 X104.218 Y59.351 E2.7217
G1 X101.933 Y57.066 E2.9775
G1 X101.933 Y45.835 E3.8667
G1 X102.533 Y46.084 F7200
G92 E0.0000
G1 X104.466 Y44.151 E0.2165 F818
G1 X110.695 Y44.151 E0.7096
G1 X112.628 Y46.084 E0.9261
G1 X112.628 Y56.817 E1.7759
G1 X110.695 Y58.751 E1.9924
G1 X104.466 Y58.751 E2.4856
G1 X102.533 Y56.817 E2.7020
G1 X102.533 Y46.084 E3.5519
G1 X103.133 Y46.332 F7200
G92 E0.0000
G1 X104.715 Y44.751 E0.1771 F818
G1 X110.446 Y44.751 E0.6309
G1 X112.028 Y46.332 E0.8080
G1 X112.028 Y56.569 E1.6185
G1 X110.446 Y58.151 E1.7956
G1 X104.715 Y58.151 E2.2494
G1 X103.133 Y56.569 E2.4265
G1 X103.133 Y46.332 E3.2370
G1 X103.733 Y46.581 F7200
G92 E0.0000
G1 X104.963 Y45.351 E0.1377 F818
G1 X110.198 Y45.351 E0.5522
G1 X111.428 Y46.581 E0.6899
G1 X111.428 Y56.320 E1.4611
G1 X110.198 Y57.551 E1.5988
G1 X104.963 Y57.551 E2.0133
G1 X103.733 Y56.320 E2.1510
G1 X103.733 Y46.581 E2.9222
G1 X104.333 Y46.829 F7200
G92 E0.0000
G1 X105.212 Y45.951 E0.0984 F818
G1 X109.949 Y45.951 E0.4735
G1 X110.828 Y46.829 E0.5719
G1 X110.828 Y56.072 E1.3037
G1 X109.949 Y56.951 E1.4021
G1 X105.212 Y56.951 E1.7772
G1 X104.333 Y56.072 E1.8756
G1 X104.333 Y46.829 E2.6073
G1 X104.933 Y47.078 F7200
G92 E0.0000
G1 X105.460 Y46.551 E0.0590 F818
G1 X109.701 Y46.551 E0.3948
G1 X110.228 Y47.078 E0.4538
G1 X110.228 Y55.823 E1.1463
G1 X109.701 Y56.351 E1.2053
G1 X105.460 Y56.351 E1.5410
G1 X104.933 Y55.823 E1.6001
G1 X104.933 Y47.078 E2.2925
G1 X105.533 Y47.326 F7200
G92 E0.0000
G1 X105.709 Y47.151 E0.0197 F818
G1 X109.452 Y47.151 E0.3161
G1 X109.628 Y47.326 E0.3358
G1 X109.628 Y55.575 E0.9888
G1 X109.452 Y55.751 E1.0085
G1 X105.709 Y55.751 E1.3049
G1 X105.533 Y55.575 E1.3246
G1 X105.533 Y47.326 E1.9777
G92 E0.0000
G1 E-3.0000 F6000
; feature inner perimeter
G1 X63.533 Y47.751 F7200
G1 X63.533 Y48.308
G1 X61.733 Y48.351
G1 E0.0000 F6000
G92 E0.0000
G1 X62.933 Y48.351 E0.0950 F614
G1 X62.933 Y54.551 E0.5859
G1 X61.733 Y54.551 E0.6809
G1 X61.733 Y48.351 E1.1718
; feature outer perimeter
G1 X61.133 Y47.751 F7200
G92 E0.0000
G1 X63.533 Y47.751 E0.1900 F409
G1 X63.533 Y55.151 E0.7759
G1 X61.133 Y55.151 E0.9659
G1 X61.133 Y47.751 E1.5518
; feature solid layer
G1 X62.243 Y49.347 F7200
G92 E0.0000
G1 X62.423 Y49.527 E0.0202 F655
G1 X62.423 Y50.375 E0.0873
G1 X62.243 Y50.195 E0.1075
G1 X62.243 Y51.044 E0.1747
G1 X62.423 Y51.224 E0.1948
G1 X62.423 Y52.072 E0.2620
G1 X62.243 Y51.892 E0.2822
G1 X62.243 Y52.741 E0.3494
G1 X62.423 Y52.921 E0.3695
G1 X62.423 Y53.769 E0.4367
G1 X62.243 Y53.589 E0.4568
G92 E0.0000
G1 E-3.0000 F6000
; feature inner perimeter
G1 X63.533 Y53.438 F7200
G1 X63.533 Y47.751
G1 X106.133 Y47.751
G1 X106.133 Y48.421
G1 X106.733 Y48.351
G1 E0.0000 F6000
G92 E0.0000
G1 X108.106 Y48.351 E0.1087 F614
G1 X108.106 Y54.551 E0.5996
G1 X106.733 Y54.551 E0.7082
G1 X106.733 Y48.351 E1.1991
; feature outer perimeter
G1 X106.133 Y47.751 F7200
G92 E0.0000
G1 X108.706 Y47.751 E0.2037 F409
G1 X108.706 Y55.151 E0.7896
G1 X106.133 Y55.151 E0.9933
G1 X106.133 Y47.751 E1.5792
; feature solid layer
G1 X107.577 Y48.861 F7200
G92 E0.0000
G1 X107.596 Y48.879 E0.0020 F655
G1 X107.596 Y49.727 E0.0692
G1 X107.243 Y49.375 E0.1087
G1 X107.243 Y50.223 E0.1759
G1 X107.596 Y50.576 E0.2154
G1 X107.596 Y51.424 E0.2825
G1 X107.243 Y51.072 E0.3220
G1 X107.243 Y51.920 E0.3892
G1 X107.596 Y52.273 E0.4287
G1 X107.596 Y53.121 E0.4958
G1 X107.243 Y52.769 E0.5353
G1 X107.243 Y53.617 E0.6025
G1 X107.596 Y53.970 E0.6420
G92 E0.0000
G1 E-3.0000 F6000
; layer 2, Z = 0.645
M106 S238
; feature skirt
; tool H0.300 W0.480
G1 Z0.645 F1002
G1 X106.133 Y52.025 F7200
G1 X106.133 Y47.751
G1 X101.273 Y45.562
G1 E0.0000 F6000
G92 E0.0000
G1 X103.944 Y42.891 E0.2081 F1026
G1 X111.217 Y42.891 E0.6086
G1 X113.888 Y45.562 E0.8167
G1 X113.888 Y57.339 E1.4654
G1 X111.217 Y60.011 E1.6735
G1 X103.944 Y60.011 E2.0740
G1 X101.273 Y57.339 E2.2821
G1 X101.273 Y45.562 E2.9308
G1 X101.753 Y45.761 F7200
G92 E0.0000
G1 X104.143 Y43.371 E0.1862 F1026
G1 X111.018 Y43.371 E0.5648
G1 X113.408 Y45.761 E0.7510
G1 X113.408 Y57.141 E1.3778
G1 X111.018 Y59.531 E1.5640
G1 X104.143 Y59.531 E1.9426
G1 X101.753 Y57.141 E2.1288
G1 X101.753 Y45.761 E2.7556
G1 X102.233 Y45.959 F7200
G92 E0.0000
G1 X104.342 Y43.851 E0.1643 F1026
G1 X110.819 Y43.851 E0.5210
G1 X112.928 Y45.959 E0.6853
G1 X112.928 Y56.942 E1.2902
G1 X110.819 Y59.051 E1.4544
G1 X104.342 Y59.051 E1.8112
G1 X102.233 Y56.942 E1.9755
G1 X102.233 Y45.959 E2.5804
G1 X102.713 Y46.158 F7200
G92 E0.0000
G1 X104.541 Y44.331 E0.1424 F1026
G1 X110.620 Y44.331 E0.4772
G1 X112.448 Y46.158 E0.6196
G1 X112.448 Y56.743 E1.2026
G1 X110.620 Y58.571 E1.3449
G1 X104.541 Y58.571 E1.6798
G1 X102.713 Y56.743 E1.8222
G1 X102.713 Y46.158 E2.4052
G1 X103.193 Y46.357 F7200
G92 E0.0000
G1 X104.740 Y44.811 E0.1205 F1026
G1 X110.422 Y44.811 E0.4334
G1 X111.968 Y46.357 E0.5539
G1 X111.968 Y56.544 E1.1150
G1 X110.422 Y58.091 E1.2354
G1 X104.740 Y58.091 E1.5484
G1 X103.193 Y56.544 E1.6689
G1 X103.193 Y46.357 E2.2299
G1 X103.673 Y46.556 F7200
G92 E0.0000
G1 X104.938 Y45.291 E0.0986 F1026
G1 X110.223 Y45.291 E0.3896
G1 X111.488 Y46.556 E0.4882
G1 X111.488 Y56.345 E1.0274
G1 X110.223 Y57.611 E1.1259
G1 X104.938 Y57.611 E1.4170
G1 X103.673 Y56.345 E1.5155
G1 X103.673 Y46.556 E2.0547
G1 X104.153 Y46.755 F7200
G92 E0.0000
G1 X105.137 Y45.771 E0.0767 F1026
G1 X110.024 Y45.771 E0.3458
G1 X111.008 Y46.755 E0.4225
G1 X111.008 Y56.146 E0.9398
G1 X110.024 Y57.131 E1.0164
G1 X105.137 Y57.131 E1.2856
G1 X104.153 Y56.146 E1.3622
G1 X104.153 Y46.755 E1.8795
G1 X104.633 Y46.954 F7200
G92 E0.0000
G1 X105.336 Y46.251 E0.0548 F1026
G1 X109.825 Y46.251 E0.3020
G1 X110.528 Y46.954 E0.3568
G1 X110.528 Y55.948 E0.8521
G1 X109.825 Y56.651 E0.9069
G1 X105.336 Y56.651 E1.1542
G1 X104.633 Y55.948 E1.2089
G1 X104.633 Y46.954 E1.7043
G1 X105.113 Y47.152 F7200
G92 E0.0000
G1 X105.535 Y46.731 E0.0329 F1026
G1 X109.626 Y46.731 E0.2582
G1 X110.048 Y47.152 E0.2911
G1 X110.048 Y55.749 E0.7645
G1 X109.626 Y56.171 E0.7974
G1 X105.535 Y56.171 E1.0227
G1 X105.113 Y55.749 E1.0556
G1 X105.113 Y47.152 E1.5291
G1 X105.593 Y47.351 F7200
G92 E0.0000
G1 X105.734 Y47.211 E0.0110 F1026
G1 X109.427 Y47.211 E0.2144
G1 X109.568 Y47.351 E0.2254
G1 X109.568 Y55.550 E0.6769
G1 X109.427 Y55.691 E0.6879
G1 X105.734 Y55.691 E0.8913
G1 X105.593 Y55.550 E0.9023
G1 X105.593 Y47.351 E1.3539
G92 E0.0000
G1 E-3.0000 F6000
G1 X56.273 Y45.562 F7200
G1 E0.0000 F6000
G92 E0.0000
G1 X58.944 Y42.891 E0.2081 F1026
G1 X65.722 Y42.891 E0.5814
G1 X68.393 Y45.562 E0.7894
G1 X68.393 Y57.339 E1.4381
G1 X65.722 Y60.011 E1.6462
G1 X58.944 Y60.011 E2.0195
G1 X56.273 Y57.339 E2.2276
