; G-Code generated by Simplify3D(R) Version 4.1.2
; Mar 24, 2020 at 2:53:09 PM
; Settings Summary
;   processName,Process1
;   applyToModels,box_round
;   profileName,Creality Ender 5 (modified)
;   profileVersion,2019-04-06 08:00:00
;   baseProfile,
;   printMaterial,addNorth E-PLA
;   printQuality,Fast
;   printExtruders,
;   extruderName,Primary Extruder
;   extruderToolheadNumber,0
;   extruderDiameter,0.4
;   extruderAutoWidth,0
;   extruderWidth,0.5
;   extrusionMultiplier,0.92
;   extruderUseRetract,1
;   extruderRetractionDistance,2
;   extruderExtraRestartDistance,0
;   extruderRetractionZLift,0
;   extruderRetractionSpeed,2700
;   extruderUseCoasting,0
;   extruderCoastingDistance,0
;   extruderUseWipe,0
;   extruderWipeDistance,2
;   primaryExtruder,0
;   layerHeight,0.3
;   topSolidLayers,0
;   bottomSolidLayers,2
;   perimeterOutlines,1
;   printPerimetersInsideOut,1
;   startPointOption,3
;   startPointOriginX,0
;   startPointOriginY,0
;   sequentialIslands,0
;   spiralVaseMode,1
;   firstLayerHeightPercentage,150
;   firstLayerWidthPercentage,125
;   firstLayerUnderspeed,0.2
;   useRaft,0
;   raftExtruder,0
;   raftTopLayers,3
;   raftBaseLayers,2
;   raftOffset,3
;   raftSeparationDistance,0.14
;   raftTopInfill,100
;   aboveRaftSpeedMultiplier,0.3
;   useSkirt,1
;   skirtExtruder,0
;   skirtLayers,2
;   skirtOutlines,10
;   skirtOffset,50
;   usePrimePillar,0
;   primePillarExtruder,999
;   primePillarWidth,12
;   primePillarLocation,7
;   primePillarSpeedMultiplier,1.25
;   useOozeShield,0
;   oozeShieldExtruder,999
;   oozeShieldOffset,2
;   oozeShieldOutlines,1
;   oozeShieldSidewallShape,1
;   oozeShieldSidewallAngle,30
;   oozeShieldSpeedMultiplier,1
;   infillExtruder,0
;   internalInfillPattern,Triangular
;   externalInfillPattern,Rectilinear
;   infillPercentage,0
;   outlineOverlapPercentage,15
;   infillExtrusionWidthPercentage,80
;   minInfillLength,2
;   infillLayerInterval,1
;   internalInfillAngles,0,60,-60
;   overlapInternalInfillAngles,1
;   externalInfillAngles,45,-45
;   generateSupport,0
;   supportExtruder,0
;   supportInfillPercentage,25
;   supportExtraInflation,0
;   supportBaseLayers,0
;   denseSupportExtruder,0
;   denseSupportLayers,0
;   denseSupportInfillPercentage,70
;   supportLayerInterval,1
;   supportHorizontalPartOffset,0.3
;   supportUpperSeparationLayers,1
;   supportLowerSeparationLayers,1
;   supportType,0
;   supportGridSpacing,4
;   maxOverhangAngle,45
;   supportAngles,0
;   temperatureName,Primary Extruder,Heated Bed
;   temperatureNumber,0,0
;   temperatureSetpointCount,1,1
;   temperatureSetpointLayers,1,1
;   temperatureSetpointTemperatures,220,60
;   temperatureStabilizeAtStartup,1,1
;   temperatureHeatedBed,0,1
;   fanLayers,1,2
;   fanSpeeds,0,70
;   blipFanToFullPower,1
;   adjustSpeedForCooling,1
;   minSpeedLayerTime,10
;   minCoolingSpeedSlowdown,3
;   increaseFanForCooling,1
;   minFanLayerTime,45
;   maxCoolingFanSpeed,100
;   increaseFanForBridging,1
;   bridgingFanSpeed,100
;   use5D,1
;   relativeEdistances,0
;   allowEaxisZeroing,1
;   independentExtruderAxes,0
;   includeM10123,0
;   stickySupport,1
;   applyToolheadOffsets,0
;   gcodeXoffset,0
;   gcodeYoffset,0
;   gcodeZoffset,0
;   overrideMachineDefinition,1
;   machineTypeOverride,0
;   strokeXoverride,361
;   strokeYoverride,367
;   strokeZoverride,400
;   originOffsetXoverride,0
;   originOffsetYoverride,0
;   originOffsetZoverride,0
;   homeXdirOverride,1
;   homeYdirOverride,1
;   homeZdirOverride,-1
;   flipXoverride,1
;   flipYoverride,-1
;   flipZoverride,1
;   toolheadOffsets,0,0|0,0|0,0|0,0|0,0|0,0
;   overrideFirmwareConfiguration,0
;   firmwareTypeOverride,RepRap (Marlin/Repetier/Sprinter)
;   GPXconfigOverride,r2
;   baudRateOverride,115200
;   overridePrinterModels,1
;   printerModelsOverride
;   startingGcode,G32 ; home and level bed by screws,
;   layerChangeGcode,
;   retractionGcode,
;   toolChangeGcode,
;   endingGcode,G91,G1 X999 Y999 Z50 H1 F1500,G1 X-15 Y-15 F9999,G1 E7 F300,G1 E3 F1000,G1 E-20 F1000,G90,M106 S0 ; turn off cooling fan,M104 S0 ; turn off extruder,M140 S0 ; turn off bed,M84 ; disable motors
;   exportFileFormat,gcode
;   celebration,0
;   celebrationSong,Random Song
;   postProcessing,
;   defaultSpeed,2400
;   outlineUnderspeed,0.5
;   solidInfillUnderspeed,0.8
;   supportUnderspeed,0.8
;   rapidXYspeed,6000
;   rapidZspeed,1002
;   minBridgingArea,50
;   bridgingExtraInflation,0
;   bridgingExtrusionMultiplier,1
;   bridgingSpeedMultiplier,1
;   useFixedBridgingAngle,0
;   fixedBridgingAngle,0
;   applyBridgingToPerimeters,0
;   filamentDiameters,1.75|1.75|1.75|1.75|1.75|1.75
;   filamentPricesPerKg,46|46|46|46|46|46
;   filamentDensities,1.25|1.25|1.25|1.25|1.25|1.25
;   useMinPrintHeight,0
;   minPrintHeight,0
;   useMaxPrintHeight,0
;   maxPrintHeight,0
;   useDiaphragm,0
;   diaphragmLayerInterval,20
;   robustSlicing,1
;   mergeAllIntoSolid,0
;   onlyRetractWhenCrossingOutline,1
;   retractBetweenLayers,0
;   useRetractionMinTravel,1
;   retractionMinTravel,3
;   retractWhileWiping,0
;   onlyWipeOutlines,1
;   avoidCrossingOutline,1
;   maxMovementDetourFactor,10
;   toolChangeRetractionDistance,12
;   toolChangeExtraRestartDistance,-0.5
;   toolChangeRetractionSpeed,600
;   externalThinWallType,1
;   internalThinWallType,1
;   thinWallAllowedOverlapPercentage,10
;   singleExtrusionMinLength,1
;   singleExtrusionMinPrintingWidthPercentage,50
;   singleExtrusionMaxPrintingWidthPercentage,200
;   singleExtrusionEndpointExtension,0.2
;   horizontalSizeCompensation,0
G90
M82
M106 S0
M140 S60
M190 S60
M104 S220 T0
M109 S220 T0
G32 ; home and level bed by screws
; process Process1
; layer 1, Z = 0.450
T0
G92 E0.0000
G1 E-2.0000 F2700
; feature skirt
; tool H0.450 W0.625
G1 Z0.450 F1002
G1 X71.942 Y71.553 F6000
G1 E0.0000 F2700
G92 E0.0000
G1 X75.113 Y68.563 E0.4689 F480
G1 X75.794 Y67.942 E0.5680
G1 X75.836 Y67.905 E0.5740
G1 X75.901 Y67.846 E0.5835
G1 X78.874 Y65.224 E1.0099
G1 X78.904 Y65.199 E1.0141
G1 X78.911 Y65.192 E1.0152
G1 X79.507 Y64.684 E1.0995
G1 X79.607 Y64.598 E1.1136
G1 X80.547 Y63.796 E1.2465
G1 X80.579 Y63.796 E1.2500
G1 X81.338 Y63.170 E1.3559
G1 X82.848 Y61.922 E1.5665
G1 X82.913 Y61.870 E1.5755
G1 X86.975 Y58.624 E2.1348
G1 X86.975 Y58.723 E2.1454
G1 X87.082 Y58.641 E2.1599
G1 X87.822 Y58.090 E2.2592
G1 X87.867 Y58.058 E2.2651
G1 X87.937 Y58.005 E2.2745
G1 X91.085 Y55.744 E2.6914
G1 X91.484 Y55.465 E2.7438
G1 X91.679 Y55.329 E2.7694
G1 X93.712 Y53.944 E3.0340
G1 X94.284 Y53.564 E3.1079
G1 X94.309 Y53.548 E3.1111
G1 X94.407 Y53.483 E3.1238
G1 X97.638 Y51.398 E3.5374
G1 X97.666 Y51.380 E3.5410
G1 X97.675 Y51.375 E3.5421
G1 X98.452 Y50.891 E3.6406
G1 X100.391 Y49.728 E3.8839
G1 X102.058 Y48.726 E4.0930
G1 X102.100 Y48.702 E4.0983
G1 X102.923 Y48.227 E4.2005
G1 X106.735 Y46.112 E4.6694
G1 X107.547 Y45.678 E4.7685
G1 X107.596 Y45.654 E4.7743
G1 X107.674 Y45.612 E4.7839
G1 X111.208 Y43.802 E5.2110
G1 X111.262 Y43.775 E5.2175
G1 X112.059 Y43.383 E5.3130
G1 X114.104 Y42.418 E5.5564
G1 X115.862 Y41.588 E5.7655
G1 X115.912 Y41.566 E5.7714
G1 X115.923 Y41.560 E5.7727
G1 X116.686 Y41.216 E5.8628
G1 X116.726 Y41.198 E5.8674
G1 X116.770 Y41.178 E5.8726
G1 X116.781 Y41.174 E5.8739
G1 X117.500 Y40.849 E5.9588
G1 X117.500 Y40.864 E5.9603
G1 X120.781 Y39.450 E6.3446
G1 X121.635 Y39.098 E6.4440
G1 X121.685 Y39.079 E6.4497
G1 X121.766 Y39.046 E6.4591
G1 X125.348 Y37.641 E6.8731
G1 X125.967 Y37.407 E6.9443
G1 X125.982 Y37.401 E6.9460
G1 X126.027 Y37.385 E6.9511
G1 X127.239 Y36.943 E7.0899
G1 X128.201 Y36.592 E7.2001
G1 X128.227 Y36.583 E7.2031
G1 X128.239 Y36.578 E7.2044
G1 X128.921 Y36.340 E7.2821
G1 X132.945 Y34.990 E7.7387
G1 X133.824 Y34.711 E7.8379
G1 X133.877 Y34.695 E7.8439
G1 X133.961 Y34.668 E7.8534
G1 X137.757 Y33.533 E8.2796
G1 X137.789 Y33.524 E8.2832
G1 X137.800 Y33.521 E8.2844
G1 X138.466 Y33.334 E8.3588
G1 X138.616 Y33.291 E8.3757
G1 X138.682 Y33.273 E8.3830
G1 X140.883 Y32.692 E8.6279
G1 X142.727 Y32.205 E8.8331
G1 X142.773 Y32.194 E8.8382
G1 X142.785 Y32.190 E8.8395
G1 X143.371 Y32.046 E8.9044
G1 X143.654 Y31.977 E8.9357
G1 X143.689 Y31.968 E8.9397
G1 X145.879 Y31.467 E9.1813
G1 X147.798 Y31.028 E9.3931
G1 X147.868 Y31.013 E9.4008
G1 X148.774 Y30.822 E9.5004
G1 X153.056 Y29.995 E9.9696
G1 X153.968 Y29.835 E10.0691
G1 X154.019 Y29.827 E10.0747
G1 X154.103 Y29.812 E10.0839
G1 X154.340 Y29.774 E10.1097
G1 X154.340 Y29.714 E10.1162
G1 X158.076 Y29.182 E10.5221
G1 X158.118 Y29.176 E10.5267
G1 X160.191 Y28.881 E10.7520
G1 X160.191 Y28.901 E10.7542
G1 X161.180 Y28.777 E10.8615
G1 X163.138 Y28.530 E11.0737
G1 X163.192 Y28.524 E11.0795
G1 X163.198 Y28.524 E11.0802
G1 X164.136 Y28.422 E11.1817
G1 X168.475 Y28.026 E11.6504
G1 X169.395 Y27.957 E11.7497
G1 X169.451 Y27.954 E11.7557
G1 X169.539 Y27.947 E11.7652
G1 X173.405 Y27.724 E12.1818
G1 X174.001 Y27.697 E12.2459
G1 X174.136 Y27.691 E12.2605
G1 X176.592 Y27.610 E12.5248
G1 X177.279 Y27.596 E12.5987
G1 X177.303 Y27.596 E12.6014
G1 X177.424 Y27.593 E12.6144
G1 X181.181 Y27.564 E13.0186
G1 X181.672 Y27.566 E13.0714
G1 X181.906 Y27.567 E13.0965
G1 X184.366 Y27.609 E13.3612
G1 X185.052 Y27.629 E13.4351
G1 X185.081 Y27.630 E13.4382
G1 X185.199 Y27.634 E13.4509
G1 X189.047 Y27.795 E13.8652
G1 X189.071 Y27.797 E13.8678
G1 X189.995 Y27.850 E13.9674
G1 X192.243 Y28.018 E14.2098
G1 X193.431 Y28.106 E14.3380
G1 X193.431 Y28.094 E14.3393
G1 X194.190 Y28.163 E14.4213
G1 X194.221 Y28.166 E14.4247
G1 X194.242 Y28.168 E14.4269
G1 X194.449 Y28.186 E14.4493
G1 X194.449 Y28.093 E14.4594
G1 X197.172 Y28.432 E14.7546
G1 X199.379 Y28.708 E14.9939
G1 X199.387 Y28.709 E14.9947
G1 X199.936 Y28.778 E15.0543
G1 X200.217 Y28.813 E15.0847
G1 X200.217 Y28.760 E15.0904
G1 X203.073 Y29.200 E15.4013
G1 X204.280 Y29.386 E15.5326
G1 X204.345 Y29.396 E15.5397
G1 X204.400 Y29.405 E15.5457
G1 X204.414 Y29.407 E15.5472
G1 X204.496 Y29.420 E15.5561
G1 X205.031 Y29.502 E15.6144
G1 X205.046 Y29.505 E15.6160
G1 X208.736 Y30.074 E16.0177
G1 X208.736 Y30.147 E16.0255
G1 X210.226 Y30.435 E16.1888
G1 X212.128 Y30.802 E16.3971
G1 X212.180 Y30.813 E16.4029
G1 X212.190 Y30.815 E16.4040
G1 X213.112 Y31.009 E16.5053
G1 X217.360 Y31.980 E16.9741
G1 X218.258 Y32.201 E17.0736
G1 X218.310 Y32.215 E17.0794
G1 X218.395 Y32.236 E17.0888
G1 X222.228 Y33.248 E17.5153
G1 X222.258 Y33.256 E17.5186
G1 X222.270 Y33.259 E17.5200
G1 X223.151 Y33.507 E17.6184
G1 X225.306 Y34.152 E17.8604
G1 X227.178 Y34.711 E18.0705
G1 X227.227 Y34.726 E18.0761
G1 X227.232 Y34.728 E18.0766
G1 X228.132 Y35.014 E18.1782
G1 X232.262 Y36.403 E18.6470
G1 X233.132 Y36.712 E18.7462
G1 X233.184 Y36.731 E18.7523
G1 X233.267 Y36.761 E18.7618
G1 X236.986 Y38.151 E19.1888
G1 X237.002 Y38.157 E19.1907
G1 X237.870 Y38.498 E19.2910
G1 X239.940 Y39.349 E19.5318
G1 X241.764 Y40.099 E19.7439
G1 X241.845 Y40.134 E19.7534
G1 X242.677 Y40.493 E19.8509
G1 X246.652 Y42.288 E20.3201
G1 X247.488 Y42.683 E20.4196
G1 X247.535 Y42.706 E20.4251
G1 X247.612 Y42.742 E20.4343
G1 X251.174 Y44.496 E20.8614
G1 X251.200 Y44.509 E20.8646
G1 X252.023 Y44.931 E20.9640
G1 X254.033 Y46.003 E21.2091
G1 X255.735 Y46.910 E21.4166
G1 X255.786 Y46.939 E21.4229
G1 X256.610 Y47.396 E21.5243
G1 X260.384 Y49.577 E21.9932
G1 X261.178 Y50.054 E22.0928
G1 X261.221 Y50.080 E22.0982
G1 X261.294 Y50.124 E22.1074
G1 X264.665 Y52.225 E22.5347
G1 X264.685 Y52.237 E22.5372
G1 X265.464 Y52.740 E22.6369
G1 X267.293 Y53.964 E22.8737
G1 X268.963 Y55.081 E23.0898
G1 X268.980 Y55.093 E23.0921
G1 X269.781 Y55.649 E23.1970
G1 X273.320 Y58.195 E23.6659
G1 X274.059 Y58.746 E23.7652
G1 X274.104 Y58.780 E23.7712
G1 X274.174 Y58.833 E23.7806
G1 X277.314 Y61.254 E24.2072
G1 X277.332 Y61.268 E24.2096
G1 X277.337 Y61.272 E24.2104
G1 X278.062 Y61.850 E24.3101
G1 X279.805 Y63.288 E24.5532
G1 X281.291 Y64.512 E24.7602
G1 X281.331 Y64.546 E24.7659
G1 X281.343 Y64.556 E24.7675
G1 X281.821 Y64.964 E24.8352
G1 X282.000 Y65.116 E24.8605
G1 X282.049 Y65.159 E24.8675
G1 X283.731 Y66.642 E25.1086
G1 X285.189 Y67.927 E25.3177
G1 X285.231 Y67.965 E25.3239
G1 X285.247 Y67.979 E25.3262
G1 X285.638 Y68.336 E25.3831
G1 X285.869 Y68.546 E25.4167
G1 X285.880 Y68.556 E25.4183
G1 X285.917 Y68.590 E25.4237
G1 X287.555 Y70.085 E25.6623
G1 X287.529 Y70.111 E25.6662
G1 X287.547 Y70.127 E25.6687
G1 X288.978 Y71.475 E25.8802
G1 X289.014 Y71.511 E25.8857
G1 X289.020 Y71.516 E25.8865
G1 X289.596 Y72.078 E25.9731
G1 X289.744 Y72.221 E25.9953
G1 X289.761 Y72.241 E25.9981
G1 X291.262 Y73.753 E26.2272
G1 X292.654 Y75.155 E26.4398
G1 X292.692 Y75.195 E26.4457
G1 X293.344 Y75.875 E26.5470
G1 X296.308 Y79.071 E27.0160
G1 X296.927 Y79.761 E27.1157
G1 X296.962 Y79.802 E27.1215
G1 X297.019 Y79.866 E27.1307
G1 X299.618 Y82.863 E27.5575
G1 X299.636 Y82.884 E27.5604
G1 X299.640 Y82.889 E27.5611
G1 X300.232 Y83.595 E27.6602
G1 X301.638 Y85.327 E27.9003
G1 X302.870 Y86.844 E28.1104
G1 X302.898 Y86.880 E28.1154
G1 X302.907 Y86.890 E28.1168
G1 X303.298 Y87.388 E28.1849
G1 X303.446 Y87.577 E28.2108
G1 X303.483 Y87.625 E28.2173
G1 X304.842 Y89.417 E28.4592
G1 X306.013 Y90.961 E28.6677
G1 X306.045 Y91.005 E28.6735
G1 X306.058 Y91.022 E28.6758
G1 X306.372 Y91.452 E28.7331
G1 X306.562 Y91.711 E28.7677
G1 X306.569 Y91.721 E28.7690
G1 X306.604 Y91.769 E28.7754
G1 X307.904 Y93.607 E29.0176
G1 X308.955 Y95.093 E29.2134
G1 X309.353 Y95.671 E29.2889
G1 X309.363 Y95.686 E29.2908
G1 X309.387 Y95.720 E29.2952
G1 X310.087 Y96.766 E29.4307
G1 X310.668 Y97.633 E29.5429
G1 X310.684 Y97.657 E29.5460
G1 X310.700 Y97.680 E29.5490
G1 X310.730 Y97.727 E29.5552
G1 X311.080 Y98.263 E29.6240
G1 X312.228 Y100.072 E29.8545
G1 X313.264 Y101.703 E30.0624
G1 X313.289 Y101.744 E30.0676
G1 X313.296 Y101.756 E30.0690
G1 X313.642 Y102.322 E30.1404
G1 X313.747 Y102.493 E30.1620
G1 X313.782 Y102.550 E30.1692
G1 X314.927 Y104.495 E30.4120
G1 X315.922 Y106.183 E30.6227
G1 X316.010 Y106.339 E30.6421
G1 X316.411 Y107.047 E30.7296
G1 X318.496 Y110.878 E31.1988
G1 X318.923 Y111.696 E31.2981
G1 X318.947 Y111.743 E31.3038
G1 X318.989 Y111.823 E31.3134
G1 X320.768 Y115.368 E31.7401
G1 X320.779 Y115.391 E31.7429
G1 X321.181 Y116.227 E31.8426
G1 X322.129 Y118.280 E32.0859
G1 X322.898 Y119.945 E32.2832
G1 X323.200 Y120.622 E32.3630
G1 X323.212 Y120.649 E32.3661
G1 X324.187 Y122.911 E32.6311
G1 X324.452 Y123.547 E32.7053
G1 X324.461 Y123.571 E32.7080
G1 X324.505 Y123.678 E32.7205
G1 X325.895 Y127.138 E33.1215
G1 X326.136 Y127.758 E33.1931
G1 X326.142 Y127.775 E33.1951
G1 X326.159 Y127.818 E33.2000
G1 X326.599 Y128.996 E33.3353
G1 X326.917 Y129.847 E33.4331
G1 X326.935 Y129.896 E33.4386
G1 X326.943 Y129.918 E33.4411
G1 X327.050 Y130.210 E33.4746
G1 X327.079 Y130.291 E33.4839
G1 X328.576 Y134.399 E33.9542
G1 X328.493 Y134.399 E33.9631
G1 X328.731 Y135.126 E34.0454
G1 X329.306 Y136.882 E34.2441
G1 X329.514 Y137.546 E34.3190
G1 X329.520 Y137.565 E34.3212
G1 X329.534 Y137.609 E34.3261
G1 X329.901 Y138.837 E34.4640
G1 X330.190 Y139.800 E34.5721
G1 X330.202 Y139.838 E34.5765
G1 X330.213 Y139.875 E34.5806
G1 X330.404 Y140.543 E34.6553
G1 X330.961 Y142.586 E34.8831
G1 X331.452 Y144.385 E35.0837
G1 X331.628 Y145.064 E35.1592
G1 X331.643 Y145.124 E35.1658
G1 X332.230 Y147.517 E35.4310
G1 X332.385 Y148.185 E35.5047
G1 X332.392 Y148.213 E35.5078
G1 X332.419 Y148.330 E35.5207
G1 X333.241 Y152.084 E35.9342
G1 X333.248 Y152.119 E35.9380
G1 X333.251 Y152.129 E35.9391
G1 X333.432 Y153.025 E36.0374
G1 X333.842 Y155.241 E36.2798
G1 X334.178 Y157.049 E36.4777
G1 X334.308 Y157.809 E36.5606
G1 X334.310 Y157.820 E36.5619
G1 X334.694 Y160.239 E36.8253
G1 X334.793 Y160.916 E36.8989
G1 X334.796 Y160.943 E36.9018
G1 X334.814 Y161.062 E36.9148
G1 X335.322 Y164.875 E37.3286
G1 X335.325 Y164.899 E37.3312
G1 X335.326 Y164.906 E37.3320
G1 X335.434 Y165.826 E37.4316
G1 X335.659 Y168.075 E37.6747
G1 X335.843 Y169.897 E37.8718
G1 X335.908 Y170.642 E37.9522
G1 X335.908 Y170.647 E37.9527
G1 X335.910 Y170.662 E37.9544
G1 X336.093 Y173.117 E38.2192
G1 X336.135 Y173.805 E38.2934
G1 X336.137 Y173.832 E38.2963
G1 X336.144 Y173.950 E38.3090
G1 X336.334 Y177.792 E38.7227
G1 X336.335 Y177.831 E38.7269
G1 X336.336 Y177.842 E38.7282
G1 X336.533 Y183.785 E39.3678
