; G-Code generated by Simplify3D(R) Version 4.1.2
; Mar 25, 2020 at 9:36:23 AM
; Settings Summary
;   processName,Process1
;   applyToModels,Jig,Tusk_Body
;   profileName,Creality Ender 5 (modified)
;   profileVersion,2019-04-06 08:00:00
;   baseProfile,
;   printMaterial,addNorth E-PLA
;   printQuality,Medium
;   printExtruders,
;   extruderName,Primary Extruder
;   extruderToolheadNumber,0
;   extruderDiameter,0.4
;   extruderAutoWidth,0
;   extruderWidth,0.4
;   extrusionMultiplier,1
;   extruderUseRetract,1
;   extruderRetractionDistance,5
;   extruderExtraRestartDistance,0
;   extruderRetractionZLift,0
;   extruderRetractionSpeed,2700
;   extruderUseCoasting,0
;   extruderCoastingDistance,0
;   extruderUseWipe,0
;   extruderWipeDistance,2
;   primaryExtruder,0
;   layerHeight,0.2
;   topSolidLayers,4
;   bottomSolidLayers,4
;   perimeterOutlines,3
;   printPerimetersInsideOut,1
;   startPointOption,3
;   startPointOriginX,0
;   startPointOriginY,0
;   sequentialIslands,0
;   spiralVaseMode,0
;   firstLayerHeightPercentage,100
;   firstLayerWidthPercentage,100
;   firstLayerUnderspeed,0.4
;   useRaft,0
;   raftExtruder,0
;   raftTopLayers,3
;   raftBaseLayers,2
;   raftOffset,3
;   raftSeparationDistance,0.14
;   raftTopInfill,100
;   aboveRaftSpeedMultiplier,0.3
;   useSkirt,1
;   skirtExtruder,0
;   skirtLayers,2
;   skirtOutlines,6
;   skirtOffset,50
;   usePrimePillar,0
;   primePillarExtruder,999
;   primePillarWidth,12
;   primePillarLocation,7
;   primePillarSpeedMultiplier,1.25
;   useOozeShield,0
;   oozeShieldExtruder,999
;   oozeShieldOffset,2
;   oozeShieldOutlines,1
;   oozeShieldSidewallShape,1
;   oozeShieldSidewallAngle,30
;   oozeShieldSpeedMultiplier,1
;   infillExtruder,0
;   internalInfillPattern,Triangular
;   externalInfillPattern,Rectilinear
;   infillPercentage,50
;   outlineOverlapPercentage,15
;   infillExtrusionWidthPercentage,100
;   minInfillLength,2
;   infillLayerInterval,1
;   internalInfillAngles,0,60,-60
;   overlapInternalInfillAngles,1
;   externalInfillAngles,45,-45
;   generateSupport,0
;   supportExtruder,0
;   supportInfillPercentage,30
;   supportExtraInflation,0
;   supportBaseLayers,0
;   denseSupportExtruder,0
;   denseSupportLayers,0
;   denseSupportInfillPercentage,70
;   supportLayerInterval,1
;   supportHorizontalPartOffset,0.3
;   supportUpperSeparationLayers,1
;   supportLowerSeparationLayers,1
;   supportType,0
;   supportGridSpacing,4
;   maxOverhangAngle,45
;   supportAngles,0
;   temperatureName,Primary Extruder,Heated Bed
;   temperatureNumber,0,0
;   temperatureSetpointCount,1,1
;   temperatureSetpointLayers,1,1
;   temperatureSetpointTemperatures,200,60
;   temperatureStabilizeAtStartup,1,1
;   temperatureHeatedBed,0,1
;   fanLayers,1,2
;   fanSpeeds,0,70
;   blipFanToFullPower,1
;   adjustSpeedForCooling,1
;   minSpeedLayerTime,10
;   minCoolingSpeedSlowdown,20
;   increaseFanForCooling,1
;   minFanLayerTime,45
;   maxCoolingFanSpeed,100
;   increaseFanForBridging,1
;   bridgingFanSpeed,100
;   use5D,1
;   relativeEdistances,0
;   allowEaxisZeroing,1
;   independentExtruderAxes,0
;   includeM10123,0
;   stickySupport,1
;   applyToolheadOffsets,0
;   gcodeXoffset,0
;   gcodeYoffset,0
;   gcodeZoffset,0
;   overrideMachineDefinition,1
;   machineTypeOverride,0
;   strokeXoverride,361
;   strokeYoverride,367
;   strokeZoverride,400
;   originOffsetXoverride,0
;   originOffsetYoverride,0
;   originOffsetZoverride,0
;   homeXdirOverride,1
;   homeYdirOverride,1
;   homeZdirOverride,-1
;   flipXoverride,1
;   flipYoverride,-1
;   flipZoverride,1
;   toolheadOffsets,0,0|0,0|0,0|0,0|0,0|0,0
;   overrideFirmwareConfiguration,1
;   firmwareTypeOverride,RepRap (Marlin/Repetier/Sprinter)
;   GPXconfigOverride,r2
;   baudRateOverride,115200
;   overridePrinterModels,1
;   printerModelsOverride
;   startingGcode,G32 ; home and level bed by screws,
;   layerChangeGcode,
;   retractionGcode,
;   toolChangeGcode,
;   endingGcode,G91,G1 X999 Y999 Z50 H1 F1500,G1 X-15 Y-15 F9999,G1 E7 F300,G1 E3 F1000,G1 E-20 F1000,G90,M106 S0 ; turn off cooling fan,M104 S0 ; turn off extruder,M140 S0 ; turn off bed,M84 ; disable motors
;   exportFileFormat,gcode
;   celebration,0
;   celebrationSong,Random Song
;   postProcessing,
;   defaultSpeed,3000
;   outlineUnderspeed,0.5
;   solidInfillUnderspeed,0.8
;   supportUnderspeed,0.8
;   rapidXYspeed,6000
;   rapidZspeed,1002
;   minBridgingArea,50
;   bridgingExtraInflation,0
;   bridgingExtrusionMultiplier,1
;   bridgingSpeedMultiplier,1
;   useFixedBridgingAngle,0
;   fixedBridgingAngle,0
;   applyBridgingToPerimeters,0
;   filamentDiameters,1.75|1.75|1.75|1.75|1.75|1.75
;   filamentPricesPerKg,46|46|46|46|46|46
;   filamentDensities,1.25|1.25|1.25|1.25|1.25|1.25
;   useMinPrintHeight,0
;   minPrintHeight,0
;   useMaxPrintHeight,0
;   maxPrintHeight,0
;   useDiaphragm,0
;   diaphragmLayerInterval,20
;   robustSlicing,1
;   mergeAllIntoSolid,0
;   onlyRetractWhenCrossingOutline,1
;   retractBetweenLayers,0
;   useRetractionMinTravel,1
;   retractionMinTravel,1.5
;   retractWhileWiping,0
;   onlyWipeOutlines,1
;   avoidCrossingOutline,1
;   maxMovementDetourFactor,10
;   toolChangeRetractionDistance,12
;   toolChangeExtraRestartDistance,-0.5
;   toolChangeRetractionSpeed,600
;   externalThinWallType,1
;   internalThinWallType,1
;   thinWallAllowedOverlapPercentage,10
;   singleExtrusionMinLength,1
;   singleExtrusionMinPrintingWidthPercentage,50
;   singleExtrusionMaxPrintingWidthPercentage,200
;   singleExtrusionEndpointExtension,0.2
;   horizontalSizeCompensation,0
G90
M82
M106 S0
M140 S60
M190 S60
M104 S200 T0
M109 S200 T0
G32 ; home and level bed by screws
; process Process1
; layer 1, Z = 0.200
T0
G92 E0.0000
G1 E-5.0000 F2700
; feature skirt
; tool H0.200 W0.400
G1 Z0.200 F1002
G1 X112.300 Y142.747 F6000
G1 E0.0000 F2700
G92 E0.0000
G1 X142.846 Y112.175 E1.4374 F1200
G1 X159.368 Y112.160 E1.9869
G1 X161.878 Y109.650 E2.1050
G1 X204.883 Y109.650 E3.5354
G1 X224.069 Y117.597 E4.2261
G1 X240.753 Y134.281 E5.0108
G1 X248.700 Y153.467 E5.7015
G1 X248.700 Y184.233 E6.7248
G1 X240.753 Y203.419 E7.4155
G1 X226.070 Y218.102 E8.1061
G1 X223.979 Y224.211 E8.3209
G1 X220.138 Y231.470 E8.5941
G1 X214.740 Y238.663 E8.8932
G1 X208.475 Y244.636 E9.1811
G1 X201.607 Y249.295 E9.4571
G1 X194.705 Y252.625 E9.7120
G1 X188.826 Y254.463 E9.9169
G1 X185.562 Y255.257 E10.0286
G1 X181.366 Y255.996 E10.1703
G1 X176.828 Y256.393 E10.3218
G1 X142.875 Y256.390 E11.4511
G1 X112.300 Y225.812 E12.8893
G1 X112.300 Y142.747 E15.6521
G1 X112.700 Y142.913 F6000
G92 E0.0000
G1 X143.012 Y112.575 E1.4264 F1200
G1 X159.534 Y112.560 E1.9759
G1 X162.044 Y110.050 E2.0940
G1 X204.804 Y110.050 E3.5162
G1 X223.842 Y117.936 E4.2016
G1 X240.414 Y134.508 E4.9811
G1 X248.300 Y153.546 E5.6665
G1 X248.300 Y184.154 E6.6845
G1 X240.414 Y203.192 E7.3699
G1 X225.722 Y217.884 E8.0609
G1 X223.611 Y224.052 E8.2777
G1 X219.799 Y231.255 E8.5488
G1 X214.440 Y238.396 E8.8458
G1 X208.223 Y244.323 E9.1315
G1 X201.407 Y248.947 E9.4054
G1 X194.558 Y252.252 E9.6584
G1 X188.719 Y254.078 E9.8618
G1 X185.480 Y254.866 E9.9727
G1 X181.314 Y255.600 E10.1134
G1 X176.811 Y255.993 E10.2637
G1 X143.040 Y255.990 E11.3869
G1 X112.700 Y225.647 E12.8141
G1 X112.700 Y142.913 E15.5659
G1 X113.100 Y143.078 F6000
G92 E0.0000
G1 X143.178 Y112.974 E1.4154 F1200
G1 X159.699 Y112.960 E1.9649
G1 X162.209 Y110.450 E2.0830
G1 X204.724 Y110.450 E3.4970
G1 X223.616 Y118.275 E4.1771
G1 X240.075 Y134.734 E4.9513
G1 X247.900 Y153.626 E5.6314
G1 X247.900 Y184.074 E6.6441
G1 X240.075 Y202.966 E7.3242
G1 X225.373 Y217.667 E8.0157
G1 X223.243 Y223.892 E8.2346
G1 X219.460 Y231.040 E8.5035
G1 X214.140 Y238.129 E8.7984
G1 X207.971 Y244.011 E9.0818
G1 X201.207 Y248.600 E9.3537
G1 X194.410 Y251.879 E9.6047
G1 X188.612 Y253.692 E9.8068
G1 X185.398 Y254.474 E9.9168
G1 X181.262 Y255.203 E10.0565
G1 X176.793 Y255.593 E10.2057
G1 X143.206 Y255.590 E11.3228
G1 X113.100 Y225.481 E12.7389
G1 X113.100 Y143.078 E15.4796
G1 X113.500 Y143.244 F6000
G92 E0.0000
G1 X143.344 Y113.374 E1.4044 F1200
G1 X159.865 Y113.360 E1.9539
G1 X162.375 Y110.850 E2.0719
G1 X204.645 Y110.850 E3.4778
G1 X223.389 Y118.614 E4.1526
G1 X239.736 Y134.961 E4.9215
G1 X247.500 Y153.705 E5.5963
G1 X247.500 Y183.995 E6.6038
G1 X239.736 Y202.739 E7.2786
G1 X225.025 Y217.450 E7.9705
G1 X222.874 Y223.733 E8.1914
G1 X219.121 Y230.825 E8.4583
G1 X213.840 Y237.863 E8.7509
G1 X207.719 Y243.699 E9.0322
G1 X201.007 Y248.252 E9.3020
G1 X194.263 Y251.506 E9.5511
G1 X188.505 Y253.307 E9.7517
G1 X185.316 Y254.082 E9.8609
G1 X181.210 Y254.806 E9.9995
G1 X176.776 Y255.193 E10.1476
G1 X143.372 Y255.190 E11.2586
G1 X113.500 Y225.315 E12.6637
G1 X113.500 Y143.244 E15.3934
G1 X113.900 Y143.410 F6000
G92 E0.0000
G1 X143.510 Y113.774 E1.3934 F1200
G1 X160.031 Y113.760 E1.9429
G1 X162.541 Y111.250 E2.0609
G1 X204.565 Y111.250 E3.4586
G1 X223.163 Y118.953 E4.1282
G1 X239.397 Y135.187 E4.8918
G1 X247.100 Y153.785 E5.5613
G1 X247.100 Y183.915 E6.5634
G1 X239.397 Y202.513 E7.2329
G1 X224.677 Y217.233 E7.9253
G1 X222.506 Y223.574 E8.1482
G1 X218.782 Y230.610 E8.4130
G1 X213.540 Y237.596 E8.7035
G1 X207.467 Y243.386 E8.9826
G1 X200.806 Y247.905 E9.2503
G1 X194.115 Y251.133 E9.4974
G1 X188.398 Y252.921 E9.6967
G1 X185.234 Y253.691 E9.8049
G1 X181.158 Y254.409 E9.9426
G1 X176.758 Y254.793 E10.0895
G1 X143.537 Y254.790 E11.1944
G1 X113.900 Y225.150 E12.5885
G1 X113.900 Y143.410 E15.3072
G1 X114.300 Y143.575 F6000
G92 E0.0000
G1 X143.676 Y114.174 E1.3823 F1200
G1 X160.197 Y114.160 E1.9318
G1 X162.706 Y111.650 E2.0499
G1 X204.485 Y111.650 E3.4395
G1 X222.936 Y119.292 E4.1037
G1 X239.058 Y135.414 E4.8620
G1 X246.700 Y153.865 E5.5262
G1 X246.700 Y183.835 E6.5231
G1 X239.058 Y202.286 E7.1873
G1 X224.328 Y217.015 E7.8801
G1 X222.138 Y223.415 E8.1051
G1 X218.443 Y230.395 E8.3678
G1 X213.240 Y237.329 E8.6561
G1 X207.215 Y243.074 E8.9330
G1 X200.606 Y247.557 E9.1986
G1 X193.968 Y250.760 E9.4437
G1 X188.291 Y252.535 E9.6416
G1 X185.152 Y253.299 E9.7490
G1 X181.105 Y254.012 E9.8857
G1 X176.741 Y254.393 E10.0314
G1 X143.703 Y254.390 E11.1302
G1 X114.300 Y224.984 E12.5133
G1 X114.300 Y143.575 E15.2210
G92 E0.0000
G1 E-5.0000 F2700
; feature inner perimeter
G1 X164.700 Y165.209 F6000
G1 X164.700 Y165.658
G1 X165.500 Y166.009
G1 E0.0000 F2700
G92 E0.0000
G1 X174.342 Y166.009 E0.2941 F900
G1 X174.354 Y169.627 E0.4144
G1 X174.305 Y178.281 E0.7022
G1 X174.305 Y190.719 E1.1159
G1 X174.354 Y199.373 E1.4038
G1 X174.342 Y202.745 E1.5159
G1 X165.500 Y202.745 E1.8100
G1 X165.500 Y166.009 E3.0319
G1 X165.100 Y165.609 F6000
G92 E0.0000
G1 X174.453 Y165.609 E0.3111 F900
G1 X174.707 Y165.750 E0.3208
G1 X174.741 Y165.913 E0.3263
G1 X174.754 Y169.627 E0.4498
G1 X174.705 Y178.282 E0.7377
G1 X174.705 Y190.718 E1.1513
G1 X174.754 Y199.373 E1.4392
G1 X174.741 Y203.013 E1.5603
G1 X174.600 Y203.109 E1.5659
G1 X174.498 Y203.145 E1.5695
G1 X165.100 Y203.145 E1.8821
G1 X165.100 Y165.609 E3.1306
; feature outer perimeter
G1 X164.700 Y165.209 F6000
G92 E0.0000
G1 X174.495 Y165.209 E0.3258 F600
G1 X174.564 Y165.212 E0.3281
G1 X175.061 Y165.490 E0.3470
G1 X175.141 Y165.871 E0.3600
G1 X175.154 Y169.627 E0.4849
G1 X175.105 Y178.283 E0.7728
G1 X175.105 Y190.717 E1.1863
G1 X175.154 Y199.373 E1.4743
G1 X175.141 Y203.168 E1.6005
G1 X175.064 Y203.277 E1.6049
G1 X174.781 Y203.469 E1.6163
G1 X174.567 Y203.545 E1.6239
G1 X164.700 Y203.545 E1.9520
G1 X164.700 Y165.209 E3.2271
; feature solid layer
G1 X173.531 Y166.349 F6000
G92 E0.0000
G1 X174.004 Y166.822 E0.0222 F960
G1 X174.006 Y167.389 E0.0411
G1 X172.966 Y166.349 E0.0901
G1 X172.400 Y166.349 E0.1089
G1 X174.008 Y167.957 E0.1845
G1 X174.010 Y168.525 E0.2034
G1 X171.834 Y166.349 E0.3057
G1 X171.269 Y166.349 E0.3245
G1 X174.012 Y169.092 E0.4536
G1 X174.014 Y169.624 E0.4713
G1 X174.013 Y169.659 E0.4724
G1 X170.703 Y166.349 E0.6281
G1 X170.137 Y166.349 E0.6470
G1 X174.010 Y170.222 E0.8291
G1 X174.007 Y170.784 E0.8478
G1 X169.572 Y166.349 E1.0565
G1 X169.006 Y166.349 E1.0753
G1 X174.004 Y171.347 E1.3104
G1 X174.001 Y171.909 E1.3291
G1 X168.440 Y166.349 E1.5906
G1 X167.874 Y166.349 E1.6094
G1 X173.997 Y172.472 E1.8974
G1 X173.994 Y173.034 E1.9162
G1 X167.309 Y166.349 E2.2306
G1 X166.743 Y166.349 E2.2494
G1 X173.991 Y173.597 E2.5904
G1 X173.988 Y174.159 E2.6091
G1 X166.177 Y166.349 E2.9764
G1 X165.840 Y166.349 E2.9877
G1 X165.840 Y166.577 E2.9953
G1 X173.985 Y174.722 E3.3784
G1 X173.981 Y175.284 E3.3971
G1 X165.840 Y167.143 E3.7800
G1 X165.840 Y167.709 E3.7988
G1 X173.978 Y175.847 E4.1816
G1 X173.975 Y176.409 E4.2003
G1 X165.840 Y168.274 E4.5830
G1 X165.840 Y168.840 E4.6018
G1 X173.972 Y176.972 E4.9843
G1 X173.969 Y177.534 E5.0030
G1 X165.840 Y169.406 E5.3854
G1 X165.840 Y169.971 E5.4042
G1 X173.966 Y178.097 E5.7864
G1 X173.965 Y178.280 E5.7925
G1 X173.965 Y178.662 E5.8052
G1 X165.840 Y170.537 E6.1873
G1 X165.840 Y171.103 E6.2061
G1 X173.965 Y179.227 E6.5883
G1 X173.965 Y179.793 E6.6071
G1 X165.840 Y171.668 E6.9892
G1 X165.840 Y172.234 E7.0081
G1 X173.965 Y180.359 E7.3902
G1 X173.965 Y180.924 E7.4090
G1 X165.840 Y172.800 E7.7912
G1 X165.840 Y173.365 E7.8100
G1 X173.965 Y181.490 E8.1922
G1 X173.965 Y182.056 E8.2110
G1 X165.840 Y173.931 E8.5931
G1 X165.840 Y174.497 E8.6119
G1 X173.965 Y182.621 E8.9941
G1 X173.965 Y183.187 E9.0129
G1 X165.840 Y175.063 E9.3951
G1 X165.840 Y175.628 E9.4139
G1 X173.965 Y183.753 E9.7960
G1 X173.965 Y184.318 E9.8148
G1 X165.840 Y176.194 E10.1970
G1 X165.840 Y176.760 E10.2158
G1 X173.965 Y184.884 E10.5980
G1 X173.965 Y185.450 E10.6168
G1 X165.840 Y177.325 E10.9989
G1 X165.840 Y177.891 E11.0177
G1 X173.965 Y186.015 E11.3999
G1 X173.965 Y186.581 E11.4187
G1 X165.840 Y178.457 E11.8009
G1 X165.840 Y179.022 E11.8197
G1 X173.965 Y187.147 E12.2018
G1 X173.965 Y187.713 E12.2206
G1 X165.840 Y179.588 E12.6028
G1 X165.840 Y180.154 E12.6216
G1 X173.965 Y188.278 E13.0038
G1 X173.965 Y188.844 E13.0226
G1 X165.840 Y180.719 E13.4047
G1 X165.840 Y181.285 E13.4235
G1 X173.965 Y189.410 E13.8057
G1 X173.965 Y189.975 E13.8245
G1 X165.840 Y181.851 E14.2067
G1 X165.840 Y182.416 E14.2255
G1 X173.965 Y190.541 E14.6076
G1 X173.965 Y190.720 E14.6136
G1 X173.967 Y191.109 E14.6265
G1 X165.840 Y182.982 E15.0088
G1 X165.840 Y183.548 E15.0276
G1 X173.970 Y191.678 E15.4100
G1 X173.973 Y192.247 E15.4289
G1 X165.840 Y184.113 E15.8115
G1 X165.840 Y184.679 E15.8303
G1 X173.976 Y192.816 E16.2130
G1 X173.980 Y193.384 E16.2319
G1 X165.840 Y185.245 E16.6148
G1 X165.840 Y185.811 E16.6336
G1 X173.983 Y193.953 E17.0166
G1 X173.986 Y194.522 E17.0355
G1 X165.840 Y186.376 E17.4187
G1 X165.840 Y186.942 E17.4375
G1 X173.989 Y195.091 E17.8208
G1 X173.992 Y195.660 E17.8398
G1 X165.840 Y187.508 E18.2232
G1 X165.840 Y188.073 E18.2420
G1 X173.996 Y196.229 E18.6257
G1 X173.999 Y196.798 E18.6446
G1 X165.840 Y188.639 E19.0284
G1 X165.840 Y189.205 E19.0472
G1 X174.002 Y197.367 E19.4311
G1 X174.005 Y197.936 E19.4500
G1 X165.840 Y189.770 E19.8341
G1 X165.840 Y190.336 E19.8529
G1 X174.009 Y198.505 E20.2371
G1 X174.012 Y199.074 E20.2561
G1 X165.840 Y190.902 E20.6404
G1 X165.840 Y191.467 E20.6592
G1 X174.013 Y199.640 E21.0437
G1 X174.011 Y200.204 E21.0624
G1 X165.840 Y192.033 E21.4467
G1 X165.840 Y192.599 E21.4656
G1 X174.009 Y200.768 E21.8498
G1 X174.007 Y201.331 E21.8685
G1 X165.840 Y193.164 E22.2527
G1 X165.840 Y193.730 E22.2715
G1 X174.005 Y201.895 E22.6556
G1 X174.003 Y202.405 E22.6725
G1 X173.949 Y202.405 E22.6743
G1 X165.840 Y194.296 E23.0558
G1 X165.840 Y194.862 E23.0746
G1 X173.384 Y202.405 E23.4294
G1 X172.818 Y202.405 E23.4482
G1 X165.840 Y195.427 E23.7764
G1 X165.840 Y195.993 E23.7953
G1 X172.252 Y202.405 E24.0969
G1 X171.686 Y202.405 E24.1157
G1 X165.840 Y196.559 E24.3907
G1 X165.840 Y197.124 E24.4095
G1 X171.121 Y202.405 E24.6579
G1 X170.555 Y202.405 E24.6767
G1 X165.840 Y197.690 E24.8985
G1 X165.840 Y198.256 E24.9173
G1 X169.989 Y202.405 E25.1124
G1 X169.423 Y202.405 E25.1313
G1 X165.840 Y198.821 E25.2998
G1 X165.840 Y199.387 E25.3186
G1 X168.858 Y202.405 E25.4606
G1 X168.292 Y202.405 E25.4794
G1 X165.840 Y199.953 E25.5947
G1 X165.840 Y200.518 E25.6135
G1 X167.726 Y202.405 E25.7023
G1 X167.161 Y202.405 E25.7211
