; G-Code generated by Simplify3D(R) Version 4.1.2
; Mar 25, 2020 at 11:30:31 PM
; Settings Summary
;   processName,Process1
;   applyToModels,TuskFan
;   profileName,Creality Ender 5 (modified)
;   profileVersion,2019-04-06 08:00:00
;   baseProfile,
;   printMaterial,addNorth E-PLA
;   printQuality,High
;   printExtruders,
;   extruderName,Primary Extruder
;   extruderToolheadNumber,0
;   extruderDiameter,0.4
;   extruderAutoWidth,0
;   extruderWidth,0.4
;   extrusionMultiplier,0.92
;   extruderUseRetract,1
;   extruderRetractionDistance,5
;   extruderExtraRestartDistance,0
;   extruderRetractionZLift,0
;   extruderRetractionSpeed,2700
;   extruderUseCoasting,0
;   extruderCoastingDistance,0
;   extruderUseWipe,0
;   extruderWipeDistance,2
;   primaryExtruder,0
;   layerHeight,0.1
;   topSolidLayers,8
;   bottomSolidLayers,8
;   perimeterOutlines,4
;   printPerimetersInsideOut,1
;   startPointOption,3
;   startPointOriginX,0
;   startPointOriginY,0
;   sequentialIslands,0
;   spiralVaseMode,0
;   firstLayerHeightPercentage,300
;   firstLayerWidthPercentage,120
;   firstLayerUnderspeed,0.2
;   useRaft,0
;   raftExtruder,0
;   raftTopLayers,3
;   raftBaseLayers,2
;   raftOffset,3
;   raftSeparationDistance,0.14
;   raftTopInfill,100
;   aboveRaftSpeedMultiplier,0.3
;   useSkirt,1
;   skirtExtruder,0
;   skirtLayers,2
;   skirtOutlines,6
;   skirtOffset,50
;   usePrimePillar,0
;   primePillarExtruder,999
;   primePillarWidth,12
;   primePillarLocation,7
;   primePillarSpeedMultiplier,1.25
;   useOozeShield,0
;   oozeShieldExtruder,999
;   oozeShieldOffset,2
;   oozeShieldOutlines,1
;   oozeShieldSidewallShape,1
;   oozeShieldSidewallAngle,30
;   oozeShieldSpeedMultiplier,1
;   infillExtruder,0
;   internalInfillPattern,Triangular
;   externalInfillPattern,Rectilinear
;   infillPercentage,51
;   outlineOverlapPercentage,15
;   infillExtrusionWidthPercentage,100
;   minInfillLength,2
;   infillLayerInterval,1
;   internalInfillAngles,0,60,-60
;   overlapInternalInfillAngles,1
;   externalInfillAngles,45,-45
;   generateSupport,0
;   supportExtruder,0
;   supportInfillPercentage,40
;   supportExtraInflation,0
;   supportBaseLayers,0
;   denseSupportExtruder,0
;   denseSupportLayers,0
;   denseSupportInfillPercentage,70
;   supportLayerInterval,1
;   supportHorizontalPartOffset,0.3
;   supportUpperSeparationLayers,1
;   supportLowerSeparationLayers,1
;   supportType,0
;   supportGridSpacing,4
;   maxOverhangAngle,45
;   supportAngles,0
;   temperatureName,Primary Extruder,Heated Bed
;   temperatureNumber,0,0
;   temperatureSetpointCount,1,1
;   temperatureSetpointLayers,1,1
;   temperatureSetpointTemperatures,215,60
;   temperatureStabilizeAtStartup,1,1
;   temperatureHeatedBed,0,1
;   fanLayers,1,3
;   fanSpeeds,0,100
;   blipFanToFullPower,1
;   adjustSpeedForCooling,1
;   minSpeedLayerTime,10
;   minCoolingSpeedSlowdown,20
;   increaseFanForCooling,1
;   minFanLayerTime,45
;   maxCoolingFanSpeed,100
;   increaseFanForBridging,1
;   bridgingFanSpeed,100
;   use5D,1
;   relativeEdistances,0
;   allowEaxisZeroing,1
;   independentExtruderAxes,0
;   includeM10123,0
;   stickySupport,1
;   applyToolheadOffsets,0
;   gcodeXoffset,0
;   gcodeYoffset,0
;   gcodeZoffset,0
;   overrideMachineDefinition,1
;   machineTypeOverride,0
;   strokeXoverride,361
;   strokeYoverride,367
;   strokeZoverride,400
;   originOffsetXoverride,0
;   originOffsetYoverride,0
;   originOffsetZoverride,0
;   homeXdirOverride,1
;   homeYdirOverride,1
;   homeZdirOverride,-1
;   flipXoverride,1
;   flipYoverride,-1
;   flipZoverride,1
;   toolheadOffsets,0,0|0,0|0,0|0,0|0,0|0,0
;   overrideFirmwareConfiguration,1
;   firmwareTypeOverride,RepRap (Marlin/Repetier/Sprinter)
;   GPXconfigOverride,r2
;   baudRateOverride,115200
;   overridePrinterModels,1
;   printerModelsOverride
;   startingGcode,G32 ; home and level bed by screws,
;   layerChangeGcode,
;   retractionGcode,
;   toolChangeGcode,
;   endingGcode,G91,G1 X999 Y999 Z50 H1 F1500,G1 X-15 Y-15 F9999,G1 E7 F300,G1 E3 F1000,G1 E-20 F1000,G90,M106 S0 ; turn off cooling fan,M104 S0 ; turn off extruder,M140 S0 ; turn off bed,M84 ; disable motors
;   exportFileFormat,gcode
;   celebration,0
;   celebrationSong,Random Song
;   postProcessing,
;   defaultSpeed,3000
;   outlineUnderspeed,0.5
;   solidInfillUnderspeed,0.8
;   supportUnderspeed,0.8
;   rapidXYspeed,6000
;   rapidZspeed,1002
;   minBridgingArea,50
;   bridgingExtraInflation,0
;   bridgingExtrusionMultiplier,1
;   bridgingSpeedMultiplier,1
;   useFixedBridgingAngle,0
;   fixedBridgingAngle,0
;   applyBridgingToPerimeters,0
;   filamentDiameters,1.75|1.75|1.75|1.75|1.75|1.75
;   filamentPricesPerKg,46|46|46|46|46|46
;   filamentDensities,1.25|1.25|1.25|1.25|1.25|1.25
;   useMinPrintHeight,0
;   minPrintHeight,0
;   useMaxPrintHeight,0
;   maxPrintHeight,0
;   useDiaphragm,0
;   diaphragmLayerInterval,20
;   robustSlicing,1
;   mergeAllIntoSolid,0
;   onlyRetractWhenCrossingOutline,1
;   retractBetweenLayers,0
;   useRetractionMinTravel,1
;   retractionMinTravel,1.5
;   retractWhileWiping,0
;   onlyWipeOutlines,1
;   avoidCrossingOutline,1
;   maxMovementDetourFactor,10
;   toolChangeRetractionDistance,12
;   toolChangeExtraRestartDistance,-0.5
;   toolChangeRetractionSpeed,600
;   externalThinWallType,1
;   internalThinWallType,1
;   thinWallAllowedOverlapPercentage,10
;   singleExtrusionMinLength,1
;   singleExtrusionMinPrintingWidthPercentage,50
;   singleExtrusionMaxPrintingWidthPercentage,200
;   singleExtrusionEndpointExtension,0.2
;   horizontalSizeCompensation,0
G90
M82
M106 S0
M140 S60
M190 S60
M104 S215 T0
M109 S215 T0
G32 ; home and level bed by screws
; process Process1
; layer 1, Z = 0.300
T0
G92 E0.0000
G1 E-5.0000 F2700
; feature skirt
; tool H0.300 W0.480
G1 Z0.300 F1002
G1 X136.741 Y123.642 F6000
G1 E0.0000 F2700
G92 E0.0000
G1 X140.161 Y120.432 E0.2583 F600
G1 X143.724 Y117.623 E0.5082
G1 X147.926 Y114.861 E0.7852
G1 X152.255 Y112.561 E1.0552
G1 X157.399 Y110.414 E1.3622
G1 X162.780 Y108.816 E1.6714
G1 X168.235 Y107.810 E1.9769
G1 X173.033 Y107.373 E2.2423
G1 X188.116 Y107.384 E3.0730
G1 X193.980 Y108.047 E3.3981
G1 X199.993 Y109.421 E3.7378
G1 X205.287 Y111.239 E4.0461
G1 X210.753 Y113.794 E4.3784
G1 X215.932 Y116.987 E4.7135
G1 X221.907 Y121.701 E5.1327
G1 X227.592 Y127.883 E5.5953
G1 X231.940 Y134.457 E6.0294
G1 X234.870 Y140.387 E6.3937
G1 X236.989 Y146.504 E6.7503
G1 X238.272 Y152.149 E7.0691
G1 X238.819 Y156.941 E7.3348
G1 X238.989 Y159.930 E7.4997
G1 X238.989 Y207.589 E10.1247
G1 X238.697 Y211.496 E10.3405
G1 X237.903 Y216.796 E10.6356
G1 X236.411 Y222.422 E10.9562
G1 X234.426 Y227.542 E11.2587
G1 X232.306 Y231.819 E11.5216
G1 X229.585 Y236.247 E11.8079
G1 X226.520 Y240.300 E12.0877
G1 X222.521 Y244.647 E12.4131
G1 X217.687 Y248.771 E12.7631
G1 X211.207 Y253.071 E13.1914
G1 X203.511 Y256.559 E13.6568
G1 X195.605 Y258.709 E14.1080
G1 X188.698 Y259.635 E14.4919
G1 X151.736 Y259.674 E16.5277
G1 X120.861 Y228.831 E18.9314
G1 X120.861 Y161.542 E22.6376
G1 X120.989 Y158.948 E22.7807
G1 X121.412 Y154.675 E23.0172
G1 X122.217 Y150.318 E23.2612
G1 X123.377 Y146.073 E23.5036
G1 X124.476 Y142.878 E23.6897
G1 X125.916 Y139.426 E23.8957
G1 X127.393 Y136.434 E24.0795
G1 X129.334 Y133.058 E24.2940
G1 X131.377 Y130.017 E24.4958
G1 X133.973 Y126.679 E24.7287
G1 X136.741 Y123.642 E24.9550
G1 X137.083 Y123.979 F6000
G92 E0.0000
G1 X140.474 Y120.796 E0.2562 F600
G1 X144.005 Y118.012 E0.5038
G1 X148.171 Y115.275 E0.7784
G1 X152.461 Y112.995 E1.0459
G1 X157.560 Y110.867 E1.3503
G1 X162.892 Y109.283 E1.6566
G1 X168.300 Y108.286 E1.9595
G1 X173.055 Y107.853 E2.2225
G1 X188.089 Y107.864 E3.0506
G1 X193.900 Y108.521 E3.3726
G1 X199.862 Y109.883 E3.7095
G1 X205.106 Y111.685 E4.0149
G1 X210.525 Y114.217 E4.3443
G1 X215.657 Y117.381 E4.6764
G1 X221.580 Y122.055 E5.0920
G1 X227.213 Y128.180 E5.5503
G1 X231.523 Y134.696 E5.9807
G1 X234.426 Y140.572 E6.3416
G1 X236.526 Y146.637 E6.6951
G1 X237.798 Y152.229 E7.0110
G1 X238.341 Y156.982 E7.2745
G1 X238.509 Y159.944 E7.4379
G1 X238.509 Y207.571 E10.0612
G1 X238.220 Y211.443 E10.2750
G1 X237.432 Y216.698 E10.5677
G1 X235.954 Y222.273 E10.8853
G1 X233.987 Y227.349 E11.1852
G1 X231.885 Y231.587 E11.4457
G1 X229.188 Y235.976 E11.7295
G1 X226.152 Y239.992 E12.0068
G1 X222.187 Y244.300 E12.3292
G1 X217.397 Y248.387 E12.6760
G1 X210.974 Y252.649 E13.1006
G1 X203.348 Y256.106 E13.5618
G1 X195.510 Y258.237 E14.0092
G1 X188.666 Y259.155 E14.3895
G1 X151.934 Y259.194 E16.4127
G1 X121.341 Y228.632 E18.7944
G1 X121.341 Y161.554 E22.4890
G1 X121.468 Y158.984 E22.6308
G1 X121.887 Y154.743 E22.8655
G1 X122.685 Y150.425 E23.1073
G1 X123.836 Y146.215 E23.3478
G1 X124.925 Y143.049 E23.5321
G1 X126.353 Y139.624 E23.7365
G1 X127.816 Y136.660 E23.9186
G1 X129.742 Y133.312 E24.1313
G1 X131.766 Y130.299 E24.3313
G1 X134.341 Y126.988 E24.5623
G1 X137.083 Y123.979 E24.7865
G1 X137.425 Y124.316 F6000
G92 E0.0000
G1 X140.788 Y121.160 E0.2540 F600
G1 X144.286 Y118.402 E0.4993
G1 X148.416 Y115.688 E0.7715
G1 X152.666 Y113.430 E1.0366
G1 X157.722 Y111.320 E1.3384
G1 X163.004 Y109.751 E1.6419
G1 X168.366 Y108.762 E1.9422
G1 X173.077 Y108.333 E2.2027
G1 X188.062 Y108.344 E3.0281
G1 X193.819 Y108.995 E3.3472
G1 X199.730 Y110.346 E3.6812
G1 X204.926 Y112.131 E3.9838
G1 X210.297 Y114.640 E4.3103
G1 X215.381 Y117.775 E4.6393
G1 X221.252 Y122.408 E5.0512
G1 X226.833 Y128.476 E5.5053
G1 X231.106 Y134.936 E5.9319
G1 X233.983 Y140.758 E6.2896
G1 X236.064 Y146.769 E6.6399
G1 X237.324 Y152.310 E6.9529
G1 X237.862 Y157.023 E7.2142
G1 X238.029 Y159.957 E7.3761
G1 X238.029 Y207.554 E9.9976
G1 X237.743 Y211.389 E10.2095
G1 X236.961 Y216.601 E10.4997
G1 X235.497 Y222.124 E10.8145
G1 X233.547 Y227.155 E11.1116
G1 X231.465 Y231.354 E11.3698
G1 X228.791 Y235.705 E11.6511
G1 X225.783 Y239.684 E11.9258
G1 X221.854 Y243.954 E12.2454
G1 X217.108 Y248.003 E12.5890
G1 X210.740 Y252.228 E13.0099
G1 X203.185 Y255.653 E13.4668
G1 X195.415 Y257.766 E13.9103
G1 X188.633 Y258.675 E14.2872
G1 X152.133 Y258.714 E16.2976
G1 X121.821 Y228.433 E18.6574
G1 X121.821 Y161.566 E22.3404
G1 X121.946 Y159.019 E22.4809
G1 X122.363 Y154.810 E22.7138
G1 X123.154 Y150.532 E22.9534
G1 X124.295 Y146.356 E23.1919
G1 X125.373 Y143.219 E23.3746
G1 X126.790 Y139.823 E23.5773
G1 X128.240 Y136.886 E23.7577
G1 X130.150 Y133.565 E23.9687
G1 X132.155 Y130.580 E24.1668
G1 X134.708 Y127.297 E24.3958
G1 X137.425 Y124.316 E24.6180
G1 X137.767 Y124.653 F6000
G92 E0.0000
G1 X141.101 Y121.524 E0.2518 F600
G1 X144.567 Y118.792 E0.4949
G1 X148.661 Y116.101 E0.7647
G1 X152.872 Y113.864 E1.0274
G1 X157.883 Y111.773 E1.3264
G1 X163.116 Y110.218 E1.6271
G1 X168.431 Y109.238 E1.9248
G1 X173.098 Y108.813 E2.1829
G1 X188.035 Y108.823 E3.0056
G1 X193.738 Y109.469 E3.3218
G1 X199.598 Y110.808 E3.6528
G1 X204.746 Y112.576 E3.9527
G1 X210.068 Y115.063 E4.2762
G1 X215.106 Y118.169 E4.6022
G1 X220.925 Y122.761 E5.0104
G1 X226.454 Y128.773 E5.4603
G1 X230.689 Y135.176 E5.8832
G1 X233.539 Y140.944 E6.2375
G1 X235.602 Y146.901 E6.5847
G1 X236.850 Y152.391 E6.8948
G1 X237.384 Y157.063 E7.1539
G1 X237.549 Y159.971 E7.3143
G1 X237.549 Y207.536 E9.9341
G1 X237.265 Y211.336 E10.1440
G1 X236.491 Y216.503 E10.4318
G1 X235.039 Y221.975 E10.7436
G1 X233.107 Y226.961 E11.0381
G1 X231.044 Y231.121 E11.2938
G1 X228.394 Y235.434 E11.5727
G1 X225.414 Y239.376 E11.8449
G1 X221.520 Y243.608 E12.1616
G1 X216.818 Y247.619 E12.5020
G1 X210.507 Y251.807 E12.9192
G1 X203.022 Y255.200 E13.3718
G1 X195.320 Y257.294 E13.8115
G1 X188.601 Y258.195 E14.1848
G1 X152.331 Y258.233 E16.1825
G1 X122.301 Y228.235 E18.5205
G1 X122.301 Y161.577 E22.1919
G1 X122.425 Y159.055 E22.3310
G1 X122.839 Y154.877 E22.5622
G1 X123.622 Y150.640 E22.7996
G1 X124.754 Y146.498 E23.0361
G1 X125.822 Y143.390 E23.2171
G1 X127.227 Y140.022 E23.4180
G1 X128.664 Y137.113 E23.5968
G1 X130.558 Y133.819 E23.8060
G1 X132.544 Y130.862 E24.0022
G1 X135.076 Y127.607 E24.2293
G1 X137.767 Y124.653 E24.4495
G1 X138.110 Y124.990 F6000
G92 E0.0000
G1 X141.414 Y121.888 E0.2497 F600
G1 X144.848 Y119.182 E0.4904
G1 X148.906 Y116.515 E0.7579
G1 X153.077 Y114.298 E1.0181
G1 X158.044 Y112.226 E1.3145
G1 X163.228 Y110.685 E1.6124
G1 X168.496 Y109.714 E1.9074
G1 X173.120 Y109.293 E2.1632
G1 X188.007 Y109.303 E2.9831
G1 X193.658 Y109.943 E3.2963
G1 X199.466 Y111.270 E3.6245
G1 X204.566 Y113.022 E3.9215
G1 X209.840 Y115.486 E4.2421
G1 X214.830 Y118.563 E4.5650
G1 X220.597 Y123.114 E4.9697
G1 X226.075 Y129.070 E5.4154
G1 X230.272 Y135.415 E5.8344
G1 X233.095 Y141.129 E6.1854
G1 X235.140 Y147.033 E6.5296
G1 X236.376 Y152.471 E6.8367
G1 X236.905 Y157.104 E7.0936
G1 X237.069 Y159.984 E7.2525
G1 X237.069 Y207.518 E9.8705
G1 X236.788 Y211.282 E10.0785
G1 X236.020 Y216.406 E10.3638
G1 X234.582 Y221.827 E10.6727
G1 X232.668 Y226.768 E10.9646
G1 X230.624 Y230.888 E11.2179
G1 X227.997 Y235.163 E11.4943
G1 X225.045 Y239.068 E11.7639
G1 X221.187 Y243.261 E12.0777
G1 X216.529 Y247.235 E12.4150
G1 X210.274 Y251.386 E12.8284
G1 X202.859 Y254.747 E13.2768
G1 X195.224 Y256.823 E13.7126
G1 X188.569 Y257.715 E14.0825
G1 X152.530 Y257.753 E16.0675
G1 X122.781 Y228.036 E18.3835
G1 X122.781 Y161.589 E22.0433
G1 X122.904 Y159.090 E22.1811
G1 X123.314 Y154.945 E22.4105
G1 X124.090 Y150.747 E22.6457
G1 X125.213 Y146.639 E22.8802
G1 X126.271 Y143.560 E23.0595
G1 X127.664 Y140.221 E23.2588
G1 X129.087 Y137.339 E23.4358
G1 X130.965 Y134.073 E23.6433
G1 X132.933 Y131.143 E23.8377
G1 X135.443 Y127.916 E24.0629
G1 X138.110 Y124.990 E24.2809
G1 X138.452 Y125.328 F6000
G92 E0.0000
G1 X141.728 Y122.253 E0.2475 F600
G1 X145.129 Y119.572 E0.4860
G1 X149.151 Y116.928 E0.7511
G1 X153.283 Y114.733 E1.0088
G1 X158.205 Y112.678 E1.3026
G1 X163.340 Y111.153 E1.5976
G1 X168.562 Y110.190 E1.8901
G1 X173.142 Y109.773 E2.1434
G1 X187.980 Y109.783 E2.9607
G1 X193.577 Y110.417 E3.2709
G1 X199.334 Y111.732 E3.5962
G1 X204.386 Y113.468 E3.8904
G1 X209.612 Y115.909 E4.2081
G1 X214.554 Y118.957 E4.5279
G1 X220.270 Y123.467 E4.9289
G1 X225.696 Y129.367 E5.3704
G1 X229.855 Y135.655 E5.7857
G1 X232.651 Y141.315 E6.1334
G1 X234.678 Y147.165 E6.4744
G1 X235.902 Y152.552 E6.7786
G1 X236.427 Y157.145 E7.0333
G1 X236.589 Y159.998 E7.1907
G1 X236.589 Y207.500 E9.8070
G1 X236.311 Y211.229 E10.0130
G1 X235.549 Y216.309 E10.2959
G1 X234.125 Y221.678 E10.6018
G1 X232.228 Y226.574 E10.8910
G1 X230.204 Y230.656 E11.1420
G1 X227.601 Y234.892 E11.4159
G1 X224.676 Y238.760 E11.6829
G1 X220.853 Y242.915 E11.9939
G1 X216.239 Y246.851 E12.3280
G1 X210.041 Y250.964 E12.7377
G1 X202.696 Y254.294 E13.1819
G1 X195.129 Y256.351 E13.6138
G1 X188.537 Y257.235 E13.9801
G1 X152.728 Y257.273 E15.9524
G1 X123.261 Y227.837 E18.2465
G1 X123.261 Y161.601 E21.8947
G1 X123.383 Y159.126 E22.0312
G1 X123.790 Y155.012 E22.2589
G1 X124.559 Y150.854 E22.4918
G1 X125.672 Y146.780 E22.7244
G1 X126.720 Y143.731 E22.9020
G1 X128.102 Y140.420 E23.0996
G1 X129.511 Y137.565 E23.2749
G1 X131.373 Y134.327 E23.4807
G1 X133.322 Y131.425 E23.6732
G1 X135.810 Y128.226 E23.8964
G1 X138.452 Y125.328 E24.1124
G92 E0.0000
G1 E-5.0000 F2700
; feature inner perimeter
G1 X174.446 Y160.975 F6000
G1 X174.536 Y160.890
G1 X175.555 Y161.895
G1 E0.0000 F2700
G92 E0.0000
G1 X184.469 Y161.899 E0.4910 F450
G1 X184.468 Y205.131 E2.8721
G1 X175.181 Y205.131 E3.3837
G1 X175.181 Y163.083 E5.6996
G1 X175.195 Y162.804 E5.7150
G1 X175.229 Y162.587 E5.7271
G1 X175.289 Y162.362 E5.7399
G1 X175.358 Y162.193 E5.7500
G1 X175.434 Y162.054 E5.7587
G1 X175.555 Y161.895 E5.7697
G1 X175.271 Y161.517 F6000
G92 E0.0000
G1 X175.351 Y161.464 E0.0053 F450
G1 X175.437 Y161.429 E0.0104
G1 X175.511 Y161.415 E0.0146
G1 X184.936 Y161.419 E0.5337
G1 X184.949 Y161.660 E0.5469
G1 X184.948 Y205.400 E2.9561
G1 X184.929 Y205.598 E2.9670
G1 X184.701 Y205.611 E2.9796
G1 X174.701 Y205.611 E3.5304
G1 X174.701 Y163.071 E5.8735
G1 X174.717 Y162.755 E5.8909
G1 X174.758 Y162.488 E5.9058
G1 X174.833 Y162.210 E5.9216
G1 X174.923 Y161.986 E5.9349
G1 X175.031 Y161.791 E5.9472
G1 X175.162 Y161.619 E5.9591
G1 X175.271 Y161.517 E5.9673
G1 X174.971 Y161.140 F6000
G92 E0.0000
G1 X175.124 Y161.038 E0.0101 F450
G1 X175.301 Y160.965 E0.0207
