; G-Code generated by Simplify3D(R) Version 4.1.2
; Apr 3, 2020 at 10:38:13 PM
; Settings Summary
;   processName,Process1
;   applyToModels,Visir-Hullmaskin-Overhead-v.3
;   profileName,StiansEnder5PlusTitan (modified)
;   profileVersion,2019-04-06 08:00:00
;   baseProfile,Default (modified)
;   printMaterial,addNorth E-PLA
;   printQuality,Fast
;   printExtruders,
;   extruderName,Primary Extruder
;   extruderToolheadNumber,0
;   extruderDiameter,0.4
;   extruderAutoWidth,0
;   extruderWidth,0.4
;   extrusionMultiplier,1
;   extruderUseRetract,1
;   extruderRetractionDistance,3
;   extruderExtraRestartDistance,0
;   extruderRetractionZLift,0
;   extruderRetractionSpeed,2700
;   extruderUseCoasting,0
;   extruderCoastingDistance,0
;   extruderUseWipe,0
;   extruderWipeDistance,2
;   primaryExtruder,0
;   layerHeight,0.3
;   topSolidLayers,3
;   bottomSolidLayers,3
;   perimeterOutlines,3
;   printPerimetersInsideOut,1
;   startPointOption,3
;   startPointOriginX,0
;   startPointOriginY,0
;   sequentialIslands,0
;   spiralVaseMode,0
;   firstLayerHeightPercentage,100
;   firstLayerWidthPercentage,100
;   firstLayerUnderspeed,0.1
;   useRaft,0
;   raftExtruder,0
;   raftTopLayers,3
;   raftBaseLayers,2
;   raftOffset,3
;   raftSeparationDistance,0.14
;   raftTopInfill,100
;   aboveRaftSpeedMultiplier,0.3
;   useSkirt,0
;   skirtExtruder,0
;   skirtLayers,2
;   skirtOutlines,1
;   skirtOffset,15
;   usePrimePillar,0
;   primePillarExtruder,999
;   primePillarWidth,12
;   primePillarLocation,7
;   primePillarSpeedMultiplier,1.25
;   useOozeShield,0
;   oozeShieldExtruder,999
;   oozeShieldOffset,2
;   oozeShieldOutlines,1
;   oozeShieldSidewallShape,1
;   oozeShieldSidewallAngle,30
;   oozeShieldSpeedMultiplier,1
;   infillExtruder,0
;   internalInfillPattern,Rectilinear
;   externalInfillPattern,Rectilinear
;   infillPercentage,100
;   outlineOverlapPercentage,10
;   infillExtrusionWidthPercentage,100
;   minInfillLength,2
;   infillLayerInterval,1
;   internalInfillAngles,45,-45
;   overlapInternalInfillAngles,0
;   externalInfillAngles,45,-45
;   generateSupport,0
;   supportExtruder,0
;   supportInfillPercentage,25
;   supportExtraInflation,0
;   supportBaseLayers,0
;   denseSupportExtruder,0
;   denseSupportLayers,0
;   denseSupportInfillPercentage,70
;   supportLayerInterval,1
;   supportHorizontalPartOffset,0.3
;   supportUpperSeparationLayers,1
;   supportLowerSeparationLayers,1
;   supportType,0
;   supportGridSpacing,4
;   maxOverhangAngle,45
;   supportAngles,0
;   temperatureName,Primary Extruder,Heated Bed
;   temperatureNumber,0,0
;   temperatureSetpointCount,1,1
;   temperatureSetpointLayers,1,1
;   temperatureSetpointTemperatures,215,60
;   temperatureStabilizeAtStartup,1,1
;   temperatureHeatedBed,0,1
;   fanLayers,1,2
;   fanSpeeds,0,100
;   blipFanToFullPower,1
;   adjustSpeedForCooling,1
;   minSpeedLayerTime,10
;   minCoolingSpeedSlowdown,10
;   increaseFanForCooling,1
;   minFanLayerTime,45
;   maxCoolingFanSpeed,100
;   increaseFanForBridging,1
;   bridgingFanSpeed,100
;   use5D,1
;   relativeEdistances,0
;   allowEaxisZeroing,1
;   independentExtruderAxes,0
;   includeM10123,0
;   stickySupport,1
;   applyToolheadOffsets,0
;   gcodeXoffset,0
;   gcodeYoffset,0
;   gcodeZoffset,0
;   overrideMachineDefinition,1
;   machineTypeOverride,0
;   strokeXoverride,361
;   strokeYoverride,367
;   strokeZoverride,400
;   originOffsetXoverride,0
;   originOffsetYoverride,0
;   originOffsetZoverride,0
;   homeXdirOverride,1
;   homeYdirOverride,1
;   homeZdirOverride,-1
;   flipXoverride,1
;   flipYoverride,-1
;   flipZoverride,1
;   toolheadOffsets,0,0|0,0|0,0|0,0|0,0|0,0
;   overrideFirmwareConfiguration,0
;   firmwareTypeOverride,RepRap (Marlin/Repetier/Sprinter)
;   GPXconfigOverride,r2
;   baudRateOverride,115200
;   overridePrinterModels,1
;   printerModelsOverride
;   startingGcode,G32 ; home and level bed by screws,M98 P"0:/macros/utils/prime_single_line",
;   layerChangeGcode,
;   retractionGcode,
;   toolChangeGcode,
;   endingGcode,G91,G1 X999 Y999 Z50 H1 F1500,G1 X-15 Y-15 F9999,G1 E7 F300,G1 E3 F1000,G1 E-20 F1000,G90,M106 S0 ; turn off cooling fan,M104 S0 ; turn off extruder,M140 S0 ; turn off bed,M84 ; disable motors
;   exportFileFormat,gcode
;   celebration,0
;   celebrationSong,Random Song
;   postProcessing,
;   defaultSpeed,4500
;   outlineUnderspeed,0.6
;   solidInfillUnderspeed,0.8
;   supportUnderspeed,0.8
;   rapidXYspeed,30000
;   rapidZspeed,2400
;   minBridgingArea,50
;   bridgingExtraInflation,0
;   bridgingExtrusionMultiplier,1
;   bridgingSpeedMultiplier,1
;   useFixedBridgingAngle,0
;   fixedBridgingAngle,0
;   applyBridgingToPerimeters,1
;   filamentDiameters,1.7|1.75|1.75|1.75|1.75|1.75
;   filamentPricesPerKg,46|46|46|46|46|46
;   filamentDensities,1.25|1.25|1.25|1.25|1.25|1.25
;   useMinPrintHeight,0
;   minPrintHeight,0
;   useMaxPrintHeight,0
;   maxPrintHeight,0
;   useDiaphragm,0
;   diaphragmLayerInterval,20
;   robustSlicing,1
;   mergeAllIntoSolid,0
;   onlyRetractWhenCrossingOutline,1
;   retractBetweenLayers,0
;   useRetractionMinTravel,1
;   retractionMinTravel,1.5
;   retractWhileWiping,0
;   onlyWipeOutlines,1
;   avoidCrossingOutline,1
;   maxMovementDetourFactor,10
;   toolChangeRetractionDistance,12
;   toolChangeExtraRestartDistance,-0.5
;   toolChangeRetractionSpeed,600
;   externalThinWallType,1
;   internalThinWallType,1
;   thinWallAllowedOverlapPercentage,10
;   singleExtrusionMinLength,0.5
;   singleExtrusionMinPrintingWidthPercentage,50
;   singleExtrusionMaxPrintingWidthPercentage,200
;   singleExtrusionEndpointExtension,0.2
;   horizontalSizeCompensation,0
G90
M82
M106 S0
M140 S60
M190 S60
M104 S215 T0
M109 S215 T0
G32 ; home and level bed by screws
M98 P"0:/macros/utils/prime_single_line"
; process Process1
; layer 1, Z = 0.300
T0
G92 E0.0000
G1 E-3.0000 F2700
; feature inner perimeter
; tool H0.300 W0.400
G1 Z0.300 F2400
G1 X88.263 Y111.350 F30000
G1 E0.0000 F2700
G92 E0.0000
G1 X88.516 Y111.766 E0.0258 F360
G1 X88.667 Y111.969 E0.0391
G1 X88.848 Y112.173 E0.0536
G1 X89.196 Y112.482 E0.0782
G1 X89.598 Y112.736 E0.1033
G1 X89.919 Y112.883 E0.1220
G1 X90.224 Y112.970 E0.1387
G1 X90.707 Y113.043 E0.1646
G1 X91.223 Y113.031 E0.1918
G1 X91.706 Y112.937 E0.2179
G1 X92.000 Y112.838 E0.2343
G1 X92.442 Y112.623 E0.2602
G1 X92.859 Y112.323 E0.2874
G1 X93.500 Y111.667 E0.3359
G1 X93.500 Y167.313 E3.2778
G1 X93.549 Y168.555 E3.3435
G1 X93.698 Y169.808 E3.4102
G1 X93.945 Y171.046 E3.4769
G1 X94.290 Y172.260 E3.5437
G1 X94.728 Y173.443 E3.6104
G1 X95.259 Y174.589 E3.6771
G1 X95.873 Y175.680 E3.7433
G1 X98.029 Y179.025 E3.9537
G1 X100.310 Y182.274 E4.1636
G1 X102.719 Y185.429 E4.3735
G1 X105.253 Y188.486 E4.5834
G1 X107.906 Y191.439 E4.7933
G1 X110.675 Y194.283 E5.0031
G1 X113.556 Y197.015 E5.2130
G1 X116.543 Y199.629 E5.4229
G1 X119.633 Y202.123 E5.6328
G1 X122.819 Y204.490 E5.8427
G1 X126.098 Y206.729 E6.0525
G1 X129.463 Y208.835 E6.2624
G1 X132.909 Y210.805 E6.4723
G1 X136.432 Y212.636 E6.6822
G1 X140.025 Y214.324 E6.8920
G1 X143.682 Y215.868 E7.1019
G1 X147.398 Y217.265 E7.3118
G1 X151.167 Y218.512 E7.5217
G1 X154.983 Y219.607 E7.7316
G1 X158.840 Y220.549 E7.9415
G1 X162.730 Y221.337 E8.1513
G1 X166.650 Y221.968 E8.3612
G1 X170.591 Y222.443 E8.5711
G1 X174.548 Y222.760 E8.7810
G1 X178.515 Y222.918 E8.9908
G1 X182.485 Y222.918 E9.2007
G1 X186.452 Y222.760 E9.4106
G1 X190.409 Y222.443 E9.6205
G1 X194.350 Y221.968 E9.8304
G1 X198.270 Y221.337 E10.0402
G1 X202.160 Y220.549 E10.2501
G1 X206.017 Y219.607 E10.4600
G1 X209.833 Y218.512 E10.6699
G1 X213.602 Y217.265 E10.8798
G1 X217.318 Y215.868 E11.0896
G1 X220.975 Y214.324 E11.2995
G1 X224.568 Y212.636 E11.5094
G1 X228.091 Y210.805 E11.7193
G1 X231.537 Y208.835 E11.9292
G1 X234.902 Y206.729 E12.1390
G1 X238.181 Y204.490 E12.3489
G1 X241.367 Y202.123 E12.5588
G1 X244.457 Y199.629 E12.7687
G1 X247.444 Y197.015 E12.9785
G1 X250.325 Y194.283 E13.1884
G1 X253.094 Y191.439 E13.3983
G1 X255.747 Y188.486 E13.6082
G1 X258.281 Y185.429 E13.8181
G1 X260.690 Y182.274 E14.0280
G1 X262.971 Y179.025 E14.2378
G1 X265.127 Y175.680 E14.4482
G1 X265.741 Y174.589 E14.5144
G1 X266.272 Y173.443 E14.5812
G1 X266.710 Y172.260 E14.6479
G1 X267.055 Y171.046 E14.7146
G1 X267.302 Y169.808 E14.7813
G1 X267.451 Y168.555 E14.8481
G1 X267.500 Y167.313 E14.9138
G1 X267.500 Y111.667 E17.8557
G1 X268.141 Y112.322 E17.9042
G1 X268.558 Y112.623 E17.9313
G1 X269.000 Y112.838 E17.9573
G1 X269.294 Y112.937 E17.9737
G1 X269.777 Y113.031 E17.9997
G1 X270.293 Y113.043 E18.0270
G1 X270.776 Y112.970 E18.0528
G1 X271.080 Y112.883 E18.0696
G1 X271.403 Y112.736 E18.0883
G1 X271.806 Y112.482 E18.1135
G1 X272.155 Y112.171 E18.1382
G1 X272.334 Y111.968 E18.1525
G1 X272.485 Y111.764 E18.1659
G1 X272.735 Y111.349 E18.1916
G1 X272.999 Y111.422 E18.2060
G1 X273.000 Y120.448 E18.6832
G1 X272.738 Y120.522 E18.6976
G1 X272.471 Y120.089 E18.7245
G1 X272.185 Y119.736 E18.7485
G1 X271.974 Y119.533 E18.7640
G1 X271.598 Y119.251 E18.7889
G1 X271.100 Y118.998 E18.8184
G1 X270.776 Y118.906 E18.8362
G1 X270.313 Y118.836 E18.8609
G1 X270.010 Y118.830 E18.8770
G1 X269.544 Y118.881 E18.9018
G1 X269.248 Y118.952 E18.9179
G1 X268.785 Y119.130 E18.9441
G1 X267.900 Y119.669 E18.9989
G1 X267.900 Y169.205 E21.6177
G1 X267.886 Y169.548 E21.6359
G1 X267.847 Y169.870 E21.6530
G1 X267.782 Y170.187 E21.6701
G1 X267.691 Y170.497 E21.6872
G1 X267.408 Y171.239 E21.7292
G1 X267.275 Y171.689 E21.7540
G1 X267.177 Y172.149 E21.7789
G1 X267.115 Y172.622 E21.8041
G1 X266.963 Y176.805 E22.0254
G1 X266.677 Y180.489 E22.2207
G1 X266.233 Y184.162 E22.4163
G1 X265.950 Y186.005 E22.5149
G1 X265.926 Y186.308 E22.5310
G1 X265.988 Y186.794 E22.5569
G1 X266.182 Y187.271 E22.5841
G1 X266.490 Y187.682 E22.6113
G1 X266.874 Y187.988 E22.6372
G1 X267.201 Y188.150 E22.6565
G1 X267.485 Y188.234 E22.6722
G1 X268.706 Y188.489 E22.7381
G1 X268.870 Y188.543 E22.7472
G1 X268.975 Y188.589 E22.7533
G1 X269.092 Y188.652 E22.7603
G1 X269.279 Y188.786 E22.7725
G1 X269.383 Y188.889 E22.7802
G1 X269.468 Y189.006 E22.7879
G1 X269.514 Y189.099 E22.7934
G1 X269.533 Y189.157 E22.7966
G1 X269.534 Y189.236 E22.8008
G1 X269.227 Y190.782 E22.8841
G1 X269.189 Y190.900 E22.8907
G1 X269.157 Y190.945 E22.8936
G1 X269.068 Y191.031 E22.9001
G1 X268.934 Y191.115 E22.9085
G1 X268.810 Y191.168 E22.9156
G1 X268.769 Y191.181 E22.9179
G1 X268.481 Y191.230 E22.9333
G1 X268.240 Y191.230 E22.9461
G1 X267.999 Y191.196 E22.9589
G1 X266.906 Y190.974 E23.0179
G1 X266.459 Y190.942 E23.0416
G1 X265.960 Y191.035 E23.0684
G1 X265.498 Y191.251 E23.0954
G1 X265.104 Y191.578 E23.1225
G1 X264.806 Y191.993 E23.1495
G1 X264.648 Y192.404 E23.1728
G1 X263.974 Y194.997 E23.3144
G1 X262.913 Y198.539 E23.5099
G1 X261.704 Y202.029 E23.7052
G1 X260.346 Y205.466 E23.9005
G1 X258.843 Y208.841 E24.0958
G1 X257.198 Y212.149 E24.2912
G1 X255.414 Y215.383 E24.4865
G1 X253.492 Y218.539 E24.6818
G1 X251.438 Y221.610 E24.8771
G1 X249.255 Y224.590 E25.0724
G1 X246.947 Y227.474 E25.2677
G1 X244.518 Y230.258 E25.4631
G1 X241.972 Y232.935 E25.6583
G1 X239.315 Y235.501 E25.8537
G1 X236.550 Y237.952 E26.0490
G1 X233.684 Y240.283 E26.2443
G1 X230.720 Y242.489 E26.4396
G1 X227.666 Y244.566 E26.6349
G1 X224.524 Y246.513 E26.8303
G1 X221.576 Y248.178 E27.0093
G1 X221.230 Y248.425 E27.0318
G1 X220.921 Y248.788 E27.0570
G1 X220.744 Y249.116 E27.0767
G1 X220.608 Y249.571 E27.1018
G1 X220.588 Y250.034 E27.1263
G1 X220.637 Y250.356 E27.1435
G1 X220.728 Y250.646 E27.1596
G1 X221.259 Y251.734 E27.2236
G1 X221.323 Y251.878 E27.2319
G1 X221.380 Y252.052 E27.2416
G1 X221.422 Y252.257 E27.2527
G1 X221.434 Y252.444 E27.2626
G1 X221.420 Y252.610 E27.2714
G1 X221.385 Y252.756 E27.2793
G1 X221.357 Y252.824 E27.2832
G1 X221.311 Y252.901 E27.2880
G1 X221.271 Y252.948 E27.2912
G1 X221.239 Y252.975 E27.2935
G1 X221.175 Y253.013 E27.2974
G1 X219.811 Y253.683 E27.3777
G1 X219.739 Y253.711 E27.3818
G1 X219.688 Y253.722 E27.3846
G1 X219.660 Y253.724 E27.3860
G1 X219.565 Y253.716 E27.3911
G1 X219.499 Y253.700 E27.3947
G1 X219.421 Y253.671 E27.3991
G1 X219.286 Y253.601 E27.4071
G1 X219.248 Y253.576 E27.4095
G1 X219.039 Y253.392 E27.4242
G1 X218.867 Y253.176 E27.4388
G1 X218.741 Y252.958 E27.4521
G1 X218.251 Y251.960 E27.5109
G1 X218.005 Y251.589 E27.5345
G1 X217.625 Y251.248 E27.5615
G1 X217.192 Y251.024 E27.5872
G1 X216.819 Y250.924 E27.6076
G1 X216.351 Y250.900 E27.6324
G1 X215.993 Y250.959 E27.6516
G1 X215.714 Y251.055 E27.6672
G1 X214.653 Y251.519 E27.7284
G1 X211.221 Y252.905 E27.9241
G1 X207.739 Y254.142 E28.1195
G1 X204.209 Y255.229 E28.3147
G1 X200.634 Y256.165 E28.5101
G1 X197.024 Y256.947 E28.7054
G1 X193.383 Y257.574 E28.9007
G1 X189.719 Y258.046 E29.0960
G1 X186.038 Y258.360 E29.2913
G1 X182.347 Y258.518 E29.4866
G1 X178.653 Y258.518 E29.6820
G1 X174.962 Y258.360 E29.8773
G1 X171.281 Y258.046 E30.0726
G1 X167.617 Y257.574 E30.2679
G1 X163.976 Y256.947 E30.4632
G1 X160.366 Y256.165 E30.6585
G1 X156.791 Y255.229 E30.8539
G1 X153.261 Y254.142 E31.0491
G1 X149.779 Y252.905 E31.2445
G1 X146.348 Y251.519 E31.4401
G1 X145.266 Y251.047 E31.5025
G1 X144.841 Y250.920 E31.5260
G1 X144.330 Y250.902 E31.5530
G1 X143.854 Y251.008 E31.5788
G1 X143.502 Y251.170 E31.5993
G1 X143.110 Y251.466 E31.6253
G1 X142.807 Y251.850 E31.6511
G1 X142.259 Y252.957 E31.7164
G1 X142.133 Y253.176 E31.7298
G1 X141.958 Y253.395 E31.7446
G1 X141.753 Y253.575 E31.7590
G1 X141.714 Y253.601 E31.7615
G1 X141.577 Y253.672 E31.7697
G1 X141.502 Y253.700 E31.7739
G1 X141.433 Y253.716 E31.7777
G1 X141.340 Y253.724 E31.7826
G1 X141.311 Y253.722 E31.7841
G1 X141.261 Y253.711 E31.7868
G1 X141.189 Y253.683 E31.7909
G1 X139.825 Y253.013 E31.8712
G1 X139.761 Y252.975 E31.8752
G1 X139.728 Y252.947 E31.8774
G1 X139.690 Y252.902 E31.8806
G1 X139.646 Y252.830 E31.8850
G1 X139.604 Y252.719 E31.8913
G1 X139.572 Y252.563 E31.8997
G1 X139.566 Y252.493 E31.9034
G1 X139.575 Y252.284 E31.9145
G1 X139.614 Y252.073 E31.9258
G1 X139.687 Y251.856 E31.9380
G1 X140.280 Y250.627 E32.0101
G1 X140.396 Y250.202 E32.0334
G1 X140.412 Y249.733 E32.0582
G1 X140.311 Y249.250 E32.0843
G1 X140.092 Y248.804 E32.1106
G1 X139.770 Y248.425 E32.1368
G1 X139.424 Y248.178 E32.1593
G1 X136.476 Y246.513 E32.3383
G1 X133.334 Y244.566 E32.5337
G1 X130.280 Y242.489 E32.7290
G1 X127.316 Y240.283 E32.9243
G1 X124.450 Y237.952 E33.1196
G1 X121.685 Y235.501 E33.3150
G1 X119.028 Y232.935 E33.5103
G1 X116.482 Y230.258 E33.7056
G1 X114.053 Y227.474 E33.9009
G1 X111.745 Y224.590 E34.0962
G1 X109.562 Y221.610 E34.2915
G1 X107.508 Y218.539 E34.4869
G1 X105.586 Y215.383 E34.6822
G1 X103.802 Y212.149 E34.8775
G1 X102.157 Y208.841 E35.0728
G1 X100.654 Y205.466 E35.2681
G1 X99.296 Y202.029 E35.4634
G1 X98.087 Y198.539 E35.6587
G1 X97.026 Y194.997 E35.8542
G1 X96.352 Y192.404 E35.9959
G1 X96.194 Y191.993 E36.0191
G1 X95.896 Y191.578 E36.0461
G1 X95.522 Y191.267 E36.0719
G1 X95.177 Y191.087 E36.0924
G1 X94.704 Y190.958 E36.1184
G1 X94.215 Y190.953 E36.1442
G1 X93.004 Y191.196 E36.2095
G1 X92.746 Y191.231 E36.2233
G1 X92.488 Y191.229 E36.2369
G1 X92.403 Y191.219 E36.2414
G1 X92.236 Y191.181 E36.2505
G1 X92.030 Y191.098 E36.2623
G1 X92.005 Y191.085 E36.2637
G1 X91.895 Y191.004 E36.2709
G1 X91.868 Y190.978 E36.2729
G1 X91.849 Y190.955 E36.2745
G1 X91.790 Y190.843 E36.2812
G1 X91.776 Y190.795 E36.2838
G1 X91.466 Y189.236 E36.3679
G1 X91.467 Y189.157 E36.3721
G1 X91.485 Y189.100 E36.3752
G1 X91.535 Y189.001 E36.3811
G1 X91.616 Y188.890 E36.3884
G1 X91.726 Y188.782 E36.3965
G1 X91.907 Y188.652 E36.4083
G1 X92.025 Y188.589 E36.4154
G1 X92.130 Y188.543 E36.4214
G1 X92.294 Y188.489 E36.4305
G1 X93.515 Y188.234 E36.4965
G1 X93.799 Y188.150 E36.5121
G1 X94.126 Y187.988 E36.5314
G1 X94.510 Y187.682 E36.5574
G1 X94.818 Y187.271 E36.5846
G1 X95.012 Y186.794 E36.6118
G1 X95.074 Y186.308 E36.6377
G1 X95.050 Y186.005 E36.6537
G1 X94.767 Y184.162 E36.7523
G1 X94.323 Y180.489 E36.9479
G1 X94.037 Y176.805 E37.1433
G1 X93.885 Y172.622 E37.3646
G1 X93.823 Y172.149 E37.3898
G1 X93.725 Y171.689 E37.4147
G1 X93.592 Y171.239 E37.4395
G1 X93.309 Y170.497 E37.4815
G1 X93.218 Y170.187 E37.4986
